/* XPM */
static char *space_11738632472[] = {
/* columns rows colors chars-per-pixel */
"64 64 91 1 ",
"  c #0F0801",
". c #150B04",
"X c #1D0E04",
"o c #1D1006",
"O c #171008",
"+ c #1D120A",
"@ c #200F04",
"# c #241205",
"$ c #2C1606",
"% c #2E1807",
"& c #24150A",
"* c #2B1609",
"= c #27180E",
"- c #2E190A",
"; c #311707",
": c #321907",
"> c #381B07",
", c #341B0A",
"< c #3B1E0A",
"1 c #2B1C12",
"2 c #311E11",
"3 c #3C210E",
"4 c #342216",
"5 c #3B2211",
"6 c #362418",
"7 c #392618",
"8 c #3D291A",
"9 c #401F0A",
"0 c #44220B",
"q c #4B250C",
"w c #4E280E",
"e c #50270D",
"r c #542A0E",
"t c #5B2D0F",
"y c #5F300F",
"u c #442511",
"i c #482712",
"p c #452911",
"a c #4D2A13",
"s c #412A1C",
"d c #532D13",
"f c #5C2E11",
"g c #533014",
"h c #5C3215",
"j c #573118",
"k c #5D3418",
"l c #5F3918",
"z c #602F0F",
"x c #62300F",
"c c #612F10",
"v c #643211",
"b c #6D3612",
"n c #6D3815",
"m c #623619",
"M c #66391A",
"N c #6B3B1B",
"B c #703713",
"V c #743A15",
"C c #793D17",
"Z c #723E1C",
"A c #7A3F18",
"S c #6F431D",
"D c #74411E",
"F c #7D411A",
"G c #7C4421",
"H c #7E4821",
"J c #83451C",
"K c #88471E",
"L c #87481F",
"P c #89491F",
"I c #814721",
"U c #854A23",
"Y c #8C4C22",
"T c #914E23",
"R c #8D5125",
"E c #945125",
"W c #995427",
"Q c #9C5927",
"! c #965328",
"~ c #9D5629",
"^ c #965C29",
"/ c #9E5929",
"( c #A25C2A",
") c #9E602B",
"_ c #A6612C",
"` c #AA652D",
"' c #AE692F",
"] c #B16B2F",
"[ c #AF6A30",
"{ c #B46E31",
"} c #B67032",
/* pixels */
"~~WKVbbbbbBVCCVVVBBBBbffvccbbbBAJKYYKYKYKKYKKJAVBBbbbbbbbbBbvecC",
"`(~WYCbbbCJTTTTTTYJAVvicBbbbbbbbbbBbBbBBBbBBBBbbBBbbbbbbbbve9;NT",
"{`(~~TJJKEW~~~((((~TJN<eBbbbBbbbbbbbbbbbbbbbbbbbbbbbbbbBvt;@;mT~",
"}[(~~~WW~~(W((_{[(~~TN<ebbvzcbbbbbbbbbbBbbbbbbbbbbbbbbbc9#;fGT~(",
"}](~~~~~(~((_]}}{((~!N9ez9<;;fbbbbbBbbbbbbbBBBBBbbbvvce,&,uNT~((",
"{{(~~~~~~((]{]}}[(~~Ym<i9rfr>@9rvbBBbbbbbbvvcreqq9>;**1uNGNddGW(",
"}]`(~~~~(`]}}}}{`(~~Uu#uZTTIb9$@;99qq9999<<>@@#$;>9ajMGYE~!HMajY",
"}`(~~~~(_{}}}}}]_~~~D2*NW~~WYGbi9;;;;;;@$>999eercVFYTE~~~~~~THaN",
"{_(~~(~~`{{{}}}{(~~~N*;nK~~~~ETJBbccffc5#ifcbbbbBVCJPTTPUYW~WIiG",
"{(~~~~~~([{{{{{`(~~!m&9vCYW~~(~ETTYJUKYm;;0rcbbbbbBVCCCVVCITGi5^",
"`(~~~~~~((`{{{[_~~(Yd#qbBCKE~~~~~~WW~~~I<*<<<qcmxxtrtbBbbBBv5O,)",
"_(~~TYYW~~({{{`(~~~Ui*fBBbVFTW(~~~~~~~~D2iNki<<2<>>%>qvbbvr;-=+R",
"(~WYAVJW~~((__(((~~G9>cbbbbBAPW(~~~~~~Ua<N!!IDMjddhr0$<ryw%=771M",
"~WJVBbAT~~~~(~(!WTYm;9bBbbbbbCKT~~~~~Wm,jY~(__/!RRRLDa,<0%+6s845",
"TKVBbbCT~~~~~~TYJAm0&;ecbBbbbBBJT~~~~DuiG!~([{[['`_(!UNa,&48ss6&",
"JBbBbbVY~~~~EYJCbf<11=;9rvbbbbbBFKT~YauD!~~([{}}}]]'_Q!Fa48sss7+",
"VBbbbbBJT~WTKAVbe:=161++$0fvbBbbBCFUN2fUW(~({}}}}}}](((WZ<2sss2=",
"BbbbbbbVKYUFVBxr$+=11=+oX#,qrzcbvctd<;fAT~~('{}{}}}'(~~~Tj27s812",
"bbbbbbbbVCVVbzq;X+==1<500>$>>9qq09,&.;fVY~~(`{{}}]]`(~(W!Gs2772r",
"bbbbbbbbbbbce>$#*<5ikGAVbvtreq90q9>$X,cbJE(((_`]]`_(~~~(~!m-2<av",
"bbbbbbbbbct9,,idkSHY!~!YJCBbbccczzvf,,fbAY~~(((`(((W(WWWWTG9=abB",
"bbbbbbbbcq<<dZY~/``_(/(/(EKACCBBVCAKk,ebBYTEWWWWW(W(WWTKAJJf;rbb",
"bbbbbbvci9jDY~(`}}}{[``'[`(EYYJYUYT~Uu9zBVAJJKPYEWWTTKFVVBVc;ebb",
"bbbbbbt9iDY~~~(`}}}{{{}}{[`(~~~~(~~~~c9ebbbBBVVCFJJJAVBbbcc9;rbb",
"bbbvbf>0G!~~~~('}}}}}{}}}}[(~~~~~~~~~Ua<tbbbbbbbBBBBbbbztq<:0xBB",
"bbvfr,*mT~~~~((`[}{}}}}}}}{_(~~~~~~~~!N<9zbbbbbbbbbbbztq>>;>xbBb",
"Bc9># <ATW~~~~(([[[}}}{{{{{`~~~~W~~~~~Yj>qxbbbbbbbBvt0>>9rt<tbBb",
"c<X..+,vAUE~~~(((__[}]{{[`_(~~~(~~~~~~~Yi>qvbbbbbbzr>:0tbbbq9zvb",
",==+=i;0vVFTEW(W/~((''`_((~~~~~~~//~~~~~G-&0cbbbvt9>9tvbbVFN$%9t",
"271o0c<;rbbVFTEW~~~~~(/~~~~~~~~~~~~/~~~~Ya**3fcfq>>evbbBVJ!Y<..X",
"s1&ubbt$9cbbBBAKYW~~~~~~~~(~~~~~~~~~~~~~!k0i3<>,>qzbbbbVJE(Yr90;",
"1&rbVBb9;rbbBbBBCFYT~~~~~~~~~~WT!!~~~~~~!m5qcftfvbbbbBVKW~WEM0vv",
">zbbVVBt;9zbbbbbbbVCJTW~W(~WTKJVZY~~~~~~Tm<qvBBbbBBBbVKW((~WJ<cb",
"xBVFPTAb0$0zbbBbbbbbBVJYTETJCbbbBZY(~~TJVq;evBBBVCFFKKE('((~Yu9B",
"CJW_`(PCv>;evbbbbbbbbbBVAAVVBbbbbBATEYCBv>;rBAIYTWWW~~(`}'(~Ta9B",
"EW']]`WJBt::ebbbbbnbbbbnbBbbbBbbnbBAABBBe$9cVYWW~~~~~((]{`(~Ti<Y",
"W/`}}](WJBq%$qzBbbbbnbnbbbbbbbbbbbbBBbbt$;tBJE~~~~~~~(`]{(~~Tu=Y",
"/~`{{{(WWJb0.&qvbbbbbbbnVbbnbbVbbbbbbbv;@qbCTW~~~((((_[}'(~~Y2Xm",
"EW_'}{((~!Pn* #avbbbbbnbbbbnbbbbbbbbBc9@>cCKW~((`[[[[{{{`~~~G,,<",
"FTQ```(~~~~F<X#;ebBbbbbbnbbbbbbbbbbBv9@;rVJW~(`[[{{{{}}{_~~!N$u&",
"bFW/((~~Q~~Uu5a2;qxbbbbbbBbbbbbbbbbz9&$rVKT((`{{}}}}}}}[(~~Ta>rX",
"bVYQW(W~!~~IiaGN<$0rxbbbbbbbbbbbbbc<&,rVUW~(`{}}}}}}}{{((~~I29c*",
"bBKW~~~~~~!GujTRZp,->qtxvBbBbbbbbf9@<cATW~(({}}}}}}}}{'(~~!m#fb<",
"bbKW~~(~~~!kiG!~/RSg3%$:>qtbbbbbt>$0nYEW~(({}}}}}}}}}'(~~EUu;cbe",
"bBK~~ETTYKD0dYW(`'`^HSp,**;0cbv9;#dFR~~~(~([}}}}}}}}{((EUnd;rbbt",
"bVYTKJFAVVw:mEWQ)`']])RSk5&&;99&&-mR~~~(~~(`]}}}}}}}'(WIa;$qbbbt",
"bVACVBBBbt$%MKEWWQ_`''_^YGm2##&&5<iUT!W~~~~((]{}}}}[((Ev$;qzbbbt",
"bbBBbbbBb<#0bCFKPEEQ/(//~~TGku2=76,kFJYW~~~~((`[{}[[(~Yf$9zbbbbe",
"bbbbbbbbe#:tbbBBCAJYUTT~~(~~TUM166&<cBAYE(~~W((_`{[((WKr#9vBbbr>",
"bbbbbbbr%$qxbbbbbnBBCAAYYTEW~~Yd=6+:cBBCYTE~WWWQ(_((WWFr$<bbbt><",
"bbbnbbx3@>zbbbbbbbbBBBBVCJJYTTTG6=O,bbbBVFKKYYPRTE~~WPCx:;xBbq<v",
"bbbbBbq#:tbbbBbbbbnbbBbbBBVCAAUWN,.9bbbbBBBVVCFDAAJKKFVx9#rbf<jV",
"nbbbbx>#wbbbbnbbbbnnnbbbBbbbbBAW!gO9bbbbBbbbbnbbVBVVVBBbw#<vr3IF",
"bbbbby#>xbbbbbbbnnBbBnnnbBBbbBBY~G&<cbBbbbbbbbbbbbbbbbbBt$$d,aEK",
"bnvbx3#qxbbbbbVbbBbVnbbbbbbbbbbVYTu;fbbbnbnbnbbbbbbbbbBbb0#q-vEJ",
"nbbbw$#<xbbbbbnbbbbbnBbbbbbBbbbbCYm$tbnbbbbbbbnbbbbnbbbbbt:*$xFC",
"bbbt$#>#qxbbbbbbbbbbbbbbbbbbbbbbnCv$dbbbbbbbbnbbbbbnbbbbBv0.;vBB",
"bVx<XX>$#wvbbbbbbbbbbbbbbbbbbbbbbc<$qvbbbbbbbbbbbbbbbbbbBbt%$zbb",
"bbe#><###%qxbBBBbbbbbbbbbbbbbbvvr<X@$0rvbbbbbbnbbbbnbbbbbbve#zBb",
"vx>@0t0@.#%<exxbbbbbbbbbbbbbvzt>X.;q$@>txbbbbbbbbbnbbbBvbbBt$9zb",
"xq-##:0<Xo>>;>qrttxxzvvxttq0<:#X%qcbr,#$qyxbvbbbnbbbbbbbbbbf#:$9",
"t9txe>#%o.>tr9$$##$:>>>$@X@@#-dMnVCFCh,##,wrzxbbbbbbbbbbbbve@;@.",
"YVbbbbxe0#;rbvzrq<:$$;$$<qrtu<DEEEERDpaDlp34:<qertttfrerra>@@>e;",
"WPVbbbbbbr%:0tzxvvfr<$#*:0qq:&<NEYHj3gU/_^RUS0&o##$##**$$;0e>;$$"
};
