/* XPM */
static char *colactable_11738632472[] = {
/* columns rows colors chars-per-pixel */
"64 64 196 2 ",
"   c #030304",
".  c #0B0604",
"X  c #0E0805",
"o  c #0C0B0A",
"O  c #080708",
"+  c #100702",
"@  c #150B03",
"#  c #1B0E04",
"$  c #120E0A",
"%  c #1F1005",
"&  c #12120F",
"*  c #1E130A",
"=  c #151413",
"-  c #191512",
";  c #1B1A16",
":  c #1D1C1B",
">  c #200F04",
",  c #241206",
"<  c #2B1506",
"1  c #2F1807",
"2  c #25150A",
"3  c #2B1609",
"4  c #2D190B",
"5  c #301707",
"6  c #321907",
"7  c #341B0A",
"8  c #3B1D09",
"9  c #2C1C11",
"0  c #231E1A",
"q  c #311F13",
"w  c #3D210D",
"e  c #21211E",
"r  c #2C2117",
"t  c #342215",
"y  c #3A2413",
"u  c #3C2917",
"i  c #33241A",
"p  c #3A2619",
"a  c #3E291B",
"s  c #252422",
"d  c #2C2520",
"f  c #2D2C29",
"g  c #2A2927",
"h  c #3D2C21",
"j  c #372E25",
"k  c #32312D",
"l  c #3F3229",
"z  c #3E3124",
"x  c #363532",
"c  c #383733",
"v  c #3C3A36",
"b  c #3E3D39",
"n  c #401F0A",
"m  c #43220B",
"M  c #4B250C",
"N  c #4D280F",
"B  c #50270C",
"V  c #54290E",
"C  c #5B2D0F",
"Z  c #442511",
"A  c #492711",
"S  c #432915",
"D  c #4C2A12",
"F  c #422B1B",
"G  c #4C2C18",
"H  c #532C13",
"J  c #5C2E11",
"K  c #4A301C",
"L  c #5B3115",
"P  c #533519",
"I  c #5D3319",
"U  c #563216",
"Y  c #602F0F",
"T  c #62300F",
"R  c #602F10",
"E  c #653211",
"W  c #6D3512",
"Q  c #6D3815",
"!  c #623619",
"~  c #653A1A",
"^  c #6C3C1C",
"/  c #683718",
"(  c #703712",
")  c #733A15",
"_  c #783D17",
"`  c #733E1B",
"'  c #7A3E18",
"]  c #463225",
"[  c #493528",
"{  c #413E39",
"}  c #433930",
"|  c #513622",
" . c #6F431E",
".. c #74411E",
"X. c #7D421B",
"o. c #44423D",
"O. c #4A453E",
"+. c #774220",
"@. c #7B4420",
"#. c #7C4B22",
"$. c #4B4A44",
"%. c #4C4D49",
"&. c #474641",
"*. c #53514B",
"=. c #5D5B54",
"-. c #585751",
";. c #524F46",
":. c #66665D",
">. c #656561",
",. c #6C6A62",
"<. c #6A6965",
"1. c #706F66",
"2. c #736E6A",
"3. c #75736C",
"4. c #7B766C",
"5. c #7B786E",
"6. c #767066",
"7. c #777470",
"8. c #7A7672",
"9. c #7E7B74",
"0. c #7F7D78",
"q. c #84451D",
"w. c #87481E",
"e. c #89491F",
"r. c #88471E",
"t. c #824620",
"y. c #854A22",
"u. c #8C4C23",
"i. c #914E24",
"p. c #8C5226",
"a. c #945226",
"s. c #995427",
"d. c #965428",
"f. c #9D5629",
"g. c #9D5929",
"h. c #A25C2A",
"j. c #9F612C",
"k. c #A5622C",
"l. c #AA642D",
"z. c #AE692E",
"x. c #B16C2F",
"c. c #B5702F",
"v. c #AF6B30",
"b. c #B46E31",
"n. c #B57032",
"m. c #817F76",
"M. c #817F79",
"N. c #84827B",
"B. c #8C8A7D",
"V. c #89867D",
"C. c #8C8C83",
"Z. c #918E80",
"A. c #8F928E",
"S. c #989587",
"D. c #9D9B93",
"F. c #A19D93",
"G. c #9EA08F",
"H. c #9BA093",
"J. c #A9A69B",
"K. c #ACA89D",
"L. c #A6A699",
"P. c #AEACA1",
"I. c #A6A8A3",
"U. c #B3AFA3",
"Y. c #BDBAAE",
"T. c #B3B3A9",
"R. c #BCBDB3",
"E. c #C0BEB0",
"W. c #C2BDAA",
"Q. c #C5C3B5",
"!. c #C5C4B9",
"~. c #CBCAB6",
"^. c #C6C3AD",
"/. c #DDDBCD",
"(. c #D5D4C8",
"). c #DDDDD4",
"_. c #E3DECF",
"`. c #E3DFD1",
"'. c #E5E1CE",
"]. c #E5E2D2",
"[. c #E9E5D5",
"{. c #EAEED5",
"}. c #EBEADC",
"|. c #EBE7D8",
" X c #F2EEDD",
".X c #EEF1DB",
"XX c #F2F0DE",
"oX c #EDECE1",
"OX c #F3EFE1",
"+X c #F4F2E4",
"@X c #FCF6E4",
"#X c #FEF9E6",
"$X c #F5F4EA",
"%X c #F9F6E8",
"&X c #FEFCEA",
"*X c #FFFFF1",
/* pixels */
"g.f.f.a.' ( ( W W W W ( _ _ ) ) ) ( ( ( ( ( N J E R E ( W W ( _ ' q.q.q.r.q.q.q.q.q.q.q.q.' _ ( ( W W W W W W W W W W W J M W t.",
"z.h.h.f.i.q.( ( ( ) q.i.a.a.a.i.i.i.i.X.( _ n R ( ( W W W W W ( ( W ( ( ( ( ( ( ( W ( ( ( W ( W ( W W W W W W W W W J n 7 n q.f.",
"b.x.h.f.f.a.u.q.r.i.a.s.h.h.h.h.h.h.f.d.q.X.3 V W W W W W W W W W W W W W W ( W W W W W W W W W ( W W W W W W W J n < 2 A q.f.f.",
"n.b.h.h.f.f.s.s.s.h.h.f.h.h.h.x.v.l.f.f.d.t.> B W W R R Y W W W W W W W W W W W W W W W W W W ( W W W W W W W B 5 < m / y.a.h.f.",
"n.b.h.h.f.f.f.f.f.f.h.h.h.x.x.c.b.l.f.f.s.+.3 H C n n 8 6 n R W W ( W ( W W W W W W W W W W W W W T R R J V m 7 8 Z H ` i.f.h.s.",
"n.c.l.h.f.f.f.f.h.h.h.l.x.b.c.b.b.h.f.f.s.! 4 A A R ! J n 6 8 M Y E E E E W W E W T T C B M m m n n 7 6 7 7 Z I +.+.~ I ! t.f.f.",
"c.b.z.h.f.f.f.f.h.l.x.b.n.n.n.n.v.h.f.f.d.Z # Z ` u.u.t.( A 8 5 5 n n n n n n n n 8 8 6 5 < 5 7 n n B U ! ^ t.i.s.s.u.@.! U ^ s.",
"n.x.h.h.h.f.f.f.h.z.b.n.n.n.n.b.l.f.f.f.u.3 # ! i.f.f.s.i.q.E V n 8 n 6 n 6 5 > < n m m M B B C T ( ' u.i.d.s.s.f.s.s.s.y.~ D y.",
"b.z.f.f.f.f.f.f.h.b.b.b.b.n.n.b.h.h.f.f.u.@ 3 W q.s.f.f.f.a.i.t.) ( E R R E ! 8 > A V R W W W W ( ) ' q.e.e.e.q.t.u.s.s.u.I G a.",
"b.l.f.f.f.f.f.f.h.l.b.b.b.b.b.z.h.f.f.f.@.X n R ) q.a.f.h.f.f.s.a.i.i.r.u.u.u.! > 7 M B T T W E ( W W ( ' _ ) ( ) ' q.t.I 7  .k.",
"b.h.f.f.f.f.s.f.f.h.l.z.b.b.b.l.h.s.f.d.! + B W W ) q.i.a.f.f.h.f.f.f.f.f.f.f.@.2 3 A 7 w M C J C C V B C W W W W W E H 4 # I k.",
"z.h.f.f.i.u.u.i.f.f.f.l.z.b.l.h.s.h.f.s.H # R W W ( ) ' u.s.f.f.f.f.f.f.f.f.d.^ 3 H @.I A w m m w w 8 6 8 B E W W C n 7 r * y j.",
"h.f.f.i.q.) ' u.f.f.f.f.h.h.h.h.f.f.s.i.7 < B H V B V V ! ^ ` +.@.+.@.@.+.+./ q > I +.` @...~ P J U L N m 8 m J C 8 2 q u t 4 y.",
"f.f.r.) ( W ) r.f.f.f.f.f.f.f.f.i.i.y.^ 2 d F h F h h F h h ] ] [ [ [ [ [ [ ] d d ] [ p ~ f.g.g.s.a.s.u.` G w 8 7 2 9 p a u 9 I ",
"s.r.) ( W W ( r.f.f.f.f.f.f.i.r.q.) ! 7 x 0.M.N.M.0.0.0.0.0.0.M.M.M.M.N.N.N.N.M.0.8.<.s - #.z.v.z.l.l.j.s.u.^ D 4 9 p F F a r 7 ",
"q.) ( ( W W ( q.i.f.f.f.a.r.X.) E V 5 = C.OX+X+XOX$XOXOX+X+X+X$XOX$X$XOX@XOX$XOXoXE.0.<.: P l.n.n.c.c.l.h.g.s...S t a a F F r 2 ",
"( ( W W W W W _ i.s.s.i.q._ ( E V < X s _.*X&X&X&X&X&X&X&X&X&X&X&X&X#X#X#X&X#X@X'.:.g ^.{ K k.n.n.c.n.z.h.s.h.i.! q p a F a 9 7 ",
"W ( W W W ( W ( ' t.q.' ) W E B 6 @ $ &.%X*X&X&X&X#X#X#X&X&X#X#X#X#X#X@X#X#X&X+XK.= ;.{.&.F j.n.n.c.x.l.h.h.s.s.t.A q p a q 9 N ",
"W W W W ( W W W ( ( ( ( E R n , # * & :.*X&X&X&X#X#X#X#X#X#X@X@X@X#X@X#X#X#X#X[.,.& G.{.o.a j.b.n.z.z.h.h.s.f.h.d.^ y q q 9 Z W ",
"W W W W W W W W W W W R B 5 > # 2 3 - 2.&X&X&X#X#X#X@X@X#X@X@X#X#X@X#X#X#X#X#X`.%.& L.{.$.u f.z.z.l.h.g.f.f.f.f.f.u.H 9 q A E W ",
"W W W W W W W W ( E C 8 > 9 H ^ .. .r 4.&X&X&X&X@X#X#X@X#X@X@X%X#X@X#X#X#X#X&X[.*.& C..X%.t u.h.g.s.f.f.f.f.f.a.i.i.` 6 n E ( W ",
"W W W W W W W W R m < 7 ! i.f.h.z.j.u 6.&X&X&X#X@X%X%X%X#X@X%X%X%X%X@X%X#X&X&X{.m.s k .X;.t u.f.f.f.f.g.f.a.r.) ) _ ) V 8 E ( W ",
"W W W W W W W C n n / u.d.f.h.l.x.j.F ,.&X&X&X#X#X#X@X@X%X%X@X#X@X@X%X@X#X&X#X{.S.I.o B.b q _ y.a.a.a.u.q.' ( W ( ( W n 5 Y W W ",
"W W W W W W R n G @.d.s.f.f.h.l.c.j.K { %X*X&X#X@X@X%X%X@X%X%X#X%X%X@X@X#X#X&X.XG.c   = 7 J W ( ) ' ' ( W ( W W E Y B 6 n W W W ",
"W W W W W R 8 8 ` d.f.f.f.f.f.l.c.x.p.e L.&X&X#X#X%X@X%X%X@X%X@X@XOX[.`.`.|.#X+XD.o 7 B R W W W W W W W W W W C n 6 < n Y W W W ",
"W W R B n 3 < H y.f.f.f.f.f.f.h.v.n.j.K :.&X&X&X#X%X@X XJ.-.b M.C.{ v x k =.`.+XI.+ J E W W W W W W W W Y B 8 8 n n n M W W ( W ",
"W R 8 > # @ 3 R X.u.d.h.f.f.f.h.k.l.j.P o.&X&X&X#X@X XJ.o.= *.U.M.{ =.s   c /.%XR.o C W W W E W W W W V m 6 n B Y Y V m C W W W ",
"M 7 2 2 # 4 4 n E _ q.i.s.f.f.f.g.g.g.U e .X&X&X#X XK.o.= &.P.[.W.D.N.e o *.'.%X(.: 1 L W W ( W W T B 8 8 B C W ( ( Q D 8 M C W ",
"9 q 9 - 3 B n 7 B W ) ' t.a.s.s.f.f.d.~ & !.&X&X@XU.&.= &.J.[.+X`.L.$.= { J.+X&XoX2.o w C W E T V n 8 M C T W W ) X.y.! > , < m ",
"q q 9 2 M R C 7 n R W ( ) ' q.i.a.s.s.y.9 N.%X&X~.;.o ; >.F.P.Y.P.=.= c S.Q.XX&X$XT.  7 8 N B m n m B T W W W ) q.i.a.^ < 5 , < ",
"a 9 7 M E ( E M 8 B E W ( ( ) _ X.e.i.u.I o.XX&XV.;   o g c c -.=.s - -.N.6./.&X&X).= m M M M B B T Y W W ( ) q.a.f.f.X.m B B M ",
"q 8 V W ( ) ( J 8 8 C W W W W ( W ) X.X.! : ].#X8.s = ; = o   g b ; - c c b (.#X*X+X%.4 Y L T T W W W W ( ) q.a.f.f.f.u.H m W W ",
"M C ( ) X.q.' W m 6 m Y W W W W W Q W Q H o !.#XE.Z.B.Z.N.c . g >.3.,.2.1.V.].#X&X%XD.& B W W ( ( ) _ ) _ q.i.h.h.h.f.i./ 8 E ( ",
"W ) q.e.s.s.e.' Y n 8 M Y W W W W W W W J X B.+X#X@X@X@X_.:.- v F.]._._._.[.+X#X&X*X).= Z Q _ q.q.y.u.u.i.i.h.l.x.l.h.s.' 7 R ( ",
"r.w.s.z.z.k.f.q.) C 8 6 B W W W W W W W T 2 b ].&X#X@XXX[.D.:.N.!.OX@X@XXX@X@X#X&X&X$Xs A t.i.s.s.f.f.s.s.h.h.x.x.h.h.s.+.3 L q.",
"s.s.k.x.c.x.h.i.q.W M 5 6 B Y W W W W W W B & (.#X#X@XXX X[.'.[. X@X@XXX@X@X%X%X&X*X$Xc N i.f.s.f.f.f.f.h.h.z.b.z.h.h.s...3 J i.",
"g.g.k.x.c.x.l.f.i.q.W n 2 5 B W W W W W W L O Q.#X#X#X#X@X@XXX@XXX@X@X@X@X@X@X#X&X*X*X<.F t.s.f.f.f.h.f.h.h.x.x.z.f.f.d.` 2 q d.",
"a.s.h.z.b.b.l.h.s.i.r.E 7 @ < V E W W Q W E . U.+X&X#X#X@X@X@XXX#XXX@X@X@X@X#X#X%X*X*XE.d G a.h.h.h.h.l.l.b.b.b.l.f.f.a.! 3 2 @.",
"q.i.s.l.x.x.h.h.f.f.s.q.A # # q V W W W E B . C./.[.[.'.`.`.`.`.'.'.'.'.'.'.].].`.oXoX$X$.S p.l.z.b.n.b.b.n.b.b.h.f.f.u.N 7 5 J ",
"W X.i.f.h.h.h.f.f.f.f.d.! q 8 2 1 V E Y M 2 O c 3.8.8.5.7.7.7.7.3.4.3.3.3.3.3.6.2.0.C.(.>.F j.n.n.n.n.b.n.n.b.h.f.f.f.t.7 n 8 2 ",
"W W r.s.h.s.s.h.s.g.f.i.! Z ..! 3 , M i f c b { o.o.o.o.o.{ { { { { b b { { { v x 0 O b x u j.n.n.n.n.b.n.n.v.h.f.f.d.^ 4 V B + ",
"W W _ a.s.h.h.s.f.f.f.p.I G t.a.~ 2 ; C.XX&X%X#X#X&X#X#X#X#X#X#X@X@X@X@X+X%X+X+XoXA.O.O   y k.n.n.b.b.n.n.b.l.h.f.f.u.G 6 R J # ",
"W W _ a.f.f.s.h.f.f.f.@.H U i.f.u.K :.&X*X&X&X&X#X&X#X#X#X#X#X@X@X@X@X@X@X#X#X%X(.s W.=   y j.n.n.n.n.n.b.v.h.f.h.s.@.8 n W R < ",
"W W _ s.f.f.s.s.s.d.u.! A ..d.f.y.z L.&X*X&X#X#X#X#X#X#X@X@X@X@X@X@X@XXX@X@X@X@XQ.& ~.;   u j.n.n.n.n.n.z.h.h.s.i.@.H 7 Y ( E 8 ",
"W ( q.s.s.i.q.X.' ) E 8 Z y.f.f.@.l R.*X&X&X#X#X@X@X@XXX@X@X@XXXXX@XXX@X@X@X#X@XE.& ~.:   w k.n.n.n.n.n.h.h.f.' M 5 < B W ( E 8 ",
"W ( ' q._ ( ( ( ( W M < A u.s.s.@.l !.*X*X&X#X#X#X#X@X@X@XXX@X@X@XXX@X@X@X@X#X+XY.& ~.s O y j.c.n.n.b.v.h.h.y.V < 6 n Y W W W n ",
"W ( ( ( W W ( W W V < 1 J _ X.w.` j T.*X*X&X&X&X#X#X#X#X@X@X#X#X@X@X@X#X@X#X#X%XQ.= Q.f O y j.z.n.b.b.l.h.a.X.M 5 B E W W ( Y n ",
"W W W W W W W W Y 7 , m E W ) ) E p 7.*X*X&X&X&X&X&X&X#X&X#X#X#X#X#X#X#X#X#X&X#X~.s H.$.O w p.l.b.b.v.h.h.i._ n 5 B W ( W E B 5 ",
"W W W W W W W T m , 5 V W W W W W D } Y.oXOXOXOXOX X X X X X X XXXXX XXXXX}.XX.X/.m.$.S.k G i.h.h.h.h.h.f.e.) m 1 B W W W V 6 n ",
"W W W W W ( E V < 5 B W W W W W W R A &.6.4.8.m.5.5.5.5.4.4.4.3.4.4.3.4.5.5.5.4.3.;.= =.j ~ u.s.f.f.f.h.f.r.W M < M W W Y 8 m Y ",
"Q W W W W ( T 6 < m T W W W W ( W W R A F F F F F F F F a F | | K i 0 i F F F F u t 3 p D ) X.X.q.q.e.i.e.q.( V 5 8 Y W C 7 / W ",
"W W W W W W M < n C W W W W W W ( / W R J V J C C C C C J J W ' ..S % 7 C C C C J J C J E W Q Q ( ) ) _ ) ) ( C 8 < B Y w H q.) ",
"W W W W W T 8 1 B W ( W W W W W W W / ( W W ( W ( W ( W W ( _ y.a.^ 7 8 T W W W W W W W Q W W W W W W ( W W ( W m < m A 7 ..a.) ",
"Q W W W W V < 6 C W W W W W W W ( W ( ( ( ( W W W W Q W W W ( ' u.@.A 7 Y W Q W W W W W W W W W W W W W W W W W C 7 7 w 8 X.a.) ",
"W W W W C 8 , 5 V W W ( W W Q W ( W ( Q W ( W W ( Q W ( W W W ( X.q.I 7 V W Q W W W Q W W W Q W W W W ( ( W W W Y M 1 1 m ) q.) ",
"W W W E m , 1 1 w C W W W ( W W Q W W Q W Q W W Q W W W W W W W W ) L 8 B W W W W Q W W W W W W W W Q W W W W ( W C 5 # M W ) W ",
"W W W V , > 5 5 < m T W W W W W W W W W W W W W W W W W W W W W W J m 5 m E W W W W W W W W Q W W Q Q W W Q W W W W M > m W W W ",
"W ( T 7 5 8 5 > % < m C W W W W W W W W W W W W W W W W W W E E V 8 , , 7 m C W W W W W W W W W W W W W Q W W W W W Y n n W W W ",
"C E M , 6 V M < % % 1 w B C W W W W W W W W W W W W W W W Y V m 1 > 1 8 5 < 8 Y W W W W W W W W W W W W W W W W W W Y n 5 V T W ",
"B C 8 < < 6 n n % @ < 7 8 8 M B V C Y T T T W T C B B M m 7 1 3 1 n C R B 7 < 6 C T T W W W W W W W ( W W W W W W W E m < 6 n B ",
"L m M T B n < < , @ 1 B V n 5 , < < 1 6 8 8 8 5 < > > , % 1 A E Q ) _ _ ) J 1 , % w V V Y E W E W W W W W E W W W E C 8 > 5 @ > ",
"a.) W W W W Y V n < , m T W Y V m 8 < , < < < , 6 n B V w M ^ u.i.i.a.u.` G D  .P w w 1 8 m M V C C Y Y C V V V J M 6 < < n 8 5 ",
"f.a.X.W W ( W ( ( C 8 < n C T W E E Y C m 5 < < 8 M V M 7 3 Z ` u.a.#.! Z G y.k.h.d.p.#.U 7 2 , , , 1 < < , 2 < 1 6 n n 5 5 < 6 ",
"f.f.i.) W W W W W W C 8 @ # , 6 6 8 5 , + , 1 # @ @ , 6 A I A y D A w w ! u.s.s.f.f.g.g.f.@.D 3 , 3 7 m B V C J J E ( R 6 B n < "
};
