/* XPM */
static char *Veline_Down1738833611[] = {
/* columns rows colors chars-per-pixel */
"64 64 116 2 ",
"   c #0F0801",
".  c #150B04",
"X  c #1D0F04",
"o  c #1C1007",
"O  c #171008",
"+  c #1D120A",
"@  c #150D15",
"#  c #1D131E",
"$  c #200F04",
"%  c #241205",
"&  c #2C1506",
"*  c #2E1807",
"=  c #24150A",
"-  c #2B1709",
";  c #27180E",
":  c #2E190B",
">  c #311707",
",  c #321907",
"<  c #381B07",
"1  c #341B0A",
"2  c #3B1E0A",
"3  c #2B1C12",
"4  c #311E11",
"5  c #381F10",
"6  c #3C210D",
"7  c #342216",
"8  c #3B2313",
"9  c #352418",
"0  c #392618",
"q  c #3D291B",
"w  c #2E2533",
"e  c #411F0A",
"r  c #44220B",
"t  c #4B250C",
"y  c #4E280E",
"u  c #50270C",
"i  c #542A0E",
"p  c #5C2D0F",
"a  c #5F300F",
"s  c #442611",
"d  c #482712",
"f  c #452912",
"g  c #4D2A13",
"h  c #422B1B",
"j  c #532D14",
"k  c #5B2E11",
"l  c #573016",
"z  c #5C3215",
"x  c #573118",
"c  c #5D3418",
"v  c #5F3918",
"b  c #602F0F",
"n  c #62300F",
"m  c #612F10",
"M  c #653211",
"N  c #6D3612",
"B  c #6D3815",
"V  c #623619",
"C  c #66381A",
"Z  c #6C3B1B",
"A  c #703713",
"S  c #743A15",
"D  c #793D17",
"F  c #733E1B",
"G  c #7A3F18",
"H  c #453023",
"J  c #75411E",
"K  c #7D411B",
"L  c #6C4323",
"P  c #7C4521",
"I  c #754926",
"U  c #7E4821",
"Y  c #3D3748",
"T  c #4D4A5D",
"R  c #726B7E",
"E  c #83451C",
"W  c #88471E",
"Q  c #87481F",
"!  c #89491F",
"~  c #824721",
"^  c #854A23",
"/  c #8C4C22",
"(  c #914E23",
")  c #8D5125",
"_  c #8D512B",
"`  c #8D582D",
"'  c #945126",
"]  c #995427",
"[  c #9C5827",
"{  c #965429",
"}  c #9D5629",
"|  c #9E592A",
" . c #A25C2B",
".. c #A15D31",
"X. c #996031",
"o. c #A6612C",
"O. c #AA652D",
"+. c #AE692F",
"@. c #B16C2F",
"#. c #A46232",
"$. c #AE6931",
"%. c #B46E32",
"&. c #B67032",
"*. c #B77439",
"=. c #B97639",
"-. c #8D8272",
";. c #908575",
":. c #9A8584",
">. c #A79A87",
",. c #AC9E8B",
"<. c #B19998",
"1. c #A5A58F",
"2. c #A8A992",
"3. c #C4B59F",
"4. c #E5E6C7",
"5. c white",
/* pixels */
"..} ] ! S N N N N N A A D D A S A A A A A N p k M b b N N A A D E W E / / W / / W ! / W W E D S A A N N N N N N N A A N N d m ~ ",
"$. .} ] / D A N N D E ( ' ( ( ( ( ( E G A M d k A N N A N N N A A N A N A A A N N A A A N A A N A N N N N N N N N N M u 2 > V } ",
"*.O. .} } ( E K / ( } } } }  . . . .} ( E C e u N N N N A N N N N N N N N N N N N N N N N N N A N N N N N N N N M p < X , V ( ..",
"*.$. .} } } } ] ] }  .]  . .O.@.$. .} } ' S 2 u N N M b b N N N N N N N N N N N N N N N N N N N N N N N N N N m e $ & k K (  ...",
"=.%. .}  .} } }  . . . . .@.%.&.%. . .} { Z e i b e 2 > > p N N N N N A N N N N N N N N A A A N N N N N M M j > % 1 s Z _ ]  ...",
"*.%. .} } ] } } ]  . .+.%.&.&.@.$. .} } _ m 5 s r p k j < $ e i N N A A N N N N N N N b b i u y u e < > & = : s Z P Z j k P ] #.",
"*.@.o. .} } } }  .O.%.&.&.&.&.&.O. .} } ~ s = s F / ( ~ N s & $ > < e e u e e e e e < > % % % % > < e g j V P / { ] { ~ C j v { ",
"*.@. .} } } }  . .%.&.&.&.&.&.@... .} } J 1 - Z ' } } ] / G N d e > > > > > > $ % < 2 r t y u p n A E ^ ' { ] } } } } { ' I g L ",
"=. .} } }  .} } +.%.&.&.%.*.&.$. .} } ] Z - > B / ] }  .} ] / E S N m p p m k 2 % s p m n N N N A S G E ! ( ( ! / / ] } ] ^ s I ",
"*. .}  .} } } }  .+.%.&.%.%.%.O. .} } ' V = e M D / ] # # # # # # # # # # / / V > 1 e i n N N N N A A S D D D S A S E ( P s d X.",
"%. .} } } } ] }  . .O.%.%.&.$. . .} } / j % t N N # # <.<.3.3.3.3.3.3.<.<.# # P 5 - 5 2 2 t p n n n p i p N A N N N N V 6 o 7 #.",
".. .} } ' W ( ]  .}  .O.%.%.$. .} }  .^ s - p A # <.3.3.4.4.4.4.4.4.4.4.3.3.<.# 1 d Z V d 6 2 6 < < , & < y n N N N i 1 : = + ` ",
".. .] / G S E ] } } }  . . . . .}  .} P e 2 m # <.3.4.4.4.4.4.4.4.4.4.4.4.4.3.<.# F _ _ / F C x j j z i r > 2 i a y - ; q q ; L ",
".. .E S N N D ( } } } }  . .} } ] ' / V > 2 N # <.4.4.4.4.5.5.5.5.5.5.4.4.4.4.3.# /  . . .o.| ' ) ) ) ! J y 1 2 r * + 9 q q 7 h ",
"} E S A N N D ( } } } } } } ' W E G M s = : # <.3.4.4.4.5.5.5.5.5.5.5.5.4.4.4.3.<.# }  .%.%.%.$.O.O.o. .{ ^ Z g 1 ; 7 q h q 9 4 ",
"^ S N A A A S ( } } } ] ] ( E D N j 2 3 3 ; # <.3.4.4.5.5.5.5.5.5.5.5.5.5.4.4.3.<.# } ..%.%.%.%.&.@.@.+.o.} { J y 7 q h h q 0 3 ",
"J A N N N N A E ] } ] ( E G S N u , = 3 9 3 # <.3.4.4.5.5.5.5.5.5.5.5.5.5.4.4.3.<.# }  .+.%.&.&.&.&.&.@. . . .] D 5 4 h h h 9 3 ",
"F A N N N N N S E ( W G S A n i > + ; 3 3 ; # <.3.4.4.5.5.5.5.5.5.5.5.5.5.4.4.3.<.#  . .+.%.&.&.&.&.&.@. .} } } ( x 3 0 q q 3 q ",
"F N N N N N N N S D D A N b t > X + ; ; 3 2 # <.3.3.4.4.5.5.5.5.5.5.5.5.4.4.3.3.<.# }  .O.%.@.&.&.@.@.O. .} ]  .} P h 4 0 0 : c ",
"F N N N N N N N N N N m u 2 & $ - 1 8 g V L # <.3.<.4.4.4.5.5.5.5.5.5.4.4.4.<.3.<.#  . . .O.@.@.@.O.o. .} } } ] } ( V : 4 5 g Z ",
"F N N N A N N N N m i e 1 1 d j v L ^ / ] ] # R 3.<.<.4.5.5.4.4.4.4.5.5.4.<.<.3.R # ] ]  . . .o. . . .} } }  .] ( ( ~ 5 - d M D ",
"F N M N N N N N m t 2 2 j F ^ } | o.O.o. . .# T <.<.T 5.5.5.5.4.4.5.5.5.5.T <.<.T # ( ' ] ] ] ] [ [ }  .] ] ( W E E E k > k N F ",
"F N N N N A M k d s j J ( }  .O.%.&.%.%.$.O.$.# <.Y 5.5.4.4.5.5.5.5.4.4.5.5.Y <.# A K E E W W ( ' ] ] ( ( W K S A A S k > u N F ",
"F N N N N A p e d F ( } } }  .+.&.&.%.%.%.%.%.# T Y 5.# # R 4.4.4.4.R # # 5.Y T # A A A A S S D K E E E D A A N N N k t , i A S ",
"F N N N N k 2 r P { } } } }  .$.%.&.%.&.&.%.&.&.# <.4.# T T T 4.4.T T T # 4.<.# p M A N N N N N N A A A N N N b p t < , t n A D ",
"F N m k u 1 & V ( } } } } ]  .O.%.&.&.%.%.%.&.&.&.# <.<.R T 3.# # 3.T R <.<.# < e b N A N N N N N N N A N b p t < > , < n N N F ",
"F m e < % . 2 F ( ] }  .}  . . .@.%.%.%.%.# # # # # # R <.4.5.T T 5.4.<.R # # # # # # M N N N N N N A M p t < < e i i 2 p N A D ",
"C 2 o . . + 1 M D / ( ] } }  . . . .o.+.# 5.4.<.4.R # R <.4.4.5.4.4.4.<.R # R 4.<.4.5.# N N N N N N b u < > r p M A N y r p n F ",
"h = ; + = d > r m S K ( ] }  .] } }  .# <.<.R R <.R w T T T 5.T 5.T 4.T T w R <.R R <.<.# N N N n p e < e p M N N A K Z - - e V ",
"q 0 3 o t m 2 > i N N S K W ( } } } } # T 5.5.w w w R # # # # # # # # # # R w w w 5.5.T # k M k t < < u n N A A S E { / 2 . . ; ",
"H 3 = d N N k & e m A N A A G W ( ' } # w T <.5.5.4.5.5.<.<.R R R R <.<.5.5.4.5.5.<.T w # 1 < 1 2 t b N N N N S E ' } / g 2 r 2 ",
"9 = u N A A N e > i N N A N A A S E ! # 4.# # # w w T T 4.4.R 5.4.R 4.4.T T w w # # # 4.# k k k n N N N N N S / ] }  .' V r N Z ",
"6 b N N S D A p > 2 n N N N N N N N N # ,.:.# # R T 4.<.R T 3.4.3.3.T R <.4.T R # # :.>.@ A N N N A N A A S W ]  . .} ] K 2 m S ",
"Z A A E ! ( G N t & r n N N N N N N # 2.;.@ E # R <.T 5.5.4.T 5.4.T 4.5.5.T <.R # t @ -.1.# A A S G K K W W ]  .@. . .] ( d t F ",
"K E ] o.o. .! S n 2 & u N N A N N N # T # # A # T T 4.T R T 3.4.3.3.T R T 4.T T # 2 # # T # E / ' ] ] ] ] ]  .O.@.+. . .' g 2 J ",
"{ [ +.&.@.o.] W A i > > u N N N N N # 3.<.# N # w <.T 5.5.4.T 5.4.T 4.5.5.T <.w # & # <.3.# ] } } } ]  .}  . .@.&.O. .] ( d 2 _ ",
"X. .$.%.&.+. .( E A y & & t m A A N # 5.<.# N # # w <.T R T <.T T <.T R T <.w # # < # <.5.# } } } } } } }  .O.@.%. .} } ( s = _ ",
"..} o.%.%.%. . .] E N r X $ t m N N # 5.<.# N A # R <.4.4.<.T # # T <.4.4.<.R # % e # <.5.# }  .}  . . . . .+.&.+...} } ^ 5 o L ",
"} ]  .@.&.%. .} } ] ! B -   - u N N # 5.# # N # T w T T R T # <.R # T R T T w T # p # # 5.#  . . .$.$.$.%.@.%.&.O. .} } P 1 > h ",
"^ ( [ O.O.$. .| } | ] K 2 O % > y N # T T T # # 3.<.w <.<.R # R T # R <.<.w <.3.# # T T T #  .$.%.%.&.&.&.&.&.@. .} } ] C > e 4 ",
"F K '  . . .} } } } } / s 8 d 1 * # T 4.5.5.4.# 4.<.w w # # # <.R # # # w w <.4.# 4.5.5.4.T # %.&.&.&.&.&.&.&.@. .}  ._ d 1 i ; ",
"F S / } } } | ] ] } } ~ s g P Z 1 # 4.5.5.T 4.# # 4.<.Y T # # # # # # T Y <.4.# # 4.T 5.5.4.# &.&.&.&.&.&.&.%. .}  .] ~ 2 e m : ",
"F N / } }  .} } }  .] J s c _ _ F # <.T 5.T T # # w w w w <.3.T T 3.<.w w w w 3.<.T T 5.T <.# &.&.&.%.&.&.%... .}  .' V % p N d ",
"F N E ] } } } } } } _ v d F { } | ) # <.T 4.<.# # 4.4.5.# w Y R R Y w # R 4.5.# # <.4.T <.# &.&.*.&.&.&.%.@. . .] ] ^ s 1 m B x ",
"F A / } ] ( ( ( ! ! J r j / [  .O.+.O.# # # # # # 3.5.3.w # # # # # # w R 5.3.R # # ; # # %.&.&.&.&.&.&.%. . .] ~ B j < i N A m ",
"F S W ( / E K G D S y , c ' ] [ o.O.O.@.+.o.) L # # R R w # 1 % = - V # # R R w # }  .o.$.%.&.&.%.&.&.&.O. .] E g 1 & t M A N V ",
"F S G G S A A A A p * * N / ' ] ] [ o.O.+.+.o.{ # <.5.4.R # o = 5 1 g # R 4.5.<.# }  . .#.+.%.%.%.&.&.$. . .( C & , e M N N N V ",
"F N A N A N N A n 6 % r M D K Q ! ( ' ]  . . .[ # R 5.3.w # 5 ; q 7 1 # w 3.5.R # } } }  ...O.+.@.&.%.$. .} ( k % e m N N N N j ",
"F N N N N N N N u % & i N A S S D G P / / ( ' ] # 3.R # # ^ C 4 7 9 = 2 # # R 3.# } }  .[ [  .o.+.%.@. . .] E i % e N N N N u r ",
"F N B N N N N i > % u n N N N N N N A S D G E ~ # 4.# 4.# } _ j 3 9 + > # 4.# 4.# ( ] ] [ [ [ [  . . . . .] D i & e N N N p 2 s ",
"J N N N N N n < % 2 b N A N N N N N N A N A A S # 3.# 4.3.# ( P 8 ; O # 3.4.# 3.# K W W W ! ! ( ( '  .] ] ! S p > > b A M t 2 C ",
"Z N B N N N y % < i N N N N N N N B N N N A N # w <.T <.R # # ] Z : # # R <.T <.w # S S S D A K G G E W W E A N e $ i A M 2 x P ",
"J N N N A M < & y N N N N N N N N N B B S N # w 4.R 4.T 4.R # ( ' x # R 4.T 4.R 4.w # N N N N N A A A S S S N N y % 2 M y 1 ~ ^ ",
"J N N N A p % < n N N N N N N N A B N A N N # <.R 3.R 3.R R # W ] P # R R 3.R 3.R <.# N N N N J N N N A N N N N p > - i 2 g ' _ ",
"Z N N N N r X t n N N N N N S N N B A B N N # 4.T 5.T 5.T # N S / / s # T 5.T 5.T 4.# N N N n J N N N N N N N N n t - r - k ( ^ ",
"J N N M t % % 2 n N N N N N N N A B N A N B N # # # # # # N N N G / V - # # # # # # N N N N N N N N N N A A A N N p , - * M E ~ ",
"D N N p & % < % r n N N N N N N N N N N N N N N N N N N N N N N N D M * i N N N N N N N N N N N N N N B N N N N A M r . > M A D ",
"F A M 2 X % , & & i n N N N N N N N N N N N N N N N N N N N N N N M 2 - t M N N N N J n N N N N B N N N N N N N A N b & % M N D ",
"F N u % < 2 % % o * u n N N N N N N N N N N N N N N M A N N N n i 2 X % - r i M N N N N N N N N N N N B N N N N N N N u % p A D ",
"Z n , % r p r o . % & 6 u n N N N N N N N N N N N N N N M b i 2 X . * r * % , i M N N N N N N N N N N N N A N N N N N i % r z S ",
"C y * % % < r < o o < < > < t i p p b b M n b b p p y t 2 > % % > y n M i 2 % * t a M N N N N N N N N N N N N N N N N p % > > g ",
"c r p b u < & & % . < p i e > % % % * * , < , * $ X X X % : j M N S G K D k , % o 6 t i b M n N N N N N N N N M N N m y $ , X + ",
"_ S N N N M n u 2 % * i N M b i t 2 > * > > - * 2 t i p s 2 J ) ' ' ' ) J s g L v 8 7 6 , 2 t y p a p p p i y i u d 2 % $ < y 6 ",
" .! S N N A A N N i > * r p n n M M p i 2 * % - , r y r 1 % 2 F ' / U x 6 l ~  . .[ ' ) Z 8 = % o % % % & % - - , 1 r g 2 - & 1 "
};
