/* XPM */
static char *Veline_left1738833611[] = {
/* columns rows colors chars-per-pixel */
"64 64 114 2 ",
"   c black",
".  c #0F0801",
"X  c #150B04",
"o  c #1D0F04",
"O  c #1C1007",
"+  c #171008",
"@  c #1D120A",
"#  c #1D131E",
"$  c #200F04",
"%  c #241205",
"&  c #2C1606",
"*  c #2E1807",
"=  c #24150A",
"-  c #2B1709",
";  c #27180E",
":  c #2E190B",
">  c #311707",
",  c #321907",
"<  c #381B07",
"1  c #341B0A",
"2  c #3B1E0A",
"3  c #2B1C12",
"4  c #311E11",
"5  c #381F10",
"6  c #3C210D",
"7  c #342216",
"8  c #3B2313",
"9  c #352418",
"0  c #392618",
"q  c #3D291B",
"w  c #2E2533",
"e  c #401F0A",
"r  c #44220B",
"t  c #4B250C",
"y  c #4E280E",
"u  c #50270D",
"i  c #542A0E",
"p  c #5B2D0F",
"a  c #5F300F",
"s  c #452611",
"d  c #482712",
"f  c #452912",
"g  c #4D2A13",
"h  c #422B1B",
"j  c #532D14",
"k  c #5B2E11",
"l  c #543015",
"z  c #5C3215",
"x  c #573118",
"c  c #5D3418",
"v  c #5F3918",
"b  c #602F0F",
"n  c #62300F",
"m  c #612F10",
"M  c #643211",
"N  c #6D3612",
"B  c #6D3815",
"V  c #623619",
"C  c #66391A",
"Z  c #6C3B1B",
"A  c #703713",
"S  c #743A15",
"D  c #793D17",
"F  c #733E1B",
"G  c #7A3E18",
"H  c #453023",
"J  c #6E431D",
"K  c #75411E",
"L  c #7D411B",
"P  c #6C4323",
"I  c #7C4521",
"U  c #754926",
"Y  c #7E4821",
"T  c #3D3748",
"R  c #4B444C",
"E  c #4D4A5D",
"W  c #6B6878",
"Q  c #726B7E",
"!  c #83451C",
"~  c #88471E",
"^  c #87481F",
"/  c #89491F",
"(  c #824721",
")  c #844A23",
"_  c #8C4C22",
"`  c #914E23",
"'  c #8D5125",
"]  c #8D512B",
"[  c #8D582D",
"{  c #945126",
"}  c #995427",
"|  c #9C5827",
" . c #965429",
".. c #9D5629",
"X. c #965D28",
"o. c #9E5929",
"O. c #A25C2B",
"+. c #A15D31",
"@. c #996031",
"#. c #A6612C",
"$. c #AA652D",
"%. c #AE692F",
"&. c #B16B2F",
"*. c #A46232",
"=. c #AE6931",
"-. c #B46E32",
";. c #B67032",
":. c #B77439",
">. c #B97639",
",. c #B19998",
"<. c #ADA9B4",
"1. c #C4B59F",
"2. c #E5E6C7",
"3. c white",
/* pixels */
"+...} / S N N N N N N A D D S S A A A N A N p k M m b N N N A G ! ~ _ _ ~ _ ~ _ / / _ ~ ~ ! G S A A N N A N N N N N A A N d m ( ",
"=.O...} _ D N N A D ! ` ` ` ` ` ` ` ~ G A M d p A N N A N N N N N A N N A A A N N N A A N A N A A A N N N N N N N N M u 2 > B  .",
":.$.o.O...` ! L ~ ` ........O.O.O.O...` ~ B 2 u N N N N N N N N N N N N N N N N N N N N N N N N N N N N N N N N M p < o > V ` +.",
">.=.O.........} ....O...O.O.$.&.%.O.....` F 5 u N N M b m N N N N N N N N N N N N N N N N N N N N N N N N N N m e $ - k I { ..+.",
">.-.O...O.........O.O.O.#.&.&.;.&.O.O...{ Z e i b e 2 , , k N N N N N N N N N N N N N N A A A N N N N N M M i , % 1 d Z ` } O.+.",
":.-.O.....} ......O.O.&.-.-.&.;.&.O.O...` V 5 s r p k i < $ 2 p N N N N N N N N A N N n b i u u t e < > = % - s Z I Z j j I o.*.",
":.-.#...........O.$.-.;.;.;.;.;.+.O.....( s = s F _ ` ( N e - $ > < e t t e e e e 2 < > % % % % > < e g k C I ]  .} ` ( C j c  .",
":.$.O.O.......O.#.-.;.;.;.;.;.&.O.+... .I 1 - Z { ....} _ L N d e > > > > < > $ % < e r t t u p n S L _ { {  .......O.} ] U g P ",
">.O.............$.;.-.;.;.;.-.=.O.....} Z - > N _ ........} ` L S N m m k m k 5 % s m m N N M N A S G ! / ` ` / ) _ { ..} ) d U ",
">.O.O...........O.&.-.-.;.;.;.+.+.....} V % e M D _ } ..# # # # # # # # # _ _ V > > e i n N N N N N A A D D D S S D ! ` I d f @.",
"-.O.............O.O.$.&.;.-.-.O.......` j % t N N D # # ,.,.1.1.1.1.1.,.,.# # L 5 - 2 2 2 t p M n n p i p N A N N N N M s + 3 *.",
"+.......{ _ _ } ....O.&.-.-.=.O...O...) s - k A N # ,.1.1.2.2.2.2.2.2.2.1.1.,.# 5 d Z V d 6 2 2 2 < < * < t n N N N i 1 ; = = [ ",
"+.O.} _ G D ! } ....O.O.O.O.O.O...O.} L 2 2 M A # ,.1.2.2.2.3.3.3.3.3.2.2.2.1.,.# Z ` ] ) F C x j j z i r > 2 i a y - 3 0 0 ; P ",
"+.O.~ S N N D ` ........O.O.......{ _ V > e N A # 1.2.2.3.3.3.3.3.3.3.3.2.2.2.1.# _ O.O.+.#.o.{ ' ' _ ) F j 1 2 r - @ 7 h h 7 h ",
"..~ S N N N D ` ..........} { _ ( G V s = > e # ,.1.2.3.3.3.3.3.3.3.3.3.2.2.2.1.,.# ..O.-.-.-.%.$.$.$.O. .) Z g 1 - 7 q h q 9 4 ",
") S N N N N S _ ........} _ ! D N i 2 3 3 ; & # 1.2.2.3.3.3.3.3.3.3.3.3.2.2.2.1.,.# ..+.-.-.-.-.;.&.&.%.O... .Y f 4 q h h q 0 3 ",
"K A N N N N A ! } ..} ` ~ G A N u > ; 3 9 3 O # 1.2.2.3.3.3.3.3.3.3.3.2.2.2.2.1.,.# ..O.-.-.;.;.;.;.;.&.$.O.} } D 5 4 H h h 4 3 ",
"F N N N N N N S ! ` ( G D A N i > O ; 3 3 ; @ # 1.2.2.2.3.3.3.3.3.3.2.2.2.2.1.1.,.# ..O.$.-.;.;.;.;.;.&.O.......` c 3 5 q q 3 q ",
"F N N N N N N A S G S A M b e > o @ ; ; 3 5 e # ,.2.2.2.2.2.2.2.2.2.2.2.2.2.1.1.,.# O.O.$.-.-.-.;.&.&.$.O.} } O. .I s 4 q 4 4 x ",
"F N N N N N N N N N N m u 2 > % ; 1 8 g V K K # ,.2.2.2.2.2.2.2.1.2.2.2.2.1.1.1.Q # ..O.O.$.&.&.&.$.#.O.O...} } ..] C 4 4 5 g F ",
"F N N N N N N N N m p e 1 1 s j V P ( ` } } { # ,.2.2.2.2.2.2.1.1.1.2.2.1.1.1.,.Q # ......O.O.O.O.O.O.......O.} { ` ( 5 : g M F ",
"F N N N N N N N m u 2 2 j F _ ..o.#.$.O.O.O.O.# E 1.2.2.2.1.1.Q ,.1.1.1.1.1.,.,.E # ` ` } ..} ..| | ..O...} ` ~ ! ! L k - k N F ",
"F N N N N A M m s e x F ] } O.$.-.;.;.-.=.$.=.# # E 1.2.2.3.3.Q Q ,.1.1.1.,.,.Q ; A L ! ! ~ / _ { } } ` _ ~ L S A A D m > u N D ",
"Z N N N N N p e d F ` } O...O.%.;.;.;.-.-.-.-.-.# 1.1.# # # 1.3.# Q Q Q 2.,.Q E # N A A A A D D L ! ! ! D A A N N M m e > i N F ",
"F N N N N k 2 r I } ........O.%.;.;.;.-.-.;.-.;.# 3.1.2.E # # 3.# E Q 2.1.Q E # p N N N N N N N N A A N N N N N p t 2 > t n A S ",
"F N m k u 1 & V ` ........O.O.$.-.-.-.;.;.-.;.;.# # 1.2.Q E ,.3.3.2.2.Q Q E # < e b N N N N N N N N N N N b i e < < > < b A N D ",
"F m e < % X 2 F ` } ....} ..O.O.%.-.-.-.;.;.;.;.# Q # 1.1.3.3.3.2.Q 1.E # # _ k < t n N A N N N N N N N b t 2 < e i i 2 p N A D ",
"C 2 O X X @ 1 M G _ ` ..O.} O.O.O.#.#.%.-.;.;.-.&.# 2.1.1.1.1.1.# # # # ,.# # # g > t N N N N N N N b i < > e b M A N u 2 p M F ",
"s ; ; @ ; d > r m S L ` { ..O.} ....O.O.$.%.O.O.O.O.# 2.# 3.# 1.# # Q Q # 1.2.# # : % r b N N N n p e < e p M N N S L Z : * e V ",
"q 0 3 O r m 2 > i N N S L _ ` ........O.O.O.O.....# Q # E # 1.E Q Q # # T Q Q ,.Q # ; - r p m k u < < u b N N N S !  ._ 2 X X ; ",
"H 3 @ s N N p & e m N N A A G ~ ` } ........O.....# 1.E 2.E 2.3.3.2.2.1.,.1.,.Q 1.# s r 2 2 1 1 < t b N N N N D ! ` .._ g 2 r 2 ",
"9 = i N S A N e > i N N A N A A S L / ` { ........# w 1.3.2.E E 1.1.E Q # Q Q 2.,.# 2 j k k k m b N N N A A A ) } ..O. .C e N Z ",
"8 b N N A D A p > 2 n N N N N N N N N D ! _ } ....# 1.3.3.1.3.2.E E ,.Q T # 1.3.Q # 2 u N N N N N A A N A S ! } O.O...} ! 2 m F ",
"B A A ! / ` G N t & r n N N N N N N N N N D ! _ { # w 2.E 2.E E 3.2.1.T Q # Q 2.Q # > u N N N A S D L L ! _ } O.$.$.O.} ` s e F ",
"L ! } #.#.O./ S n 2 > u N N N A N N S N N N A S D # 1.2.Q 1.2.3.3.E E ,.Q # Q 3.Q # > i N D ! _ ` } } ..} } O.%.-.$.O.O.{ g e G ",
" .| &.;.&.#.} ~ A i > > i n N A N N N N N B N B N # w 1.1.2.E E E 2.1.,.T # 1.2.1.# e M S _ } ............O.O.&.-.$.O.} ` g 5 ] ",
"@.O.=.-.;.&.O.` ! A t & - r N N S N N N N N N A N # Q 1.Q 1.2.3.3.E E E ,.# Q 1.Q # p A L ` ..............O.O.;.-.O.....` s - ] ",
"+...#.-.&.-.O.O.} ! A r X % t b N N N B B N N N N # # 1.1.2.E E E 3.2.1.# ,.1.E 1.# M D ` ....O...O.O.O.O.O.%.;.=.O.....) 5 o P ",
" ...O.-.-.-.O.O...} / B - . % y M A N N N B N N N # # # E 1.2.2.# # # # # ,.E 1.,.# S _ ....O.O.O.%.%.=.-.&.;.;.O.O... .L 4 - h ",
") ` o.#.&.#.O.......} Y 2 o % 1 i M N N N N B N N # E E # E Q # 2.2.2.# ,.E 2.,.# N ~ { O.O.+.&.;.-.;.;.;.;.;.&.O.O.O. .C > e 4 ",
"F ! { O.O.O.....o.....) d 8 g 1 > t n N N N N N N # Q E Q Q # 2.E 3.3.1.,.E ,.#   ! { ..O.&.&.-.;.;.;.;.;.;.;.&.O.O...{ g > p ; ",
"F A _ } ........} ....) d g I C 2 * r p n N N N N # # T E 1.# # 3.2.2.1.E ,.# D _ { ..O.$.-.-.;.;.;.;.;.;.-.-.+.......I > s m 4 ",
"D N ! ..O.......o.....P s c _ ] Z f 6 * < t i n M # W ,.T # # 2.3.E 1.1.# # # ` } ..O.$.-.;.;.;.:.-.;.;.;.-.$.O.....} V $ p N s ",
"F B ) ..............{ c d F  .o.o.' J g 6 * & , 2 # ,.3.2.W # # E 1.# # W W # } ..O.O.&.;.;.;.;.;.;.;.;.-.%.O.....} ) s 1 m A j ",
"S A / ..} } ` ` / / L r p / } O.$.%.$.X.Y J f 6 # E E 2.1.,.W # # # ,.1.2.W # # ....O.-.;.;.;.;.;.;.:.;.&.O.O.} ( N i e i A A V ",
"F S _ ` ~ ! G G D A y : c { } O.X.$.%.%.&.@.' J # 2.3.E ,.W # % % # W ,.3.2.W # ....O.#.&.-.;.;.;.;.;.-.=.O...L g 1 > e M A N z ",
"F A G G D A A A A p * * M _ { } | O.#.#.%.$.#.{ # E 1.E W # % @ 7 1 # R E E 1.W # O...O.O.-.-.-.;.;.;.=.O.O.} M - 1 e n N N N V ",
"F A A N N N N N n 6 % r M L L ~ / ` { | #.#.| # ,.2.E 1.# d 1 3 q 8 1 # <.3.E 3.,.# ....O.O.$.%.-.;.&.%.O..._ k % e n N N N N x ",
"F B N N N N N N u % & i N N A A D G L _ # # # E 2.E 3.,.# ( C 4 7 0 = 2 # ,.E 2.3.,.# ......| #.$.-.&.O.O.} ! i % e N N N N u r ",
"K N N N N N N i , % t N N N A A N N B # 2.E 1.,.E E 1.# ....` g 3 7 @ 1 m # 2.E ,.1.Q # ....| | O.O.O.O.O.} D i & e N N N p 1 d ",
"K B N N A N n < % 2 n N A N N N B A N # Q 3.E 2.,.1.E # ` ` ` ( 8 ; + 1 M N # 2.E Q 1.# / _ / ` ` } O.} } / S p > > b A N t 2 C ",
"F M B N N N u % , i N N N N N N N N N B # Q 3.2.,.3.2.# G G / { Z : X # # # ,.Q 1.2.,.; S S L K G G ! ~ ~ ! A N e $ i A k 2 x I ",
"F N N N N n < % u N N A N B N N A N N N B # # E E 1.,.# N A L { { x # ,.2.Q 2.Q ,.1.# B N N N N A A A S S S N N y % 2 N u 2 Y ) ",
"K N N N N p % 2 n N N N N N N B B B B A N N N # # # # N N N S ) } I # 3.E 3.E 2.E # B N B N N B N N N N N N N A p > % j 2 g  ._ ",
"Z N N N N r o t n N N N N N A N N B S B S N N N N N N A A N N S _ _ s # # # # # # N N N N N N N N N N N N N A N M t % r - z ` ) ",
"K N N N t % % 2 a N N N N N N B N N N N N N B B N N N N N N N N L _ c - i N N N B N B N N N N N N N N N A N N N N b 1 - > m ! ( ",
"S N N p % % 2 % r n N N N N N N N N N N N N N N N N N A N N N N N S M : i N N N N N N N B N N N N N N B N N N N N M t X & M A D ",
"K N n r $ $ < % * u M N N N N N N N N N N N N N N N N N N N N N N M 2 & t n N N N N N N B N N N B N N N N A N N A A p & & b A S ",
"F N u % 2 2 % % O & u n N N N N N N N N N N N N N N N N N N N n i 2 o % & r p n N N N N B N N N N N N N N N N N N N N u % p A D ",
"Z n > $ t p r % X % & 6 u n N N N N N N N N N N N N M N n b p < o X > r & % < i n N N N N N N N B N N N N N N N N N N i % r k S ",
"B t : % o < r < O O < < > < t u p p n n M n n n p i u t 2 > % % 1 t b N i 2 % & t a n N N N N N N N N N A N N A N N N p & > * g ",
"c r p n u < % & % X < p i e > & % % & > < < > * % o $ o % : j M N S S L D z 1 % @ 1 y p p n M N N N N N N N N M N N M u $ > o @ ",
"] A N N N N n u 2 % & i N N b i t 2 * * > * & : 2 t u p r 8 K { { { { ' K f f K v f 6 : 1 2 r i i p p p p i u u u g 1 $ $ < t 8 ",
"O._ S N N A A N N i , * r i b n M M p i 2 & % & 1 r y r : % 6 Z { _ Y x 6 l ) o.O. .X.' J 6 - O % % % & = % & * * 1 r j 2 > = 1 "
};
