/* XPM */
static char *Veline_Right1738833611[] = {
/* columns rows colors chars-per-pixel */
"64 64 114 2 ",
"   c black",
".  c #0F0801",
"X  c #150B04",
"o  c #1D0F04",
"O  c #1C1007",
"+  c #171008",
"@  c #1D120A",
"#  c #1D131E",
"$  c #200F04",
"%  c #241205",
"&  c #2C1506",
"*  c #2E1807",
"=  c #24150A",
"-  c #2B1609",
";  c #27180E",
":  c #2E190B",
">  c #311707",
",  c #321907",
"<  c #381B07",
"1  c #341B09",
"2  c #3B1E0A",
"3  c #2B1C12",
"4  c #311E11",
"5  c #381F10",
"6  c #3C210D",
"7  c #342216",
"8  c #3B2313",
"9  c #352418",
"0  c #392618",
"q  c #3D291B",
"w  c #2E2533",
"e  c #401F0A",
"r  c #44220B",
"t  c #4B250C",
"y  c #4E280E",
"u  c #50270D",
"i  c #542A0E",
"p  c #5C2D0F",
"a  c #5F300F",
"s  c #442611",
"d  c #482712",
"f  c #452912",
"g  c #4D2A13",
"h  c #422B1B",
"j  c #532D14",
"k  c #5B2E11",
"l  c #543015",
"z  c #5C3215",
"x  c #573118",
"c  c #5D3318",
"v  c #5F3918",
"b  c #602F0F",
"n  c #62300F",
"m  c #612F10",
"M  c #643211",
"N  c #6D3612",
"B  c #6D3815",
"V  c #633619",
"C  c #66391A",
"Z  c #6C3B1B",
"A  c #703713",
"S  c #743A15",
"D  c #793D17",
"F  c #733E1B",
"G  c #7A3F18",
"H  c #453023",
"J  c #6E431D",
"K  c #75411E",
"L  c #7D411B",
"P  c #6C4323",
"I  c #7C4521",
"U  c #754926",
"Y  c #7E4821",
"T  c #3D3748",
"R  c #4B444C",
"E  c #4D4A5D",
"W  c #6B6878",
"Q  c #726B7E",
"!  c #83451C",
"~  c #88471E",
"^  c #87481F",
"/  c #89491F",
"(  c #824721",
")  c #844A23",
"_  c #8C4C22",
"`  c #914E23",
"'  c #8D5125",
"]  c #8D512B",
"[  c #8D582D",
"{  c #945126",
"}  c #995427",
"|  c #9C5827",
" . c #965429",
".. c #9D5629",
"X. c #965D28",
"o. c #9E5929",
"O. c #A25C2B",
"+. c #A15D31",
"@. c #996031",
"#. c #A6612C",
"$. c #AB652D",
"%. c #AE692F",
"&. c #B16B2F",
"*. c #A46232",
"=. c #AE6931",
"-. c #B46E32",
";. c #B67032",
":. c #B77439",
">. c #B97639",
",. c #B19998",
"<. c #ADA9B4",
"1. c #C4B59F",
"2. c #E5E6C7",
"3. c white",
/* pixels */
"+...} / S N N N N N A A D D A A A A A A A M k k m m m N N N S G ! ~ ~ _ ~ _ _ ~ ~ ~ / / ~ ! D S A A N N N N N N N N N A N d m ( ",
"=.O...} _ D N N A D ! ` ` } ` ` ` ` ~ G A N u p A N N N N N N N N N N A A A A A A A A A A A A N A N N A N N N N N A M i 2 > B  .",
":.$.O.....` ! L _ ` ..} ....O.O.O.O...` ! N 2 u N A N N N N N N N N N N N N A N N N N N N N N N N N N N N N N N n p < $ > V ] O.",
":.=.O.........} } ....O.O.O.$.&.&.O.....} Z 5 u N N M m b N N N N N N N N N N N A A N N N N N N N N N N N N N m e % & j G ` O.+.",
">.-.O...O.........O.O.O.#.&.-.&.&.O.O...{ Z e u b e 2 > > p N A N N N A N N N N N N N N N N A N N N N N M M j > % 1 d Z { ..O.+.",
":.-.O.....} ......O.O.&.-.-.;.;.&.O.....] V 5 d e j k u < $ 2 i N N N A A N N N N N N n p p u u e e 1 : & % : s Z I Z j x K o.+.",
":.&.#.O.........O.$.;.;.;.;.;.&.$.O.....( d % s G _ ] ! N s & $ & < e t t e e e e 2 < > & $ $ % < < e g x C I _  .} ` ( C j v  .",
":.&.O.........O.#.-.;.;.;.;.;.&.+.......K : - Z  ......._ L N d e > > > > > > $ % < e r t t u p n S L _ `  .} ..........] U g P ",
">.O.............$.-.-.-.-.;.;.=.O.....} Z - > B _ } ......} ` ! S N m m k m k 5 & d p m N M N N A S G ! / ` ` / _ _ } ....( d U ",
">.O.....O.......O.&.-.-.-.:.-.$.O.....} V = 2 N D _ } ......} { { _ _ ! ! _ _ V > > e u M N N N N N A A D D D S S S L ` I s f @.",
"-.O.......} ....O.O.$.-.;.;.=.O.....+._ j % t N A D ! } ....} O.......} ....} ( 5 : 5 2 2 t p M n n p i p N A N N N N V 8 @ 1 *.",
"+.O.O...{ ~ _ ......O.&.&.-.=.O.......) d & k N N N A ! # # # # # # # # # ....F 1 d Z V d 6 2 2 2 2 < * < t n N N N i 1 : ; @ [ ",
"+.O.} _ G S ! { ......O.O.O.O.O.} O.} L e e M N A N # # ,.,.1.1.1.1.1.,.,.# # d 5 Z ] ` ( K C x j j k j r , 2 i n t - ; 0 0 ; P ",
"+.O.! S N N G ` ........O.O.....} } ` V > e M N N # ,.1.1.2.2.2.2.2.2.2.1.1.,.# j _ O.O.$.O.o. .' ' _ ^ F g 1 2 r - = 7 h q 7 h ",
"..! S A A N D ` ............{ _ ( G M s = : t M # ,.1.2.2.2.3.3.3.3.3.2.2.2.1.,.#  .O.O.-.-.&.=.$.$.#.O. .) C g 1 ; 7 q h q 0 4 ",
"_ S N N N A S ` ........{ _ ! D N p 5 ; 3 ; > e # 1.2.2.2.3.3.3.3.3.3.3.3.2.2.1.# ....+.&.-.-.-.;.;.&.%.#... .Y g 1 q q H q 0 3 ",
"K N N N N N N ! } ..} ` ( G A N u * = 4 9 3 @ # ,.1.2.2.2.3.3.3.3.3.3.3.3.3.2.1.,.# ..O.=.;.;.;.;.;.;.&.O.O.O.{ D 5 4 H h q 4 3 ",
"F N N N N N N S ! ` ! G D A N i > O ; 3 3 ; @ # ,.1.2.2.2.3.3.3.3.3.3.3.3.3.2.2.1.# ..O.=.;.;.;.;.;.;.%.O...O...] x 4 5 q q 3 h ",
"F B N N N N N N S D S S N b t > o @ = ; 3 5 8 # ,.1.2.2.2.2.3.3.3.3.3.3.3.3.2.2.1.# O.O.O.;.;.;.;.;.&.$.O...} O.} I s 4 0 5 3 c ",
"F N N N N N N N N A N m u < & $ - 4 8 g V K G # ,.1.1.2.2.2.2.3.3.3.3.3.3.2.2.2.1.# ..O.O.$.%.%.%.$.#.O.......} ..{ V 3 4 5 g F ",
"F N N N A A N N N m i e > 5 s j v F ( ]  .} ` # ,.1.1.2.2.2.2.2.2.2.2.2.2.2.2.2.,.# ....O.O.O.O.O.O.O.| O.} O.} { ` ( e ; u N F ",
"F N N N N N N N m u 2 2 j F _ ..o.#.$.O.O.O.O.# Q 1.1.1.2.2.2.2.1.2.2.2.2.2.2.2.,.# ` { } ..} ....| } O.} } ` ~ ! ! ! j > j N F ",
"F N N N N A M m e t j K `  .O.$.-.;.;.-.=.$.&.# Q ,.1.1.1.2.2.1.1.1.2.2.2.2.2.2.,.# G ! ( ( _ ` { } } ` ` ~ G A N A S m > i N F ",
"Z N N N N N p e d K ] } O...O.%.;.;.;.-.-.-.-.# E ,.,.1.1.1.1.1.,.Q 1.1.2.2.2.1.E # N A N S S D L ! ! ! D S A A N m m e > i N F ",
"F N N N N k 2 r I  .........O.%.-.;.-.;.;.;.;.;.# Q ,.,.1.1.1.,.Q Q 3.3.2.2.1.E # # N N N N N N N N A N A N N n p t 2 , t n A F ",
"F N m k u 1 & V ` ..O.......O.$.-.;.;.-.;.;.;.;.# E Q ,.2.Q Q Q # 3.1.# # # 1.1.# m N N N N N N N N N N N b p r < < > < b N N D ",
"F m e < $ X 2 I ` } ........O.O.=.-.-.-.;.;.;.;.;.# E Q 1.2.Q E # 3.# # E 2.1.3.# d m N N N N N A A A N p t < < e i i 2 p N N D ",
"C 2 O X X O 1 M D _ ` } ....O.O.O.O.#.=.&.;.;.&.=.$.# E Q Q 2.2.3.3.,.E Q 2.1.# ; > t m N N N N N N b u < > r p N N N y e p M F ",
"h = ; @ = d & e m S L ` } } O.} O...O.O.$.&.$.O.O.O...# # E 1.Q 2.3.3.3.1.1.# Q # : % t b N N N b p e < e p N N N S L F - * e V ",
"q 0 3 O t m e > i N N S L _ { } ..........O.......# # # ,.# # # # 1.1.1.1.1.2.# ' g - : r j m k t < < u n N N N S ! { ) 2 X X ; ",
"H 3 = s N N i & e m A N A A G ~ _ { ..O.....O...# # 2.1.# Q Q # # 1.# 3.# 2.# }  .c r s 6 2 2 1 < t b N N N N S ! { ..` j 2 r 5 ",
"9 = u N S S N e > i N N N A A A S ! ~ ` } ....# Q ,.Q Q T # # Q Q E 1.# E # Q #  .C 6 u k k k k M N N N N A S / } ....{ V e N Z ",
"6 n N N S D N p & 2 n N N N N N N N A F ! ` } # 1.Q ,.1.,.1.2.2.3.3.2.E 2.E 1.# ` V 2 u M N N N N N A N A S ! } O.O.} } ! 2 m D ",
"Z N S ! / ` G N t & t b N N N N S N N N N S ! # ,.2.Q Q # Q E 1.1.E E 2.3.1.w # S t > u N N N N S G L ! ! ~ } O.&.O.O.} _ s e F ",
"L L } #.#.O.~ S b < & u N N N N N N S N N N B # Q 3.1.# T Q ,.E E 2.3.1.3.3.1.# M 2 > i N D ! _ } } } } ....O.$.;.%.O.O.{ g e K ",
"X.| %.&.&.$...! A p > > u N N A N N N N N B N # Q 2.Q # Q T 1.2.3.E E 2.E 2.w # t > e M S _ } ............O.O.&.;.$.O.} ] g 2 ] ",
"+.o.=.-.;.%.O.} ! A t & & t b A N N N N B N N # Q 3.Q # Q ,.E E 3.3.2.1.Q 2.1.# > > p A ! } ................O.;.-.O.....` s - ] ",
"+...#.-.-.-.O...} ! N r o $ t b N N N N N N N # 1.2.1.# T ,.1.2.E E E 2.1.1.w # % e M G ` ........O.O.O.O.O.%.;.=.O.....) 5 o P ",
" .} #.-.;.-.O.o...} _ B : . % d N N N N N N N # Q 1.Q # ,.E E E 3.3.2.1.Q 1.Q # < m S _ } ..O.O.O.$.-.-.-.-.-.-.O.O...} L 1 : h ",
") ` o.#.$.=.O.....o.} L 5 $ % > t N N N N N N # 1.E 1.,.# 1.2.3.E E E 2.1.1.# # i A ! } ..O.O.=.-.-.-.-.;.;.;.-.O.O.+.} C > e 3 ",
"F ! { O.O.O..........._ s 5 j 1 * t n N N N N # ,.1.E ,.# # # # # 2.2.1.E # # # S ! } ..O.=.-.;.;.-.;.;.;.;.;.&.O.O...] g 2 i ; ",
"F S _ ..........} ....( d g I C 2 * 6 a n N N N # ,.2.E ,.# 2.2.2.# Q E # E E # _ ` ..O.$.-.;.;.;.-.-.;.;.;.&.O.O.} ..I 1 e m 3 ",
"F N ! } O.........O...K s c ' ] Z f 1 * 2 t p a   ; ,.E ,.1.3.3.E 2.# Q Q E Q # } ..O.#.-.;.;.;.:.-.;.;.;.;.$.O.....} V % p N d ",
"F N _ } ............] v d F  ...o.' J l 6 * & > 2 t # ,.E 1.2.2.3.# # 1.E T # # ..O.O.-.;.;.;.;.;.;.;.;.;.=.O.O.} } _ s > m N x ",
"F A _ ..} } ` ` _ / K r j _ | O.#.%.$.X.L J f 6 & = # # # 1.1.E 3.2.# # T ,.W # ....O.&.;.;.;.;.:.;.;.;.&.O.O.} ( B j < i A A m ",
"F S ~ ` _ L G G D N y - z ` ..O.#.#.%.&.&.@.' J x s # W W # # 1.E # # W 2.3.,.# O...O.O.&.;.;.;.-.;.;.-.$.O.} L d 1 > e M A N V ",
"F S G G S A A A N p * * B _ ` } | | #.$.%.%.#.X._ # # W 2.1.,.# # # W ,.1.2.E E # O.} O.O.&.;.;.;.;.;.-.O.O.] B & < t m N N N V ",
"F N A N A N N A N 2 % r M D L ~ / ` { | O.O.| } ..# W 2.3.,.W # 0 5 # W ,.E 3.2.# } ..O.O.O.O.-.-.;.-.$.O.O._ k % e m N N N N j ",
"F N N N N N A N u % * i N A N S D D ! ( _ ` ` } # W 1.E E R # 4 7 0 ; # W E 1.E # ........O.O.#.$.-.%.O.| } ! i & e N N N N u 6 ",
"F N N N N N N i & & t N A N N N N S N S D G ! # ,.3.E 3.<.# _ g 3 7 @ - # 1.E 2.,.# } ..} } ..| O.O.O.O.O.} G i & < N N N p 2 s ",
"K B N B N N b 2 % < n N A N N N B N N N S N # ,.3.2.E ,.# ` ` I 8 ; + , # ,.3.E 2.E # # # / / ` ` } O.} } / S p > > N N N t 2 C ",
"Z N N N N N t % > i N N N N N N N N B N N # Q 1.,.E 2.# D D _ } C : X r N # 1.E E ,.1.E 2.# K L G G ! ~ ~ ! S N e $ i N k 2 x I ",
"K N N N N N < = t N N N N N N N N N N B N # 1.Q E 2.# N N A G }  .x o r N # E 1.,.2.E 3.W # N B A A A S S S N N u $ 2 N u 2 Y ) ",
"F N N N N i & < n N N N N N N N S B B N N # ,.2.1.Q ,.# # # S ~ } I = 2 n # 2.3.,.2.3.Q # B N N A A N N A N N N p > % j 2 g { ] ",
"K N N N n r o t N N N N N N S N N N N N N S # 1.,.Q 2.Q 2.,.# S _ _ s - p # ,.1.E E # # N B N N N N N N N N N N N t % r : M ` ( ",
"Z N N N t * % < a N N N N N B N N N S B B N N # E 2.E 3.E 3.# N D _ C - p N # # # # N N N N B N N N N N N N N N N p > - : m ! ( ",
"F N N p & % < % r n N N N N N N N N N N N N N N # # # # # # N N A D M - i N N N N N N N N N B N N N N Z N N N N N N e X > N N D ",
"D N n 2 o o < & * t N A N N N N N N N N N N N N N N N N N N N N N n 2 % y n N N N N B N N B N N N N N N N N N N N N p & & b N F ",
"F N u & 2 < % O O * u n N A N N N N N N N N N N N N N N N N N b i 2 o % & r p N N N N N N N N N N N N N N N N N N N N t $ p N D ",
"Z n , % r p r % X % & < u n n N N N N N N N N N N N N n N b p < o X > t * % , u N N N N N N N N N B N B N N N N N N N p % r p F ",
"C y * % % > r < o o < < > < t u p p n b n n M n p i u t 2 , % $ * t n N i < % : t a n n N N N N N N N N N N N N N N N k & > * j ",
"c r p b u < & & O X 2 p i r & & % = & > < 1 , & $ o $ $ % - j V B S D L D k , % O 1 t a p n N N N N N N N N N N N N m y $ > o @ ",
"] S N N N N n u < % * i N N b i t 2 , > > > & * 2 t i i t 6 K { { {  .' K f g P v f 6 7 , 2 t t i p p p k u u u u y < % $ < t 5 ",
"O./ S N N N A N N p * * r i n n M M k u 2 & % & , r y t - = 2 F ' _ L x 6 l ) o.O.X.{ ) J r = @ % % % & & % & * : 1 r g 2 : & 1 "
};
