/* XPM */
static char *Veline_up1738833611[] = {
/* columns rows colors chars-per-pixel */
"64 64 109 2 ",
"   c #0F0801",
".  c #150B04",
"X  c #1D0F04",
"o  c #1C1007",
"O  c #1D120A",
"+  c #1D131E",
"@  c #200F04",
"#  c #241205",
"$  c #2C1506",
"%  c #2E1807",
"&  c #24150A",
"*  c #2B1709",
"=  c #27180E",
"-  c #2E190B",
";  c #311707",
":  c #321907",
">  c #381B07",
",  c #341B0A",
"<  c #3B1E0A",
"1  c #2B1C12",
"2  c #311E11",
"3  c #381F10",
"4  c #3C210D",
"5  c #342216",
"6  c #3B2313",
"7  c #352418",
"8  c #392618",
"9  c #3D291B",
"0  c #2E2533",
"q  c #411F0A",
"w  c #44220B",
"e  c #4B250C",
"r  c #4E280E",
"t  c #50270C",
"y  c #542A0E",
"u  c #5C2D0F",
"i  c #5F300F",
"p  c #442611",
"a  c #482712",
"s  c #452912",
"d  c #4D2A13",
"f  c #422B1B",
"g  c #532D14",
"h  c #5B2E11",
"j  c #573016",
"k  c #5C3215",
"l  c #573118",
"z  c #5D3418",
"x  c #5F3918",
"c  c #602F0F",
"v  c #62300F",
"b  c #612F10",
"n  c #653211",
"m  c #6D3612",
"M  c #6D3815",
"N  c #623619",
"B  c #66391A",
"V  c #6C3B1B",
"C  c #703713",
"Z  c #743A15",
"A  c #793D17",
"S  c #733E1B",
"D  c #7A3F18",
"F  c #453023",
"G  c #6E431D",
"H  c #75411E",
"J  c #7D411B",
"K  c #6C4323",
"L  c #7C4521",
"P  c #754926",
"I  c #7E4821",
"U  c #3D3748",
"Y  c #4D4A5D",
"T  c #726B7E",
"R  c #83451C",
"E  c #88471E",
"W  c #87481F",
"Q  c #89491F",
"!  c #824721",
"~  c #844A23",
"^  c #8C4C22",
"/  c #914E23",
"(  c #8D5125",
")  c #8D512B",
"_  c #8D582D",
"`  c #945126",
"'  c #995427",
"]  c #9C5827",
"[  c #965429",
"{  c #9D5629",
"}  c #965D28",
"|  c #9E592A",
" . c #A25C2B",
".. c #A15D31",
"X. c #996031",
"o. c #A6612C",
"O. c #AA652D",
"+. c #AE692F",
"@. c #B16C2F",
"#. c #A46232",
"$. c #AE6931",
"%. c #B46E32",
"&. c #B67032",
"*. c #B77439",
"=. c #B97639",
"-. c #B19998",
";. c #C4B59F",
":. c #E5E6C7",
">. c white",
/* pixels */
"..{ ' Q C m m m m m C C A Z Z C C C C C C m h h b b b m m C C A J E ! ^ E ^ E ^ E Q Q E E E D Z C C m m m m m m m m m m n g b L ",
"$. .{ ' ^ A C m C A R / ` ` / / / / E A C n t u C m m m m m C C C C C m C C C C C m C C C C m m C m m m m m m m m C m t < ; n { ",
"*.O. .{ { / R J ! / ' '  . . . . . .' / R M 3 t m m m m C m m m m m m m m m m m m m m m m m m m m m m m m m m C n u > X - n ) ..",
"*.$. .{  .{ ' ' {  . .{  . . .@.+. .{ { ` V < y m m m c b m m m m m m m m m m C m m m m m m m m m m m m m m m b q @ * h L [ {  .",
"=.%. .{  .{ { { {  . . . .@.%.&.@. . .{ ` V 3 y u q < ; ; u m C m m m C m m m m n C m m C m m m m m m m n n y ; # , p V / {  ...",
"*.%. .{ { ' { { {  . .@.%.%.&.&.+. . .{ / N < e q g h y > @ < y m m C C m m m m C C m c u u t e e q < $ # # - p V L V g g L ' #.",
"*.@.o. .{ { { {  . .%.%.&.&.&.%.O. .{ { ! p & a S ^ / ! n a * @ ; > q q t q q q w < > $ $ # # $ ; > q d l B L ) [ ' ` ! B g x [ ",
"*.@. .{ { { {  .O.%.&.&.&.&.&.@... .{ { H 2 * B ' { { { / D n t q ; ; ; ; ; ; @ # > q w e e t y n C R ^ ` ` ' ' { { { [ [ P d K ",
"=. .{ { { { { { O.&.%.&.&.&.&.$. .{ { [ V * ; M ^ { {  .{ ' ^ R Z m b u u b h < # e h b n m m m C Z D R Q / / E ^ ^ ` { ' ~ s P ",
"=. .{ { { { { {  .@.%.%.&.&.%.O. .{  .` N & q n A ^ / + + + + + + + + + + ^ ^ N ; , q y n m m m C C m Z A A A A C A R / L a s X.",
"%. .{ { { { { {  . . .%.%.&.%... .{ { ^ g # e m C + + -.;.;.;.;.;.;.;.;.-.+ + L 3 - 3 < < e u v v c u y u n m m m m m n 6 o 2 #.",
".. .{ { ' E ^ '  .{  .@.%.%.O. .{ { { ^ p * u C + -.;.:.:.:.:.:.:.:.:.:.:.;.-.+ < a B N e 4 < 4 < > > $ > t n m m m g ; - = O _ ",
".. .' ^ D Z R ` { { {  . . . . .{ { { L q < b + -.;.:.:.:.>.>.>.>.>.>.:.:.:.;.-.+ V [ ) ~ S B l g g j y w : < y v e * = 8 8 = K ",
".. .E Z m m A ' { { { {  . .{ { ' ` ^ N - < m + ;.:.:.:.>.>.>.>.>.>.>.>.:.:.:.;.+ ^ {  .#.o.| [ ( ( ( Q S d , < w - O 7 f 9 5 f ",
"{ E C C m m A / { { { { { { ` ^ R J N p & - + -.;.:.:.>.>.>.>.>.>.>.>.>.>.:.:.;.-.+ {  .%.%.%.O.+.O.o. .[ ~ V d , = 5 9 f 9 8 2 ",
"~ C m C C C Z ^ { { { { ' ^ R A m y < - 1 = + -.;.:.:.>.>.>.>.>.>.>.>.>.>.:.:.;.-.+ { ..@.%.%.%.%.@.@.+.o.' [ I d , 9 f f 9 8 1 ",
"H C m m m m C R ` { ' / E D A n t : & 2 7 1 + -.;.:.:.>.>.>.>.>.>.>.>.>.>.:.:.;.-.+ {  .$.&.&.&.&.&.&.@. . . .` A 3 3 9 F 9 7 1 ",
"S m m m m m m Z R ^ E D A C v y : o = 1 1 = + -.;.:.:.>.>.>.>.>.>.>.>.>.>.:.:.;.-.+  . .$.%.&.%.&.&.&.@. .{  .{ / l 1 3 9 9 1 9 ",
"S M m m m m m C A D Z C m c e ; X O = = 1 3 + -.;.:.:.>.>.>.>.>.>.>.>.>.>.:.:.;.-.+ {  .O.%.%.&.&.@.@.o. .{ '  .[ L p 2 8 8 1 z ",
"S m m m m m m m C C n b e < $ @ * 2 6 d N S + -.;.:.:.:.>.>.>.>.>.>.>.>.:.:.:.;.-.+  . . .O.@.@.@.+.o. .{ { { '  ./ N 1 2 3 t V ",
"S m m m m m m m m b u q ; 3 a g x K ~ ^ [ [ + T ;.;.:.:.:.>.>.:.:.>.>.:.:.:.;.;.T + `  .]  . .o. . . .{ { {  .' ` / L q - g m Z ",
"S m m m m m m m b e < < g V ^ { | o.O.o. . .+ T -.;.;.:.:.:.:.:.:.:.:.:.:.;.;.-.T + / / ' ' ' ' '  .{  .' ' / E J R ! g * y m S ",
"S n m m m C n b e w g H / {  .O.%.&.&.%.O.O.+ T T -.;.;.:.:.:.:.:.:.:.:.;.;.-.T T + D R R E Q / / ` ' / / E J C C C A b ; t m S ",
"S m m m m m u q a S ) { { {  .O.%.&.&.%.&.%.%.+ Y T -.;.;.;.:.;.;.:.;.;.;.-.T Y + m C C Z Z Z Z R R R R A C C C C n b q ; t C S ",
"S m m n m u < w L [ { { { {  .+.&.&.&.%.%.&.%.+ Y T T -.-.;.;.;.;.;.;.-.-.T T Y + m m C C m n C m C C C C C C v u e > : e v C Z ",
"S m b b t , $ N / { { { {  . .O.%.%.%.&.%.%.&.&.+ Y Y T T T T T T T T T T Y Y + w u n C m m m m m m m C n v y w > > : > c C C S ",
"S b e ; # . < H / ' { { ' {  . .+.%.%.%.%.+ + + + + + Y Y Y Y Y Y Y Y Y Y + + + + + + m m m m C m m C n u e > > q y y q u m C Z ",
"B < o . . O , n D ^ / {  .'  . . .o.o.+.+ ;.:.;.;.-.T + + + Y :.T Y + + + T -.;.;.:.;.+ m m m m m m c y > : w u m m n t < u m S ",
"p = 1 O * a ; w b Z R ^ / {  .{ { {  .+ ;.+ + T -.-.T T Y Y -.:.T -.Y Y T T -.-.T + + ;.+ m m m v u q > q u n C m C J V - $ q N ",
"9 8 1 X w b < ; y m m Z J / / ' { { { + ;.:.:.+ + Y Y Y T T T -.Y T T T Y Y Y + + :.:.;.+ u b u e > > t v m C C C R [ ^ < . . = ",
"F 1 O a m m u $ q b m m C C D E / ' + :.Y Y >.;.T T ;.:.+ Y T :.;.T Y + :.;.T T ;.>.Y Y :.+ < , > e c m m m m A E ` { ^ d < w 3 ",
"7 & g n C C m q ; y m m m C C C A D + >.:.:.T ;.:.>.>.>.Y ;.:.-.Y :.;.Y >.>.>.:.;.T :.:.>.+ h h v m m C m m C ^ ' { { [ B w m M ",
"4 c n C Z Z C u ; > c C m m m m m m + Y >.;.T ;.;.;.:.:.Y Y T >.;.T Y Y :.:.;.;.;.T ;.>.Y + m m C C C C C Z R '  . .{ ' J < b S ",
"M m Z R / / A m e $ e c m C m m m m m 0 ;.0 Y T -.-.;.:.Y ;.:.-.Y :.;.Y :.;.-.-.T Y 0 ;.0 m C C C A J J R E '  .O.O. .{ / w q S ",
"J R ' o. . .E Z c > ; e n m m m m m + ;.>.;.0 + Y -.;.-.Y Y T >.;.T Y Y -.;.-.Y + 0 ;.>.;.+ R ^ ` ' ' ' ' {  .O.%.@. .{ ` d q J ",
"} ] +.&.@.o.{ E Z y ; : t m m C m m + T :.T + + + Y T T 0 ;.:.-.Y :.;.0 T T Y + + + T :.T + ` { { { { { {  . .@.@.O. .{ ) a < ) ",
"..| O.&.&.@. ./ R C e $ $ q m C C m + >.T :.+ m m + + -.T Y T >.-.T Y T -.+ + y $ + :.T >.+ { { { { { { {  .O.%.@. . .{ / p & ) ",
"..{ #.%.@.%. . .' E m w X @ e c m m + -.T ;.+ m + -.T 0 -.;.:.;.Y :.;.-.0 T -.+ @ + ;.T -.+ {  .{  . . . . .+.&.$. .{ { ^ 3 o K ",
"[ { o.%.&.%. . .{ ' Q M *   @ g m m + U T U + + T >.;.T + Y T :.-.T Y + T ;.>.T + + U T U +  . . .+.+.+.%.%.%.%. . .{ [ L , * f ",
"~ / ] o.O.O. .{ { { ' I 3 @ @ - t + -.>.;.T + + Y ;.>.>.0 0 -.;.Y -.0 0 >.>.;.Y + + T ;.>.-.+ $.%.%.&.&.&.&.&.@. . . .[ B ; q 2 ",
"S R `  . . .{ { ' | { ~ s 3 d < $ + ;.:.T T U + + ;.;.>.>.Y T :.-.T Y >.>.;.;.+ + U T T :.;.+ &.&.&.&.&.&.&.&.$. . .{ ) d < y = ",
"S C ^ { { { { { | ' { ~ s g L B < + T ;.U ;.+ + -.+ + ;.-.-.:.>.:.:.-.-.;.+ + -.+ + ;.U ;.T + &.&.*.%.&.&.&.@. .{ { { L , q b 2 ",
"S m ^ ' { { { { { { ' H p z ^ ) S s + T :.;.+ + ;.-.;.Y T -.T ;.;.T -.T Y ;.-.;.+ + ;.:.T + &.%.%.&.&.&.&.%.O. .{  .` N # y m p ",
"S m R { { { { { { { [ z a H [ { | _ G + + + $ + T :.-.U T Y + Y Y + Y T U -.:.T + + + + + &.&.&.&.&.&.&.%.+. . .{ ` ~ e ; n m l ",
"S m Q { { ' / / ^ Q S w g ^ '  .O.+.O.} I G s + T :.>.T U + + + + + + U T >.:.T + {  .@.&.&.&.&.&.&.*.&.@. . .' ! M g < y m C b ",
"S A ^ / ^ J D D D Z r - N ` ' ] ] O.+.@.+.o.( G + >.;.:.U + < & @ * + U :.;.>.+ { {  .o.%.&.&.&.&.&.&.%.$. .{ J g ; * q m C m N ",
"S C D D A C C C m u $ % N Q ` ' ] ]  .O.+.O.o.} + ;.T -.U + X & 3 3 + U -.T ;.+ {  .{  . .@.%.%.&.%.&.%... ./ m $ ; q b m C m N ",
"S C m m m m m C v w # w m D J W Q ` ' ]  . . .' + U :.T + + 3 = 9 6 + + T :.U + { { { {  . .O.+.%.%.%.O. .{ ^ h # q m m m C n g ",
"S m m m m m m C t # : u m m C C A D J ! ^ / / + + + >.-.;.+ B 2 5 7 + ;.-.>.+ + + { { { '  . .o.O.%.@. . .` R y $ q m m m m t 4 ",
"S m m m C C n y ; # e v m m C m m m Z Z D D + -.Y + :.Y -.+ ) d 1 5 + -.Y :.+ Y -.+ ' { ' ' ' ]  . . . . .` A y ; > m m m u > p ",
"G m m m C m v > # < c m C m m C M m m C C C + :.-.Y -.0 -.+ / L 6 = + -.0 -.Y -.:.+ R Q Q / ^ ( / `  .' ' ^ Z u : ; c C m e 4 B ",
"S m M m m m r # : y m C m m m C m M m m C m + -.:.0 T ;.T + ^ ' V - + T ;.T 0 :.-.+ C C A D J H D J R E E R m m q @ y C n < l J ",
"S m m m m n > # r m m m m m m m M m m M M m + U ;.T :.:.T + D ' [ g + T :.:.T ;.U + m m m m m m C C C C Z Z m m r @ < m r < ~ ~ ",
"S m m m m u # > v m m m m m m m m Z M m m M m + -.U :.-.T + C ^ [ L + T -.:.U -.+ m m m m m m m C C m m C C m m u $ $ g , d [ ^ ",
"V m m m n < @ e v m m m m m m m M m C m C M m m + + + + + m m Z ^ ^ p + + + + + m m m m m m m m m m m m m C m m n e # w - h ^ ~ ",
"H m m m r $ $ < v m m m m m m M C m M m C m m m m m m C m m m m D ^ N * u m m M m m M m m m m m m m m m C m m m C c : * - n R ! ",
"S m C u $ # > # w v m m m m m m C m m m m m m m n C m C n C C m m Z N ; y m m m m m M M m m m m m M m M m m C C C v w . ; n C D ",
"S m v < X X : $ % t m m m m m m m m m m m m m m C m m m C C n C m n < # e v n C m m m m m M M m m m m m m m m m C C u $ $ c m A ",
"S C t # > < # # o % e v m m m m n m m C m m m C C m C m C m C v y < X # $ w u n m m m m m m m m M m m m m m m m n m n t # u m A ",
"M v > # w u w X . # % 4 t v v m m m m C m m m m m n m n v c y < # . $ e $ # > y n m m m m m m m m m m m m m m m C m C u $ w b M ",
"B r - # @ > w > X o > > ; > e y u u v v n n v v u y t e < : # o : w h m y > # $ e i v m m m m m m m m m m m m m m m m u # ; $ d ",
"x q u c e > $ $ o . > u y q $ $ # # $ $ > > : $ # @ @ @ # : g n m A D D D k : # # , e y c v n m m m m m m m m n m m n r @ ; X O ",
") C m m m m i t w # % y m m c y e < : $ $ $ $ % < e t u w 6 H ` ` ` ` ` G s d H x s 4 5 , < w y y i u u h y t t t r < @ X < r 6 ",
" ./ C m m C C C m y $ $ w u v v n n c y 4 $ # $ , w r w - # 4 V ` ^ I l 4 j ~ |  .} ` ~ G 4 & # # # # # # * $ $ - , w d < $ $ , "
};
