/* XPM */
static char *move_21738926249[] = {
/* columns rows colors chars-per-pixel */
"64 64 85 1 ",
"  c #000000",
". c #080706",
"X c #090807",
"o c #090708",
"O c #0D0C0B",
"+ c #110F0D",
"@ c #12110F",
"# c #151311",
"$ c #191614",
"% c #1D1916",
"& c #1E1B19",
"* c #201C15",
"= c #221E1B",
"- c #25211E",
"; c #29231F",
": c #272320",
"> c #2B2522",
", c #2E2924",
"< c #2C2C29",
"1 c #312B26",
"2 c #382E26",
"3 c #352E29",
"4 c #36302B",
"5 c #3B332D",
"6 c #3F382B",
"7 c #373737",
"8 c #3E3631",
"9 c #3D3935",
"0 c #3F3C38",
"q c #423A2F",
"w c #403732",
"e c #443B34",
"r c #493E36",
"t c #453E39",
"y c #493F38",
"u c #474035",
"i c #494137",
"p c #45413D",
"a c #4A403A",
"s c #51453E",
"d c #454545",
"f c #4C4541",
"g c #4E4945",
"h c #524740",
"j c #594740",
"k c #554A43",
"l c #594D46",
"z c #534D49",
"x c #5B4F48",
"c c #5C5047",
"v c #56524D",
"b c #5D524A",
"n c #5B5551",
"m c #5E5A57",
"M c #5E5E5E",
"N c #62554D",
"B c #65594F",
"V c #625750",
"C c #655A52",
"Z c #6B5D55",
"A c #625D5A",
"S c #6B5E5A",
"D c #6E6057",
"F c #62615E",
"G c #6F6259",
"H c #71645B",
"J c #76695F",
"K c #636363",
"L c #6A6562",
"P c #6C6C6C",
"I c #746761",
"U c #776A60",
"Y c #7B6D63",
"T c #736D6C",
"R c #7E7166",
"E c #73706F",
"W c #7C726B",
"Q c #767676",
"! c #797573",
"~ c #7A7877",
"^ c #7C7C7C",
"/ c #807267",
"( c #807368",
") c #87817E",
"_ c #808080",
/* pixels */
"HY((YN++eayaaaaaaiyrayyyayyyyxHHNaayay-O=sSDGGJ//YJHSZBDDDHDeXcG",
"UR((/H;+eaaaayyarrassklkkllxNSHHNsaaaae$3xxBHHY///YGcllbZDHD3XBJ",
"U/((/UwO2yaayaaakNBSSDHGGGHJIYYYZjyyfyy13axZGHY/((//JDZDGHGD-*J/",
"J/(((Yx$%waaaasNSGGHHGDHHUYY(((RHChyyyy13alZGGH/(///YJHHGHHN@w//",
"HY(((RZ5O$raaalZGHHHJUUR//(YAJ((JGZbkhh15yakNBZJYUJJHHDHHGDr%B((",
"HUR((RHN3O5yaalZHYRYRRR(((RnfVR(YHDZZZl:eyaaasNSHHSHHGHHGGN-4J((",
"GHY((YHHN=%eaajZHR((RR((((UzfC((/HGGHS9,aaaayyakbNCZZZZZGGi-G(((",
"GHJYYYHHDaO2aahCHURR(((R((UayGRRYHHGGZ>5ayayaaaaashllllhcB-i/(((",
"GGHHHHHHHZ*$easBHGHJYRR(RRWbNJHHHHGHHC:8yayayaaaaaaaaaaaa5-D/(((",
"GHDGHDHHGGs@>rsBGHHGHURRRJ!vSGHGGGHGHC:5yyyaaaayyaaaaaaa6@i/((((",
"HGGGZCZSHHGa+1sCHGGGGGGGHDTkDGHGGGGGSC:=yaaayayaaaaaaaye%$J/((((",
"HGHHNshNGHHZ5$sDHHGDVbklCMgNHGHHGGDZkg-+8ayaaaaayaaaaar>OpR/(((/",
"HHHZlyyalZHHDw*xGb8:+O.O&^9CSCZZDZbhy8&@-tyaaayaaaaaap;+1NJR((/R",
"ZSHDlayaylGHHZ=;tg$O%:3,7b-8aaklbjyyw=-=$wayayyyyyyr8,@>ucDHJJJJ",
"jhNClyaayaxGHHs+<m45rpaav8&O*8aayyw3$@##o$5eyyee88>-%O-uaaNDGGHD",
"ayslkaaaaaabHHN*>mpaaaaaz4e3O#5ee1$@o+#$#o+=1:=&$#$-1#3aaasDGHHH",
"yaaaayaaaaaabGD6+9znCZCl0eaa3O.@$$,5txNNj5=$@@#$>5ete%1riaalZHGN",
"yyayaaaaaaaaabDcO5pnAGCg9aaau>X,alCZZHHGChye858eryayr;&eaaaaxCxs",
"aayayyayayayaaCbO4bpz!Wnpaaap5<eNHHHUYUHHCkhyyyyyraasa#3aaaaahaa",
"aaaaayyfaayaaakr.3Hxtz)K9tfaat07bHHU/(RHGHZxjsfhhlNCZS;%eaaaaaaa",
"8eeeeeeeeweeew7$$aSCghg044pfd0,tbNCSHGSVVVNNVbbbNNNNVVa$-8weewea",
"                   &bn0<;*@@@+O                               1y",
"                   >CCt>,O.                                   >y",
"                   8Sbp;*                                     >y",
"dddddddddddddddddddxBj53pddddddddddddddddddddddddddddddddddo  ,y",
"QQQQQQQQQ^Q~Q~~QQQLNss2hP~~QQQ~QQQQQQQQQQQQQQ^QQQQQQQQQ~Q~Q+  ,a",
"__________________SNsr3m^__________________________________+  =y",
"_________________~HlyrfQ___________________________________+  O3",
"_________________EIyrwM^___________________________________+  .X",
"________________^LZrqwQ____________________________________+  ##",
"________________~Zjrwr~______^Q^___________________________@  $<",
"________________TZjrwl(_____QPE^___________________________O  %7",
"______________(^HNaudE_____PKQ^____________________________O  &<",
"_______________~Zsbuv^___QPPQ^_____________________________+  @:",
"_______________TZjcemQQ^~KPQ^__^___________________________#  =a",
"______________QGNlrvEKMKMKKPEPPKP^_________________________O  3V",
"______________TAlNqDPKMMMKQQ^^^^^__________________________+  8G",
"_____________)Lnla6MMMKKQ__________________________________#  5S",
"_____________^Flz6pMMKEQ___________________________________O  >s",
"____________^QSxh6vMKE^____________________________________@  >a",
"____________^TnvaiMP^______________________________________+  >a",
"____________~GllinQ________________________________________+  ,a",
"077777777777731,-<77777777777777777777777777777777777777777.  >y",
"                                                              ,y",
"                                                              >y",
"O+##$$#oO#$$$$$#$@@@####O OOOO+OOO+OOOO.X###+OO+O+O+#$$$###XOO1a",
"axGGGGz&yHHHUJZNsaaaNDHHc%$waaaaaaaaae=-NGGGbaaaaabZY((/UHk#4raa",
"akSGGHl$aZGHZCkaaaaaacSGZ5.=aaayaaaae=$yGHHGBsaaaxZJ(((/YHy@eaay",
"aaCHHHh#kGZClaaafyyfyyhCGN1+3aaayee3##whDHHGGNhhNZJY(R(/YH1$eaya",
"aylCHHh@aZxhyyaayayyayyhZSN,@4883:$@+3yhZGGGGDCCDHU/(R//JZ*%yyay",
"aasNSCrO8xaaaayaaaaayayflCBN;O#%$$+ *eysNZGGGGGGSJ///(//JN$1yaaa",
"ayykNk5O1aaaayaayaayaaaaasssa@&58e3@:yfyhNZDDDGHGJ/(///YHk#5aaay",
"yaayaa3O>yaayayaaayaaaaaaaaae#1ayay,#wyyysshlxbNZH//YYJHGs+3aaaa",
"ayaaaa3O>yaaaaaaayaaayaaaaar-O6ayay8#2yyyyyyaaaskNGHDZZZSB%$ryaa",
"aaaaay,.O>eyaayaaaaayaaaaaa5O;aaaayy$:yysyyyaaayiaaaaassskr#>yaa",
"ayayae$=#o-eayaaayayaaaaaae$&aaaaayy*=yyyyysyaaaayaaiaaaaay5$5aa",
"aaaar4@sC,.@5raaaaaaayaarr==NZNlfyay>&eyyaaaayaayayayayaaaai>&rt",
"yayar>#BRG3XO1uaaaaaaaaar;*sDHDDNhaa3*yaaaiyaayaaaaaaaaaaaaa6%,t",
"yaiyr&%BGxa4..1taaaaaaat;$qsZGHDZxyy3:yyaaaaaaaaaayaaayaaaaa8-$=",
"rrip8%=BCsar>X+3yaaaaar,$2rasZDZxhaa1:yyaaaayayaayaaayaaaaae$&8=",
"&-=&@O5ZBsaar3O.3yaaae=O-3=>esssayy8$@8aaaat85ryayyayaaayyw$#8aw",
"=%@#=qcbksaaat>.+5yr8=o#>;$#=rsyay:#O+>tat8>##=3tyaayyayyy*O%5rr",
"rraCBNsaaaaaaar3O@-#O=$1yyyr=%%%%+O=w3#=-%#%85%O@#-35ww85=+;=$#%",
"kxZDsaaaaaraaaay1+O+1e*,yyyyw,=*$-5ryy1*%-3eaat5,$#$$#$+o.=*;5;$"
};
