/* XPM */
static char *move_11738926249[] = {
/* columns rows colors chars-per-pixel */
"64 64 57 1 ",
"  c #000000",
". c #080706",
"X c #090807",
"o c #090708",
"O c #0D0C0B",
"+ c #110F0D",
"@ c #12110F",
"# c #151311",
"$ c #191614",
"% c #1D1916",
"& c #1F1D1C",
"* c #221E1B",
"= c #25211E",
"- c #29231F",
"; c #272320",
": c #2B2522",
"> c #2E2924",
", c #312A26",
"< c #352E29",
"1 c #37302B",
"2 c #3B332D",
"3 c #373737",
"4 c #3E3631",
"5 c #3F3832",
"6 c #3F3F3F",
"7 c #403732",
"8 c #443B35",
"9 c #483E37",
"0 c #473E38",
"q c #493F38",
"w c #4A403A",
"e c #51453E",
"r c gray27",
"t c #524740",
"y c #554A42",
"u c #594D46",
"i c #5B4F48",
"p c #5C5047",
"a c #5E524A",
"s c #62554D",
"d c #65594F",
"f c #635750",
"g c #665951",
"h c #6B5D55",
"j c #6E6057",
"k c #6F6259",
"l c #71635B",
"z c #76695F",
"x c #6D6D6D",
"c c #776A60",
"v c #7B6D63",
"b c #7E7166",
"n c #7F7368",
"m c #777777",
"M c #807267",
"N c #807368",
"B c #808080",
/* pixels */
"lvNNvs++8wwwwwwwqwwqqwwwwwwwqilhfewwwq=o*thhlhcvNvclhhhhhlll7oil",
"cbNNMk-+8qwwwqqwqqweeyyyyyiishllswwwww7%<uuglcvMNMvliyyahllh<Ohl",
"cMNNMv7O19wwqqweysfhhhlhkklzcvvvhyqqwwq,<wihllvMNNNvchhhlllh**zv",
"zMNNNvi$%7qww9eshhlklllllcvvMNNbcftqwwq<<qihhlcvNNNNvcclhllf@7NN",
"lvnNNbh2O$9qwwuhkllzzccbMMNNNMMNckhattt,1qeysfhcvvclllkkkkj9%gNN",
"lcNNNvls<O29wwuhlvvbbbbMNNnNNbNnvchhhhi;0qqqqeahlllkkklllkd=1cNN",
"klvnNvlls**7wwehzvNNbnMMNNMNNNNnblkklh4>wwwwqqeuifghhhhhjk9*lNNN",
"klcvNclljqO<ewehlcvbNNnnNNNNNbbbclkllh:2wwwqwwqqqetuuiutpd=wMNNN",
"lkklzllllh*#9qedkllzvbnnnnnnczlllllkhg;4wwwwwwwwwwwwwwwww2=jnNNN",
"kkklkkkkjlw@>9edllkklzbbbvcllklklkkllh;2wwwwqwwwwwwwwwww5@wMMMNN",
"llkkhggjllkw+>ehllklkkkklllkkklkkklkhf;&0wwwqwqewwwwwwww$$zMNNNN",
"ljkkseesjllj2$ehllkhdayuhkklkljlkklgut;+40wwqqqqwwwwwww-OwbMNNNM",
"llljueqeyjllj7*pks2=@OXX$5ghhdhhhhae04&+;0qwqqqqwwwwww-@,dzbNMMn",
"hhkjyqqqeyjllh**1$O+%-,,%O*4weyiayww4=&&#4qqeqqqwww55-@-weklzczz",
"yyshyeqeqqujlle@.@,20www01%O*2w9w07<$+$#o$10qq8752-*%O=wwedkkkkk",
"qqeyewqqwwealls*$1wwwwwwww7<O$108,$+o+#$#o+&,;**$$$=>#>wwwehklll",
"qqqqeqwwwwwwakj2O2sdghhseqww<O.@$$>20isfy2*$@@@$-1ww5%,wwwwyhkjs",
"qqqqqqqtwwwwwajpO7jllkkjiqww0:X:wifhhklkgyq84248wwwww-%9wwwwihaw",
"qqqewwqqwwwqwwgaO2jlllkkdewww1@illllcvclkhyeqqqqwwwwew#1wwwwwyww",
"qeqqwwwqwqwwwwy0.<llzlkkhiwww1%dlllcNNblkjhiyteeeupahh:%8wwwwwww",
"qw<888578878773%$whlkhdssu871#*ifsghllhfsfsssaiaadddafw$=4787888",
"wq                                                              ",
"ww                                                              ",
"wq                             .            .  .                ",
"ww   #6rrrrrrrrrrrrrrrrrrrrrrrrrrrrrrrrrrrrrrrrrrrrrrrrrrrrrrrrr",
"wq   &xmmmmmmmmmmmmmmmmmmmmmmmmmmmmmmmmmmmmmmmmmmmmmmmmmmmmmmmmm",
"qw   &mBBBBBBBBBBBBBBBBBBBBBBBBBBBBBBBBBBBBBBBBBBBBBBBBBBBBBBBBB",
"00   &mBBBBBBBBBBBBBBBBBBBBBBBBBBBBBBBBBBBBBBBBBBBBBBBBBBBBBBBBB",
"*$   &mBBBBBBBBBBBBBBBBBBBBBBBBBBBBBBBBBBBBBBBBBBBBBBBBBBBBBBBBB",
"O.   &mBBBBBBBBBBBBBBBBBBBBBBBBBBBBBBBBBBBBBBBBBBBBBBBBBBBBBBBBB",
">4   &mBBBBBBBBBBBBBBBBBBBBBBBBBBBBBBBBBBBBBBBBBBBBBBBBBBBBBBBBB",
"8p   &mBBBBBBBBBBBBBBBBBBBBBBBBBBBBBBBBBBBBBBBBBBBBBBBBBBBBBBBBB",
"th   &mBBBBBBBBBBBBBBBBBBBBBBBBBBBBBBBBBBBBBBBBBBBBBBBBBBBBBBBBB",
"uk   &mBBBBBBBBBBBBBBBBBBBBBBBBBBBBBBBBBBBBBBBBBBBBBBBBBBBBBBBBB",
"ak   &mBBBBBBBBBBBBBBBBBBBBBBBBBBBBBBBBBBBBBBBBBBBBBBBBBBBBBBBBB",
"hl   &mBBBBBBBBBBBBBBBBBBBBBBBBBBBBBBBBBBBBBBBBBBBBBBBBBBBBBBBBB",
"ll   &mBBBBBBBBBBBBBBBBBBBBBBBBBBBBBBBBBBBBBBBBBBBBBBBBBBBBBBBBB",
"kk   &mBBBBBBBBBBBBBBBBBBBBBBBBBBBBBBBBBBBBBBBBBBBBBBBBBBBBBBBBB",
"hk   &mBBBBBBBBBBBBBBBBBBBBBBBBBBBBBBBBBBBBBBBBBBBBBBBBBBBBBBBBB",
"fk   &mBBBBBBBBBBBBBBBBBBBBBBBBBBBBBBBBBBBBBBBBBBBBBBBBBBBBBBBBB",
"tf   &mBBBBBBBBBBBBBBBBBBBBBBBBBBBBBBBBBBBBBBBBBBBBBBBBBBBBBBBBB",
"qy   &mBBBBBBBBBBBBBBBBBBBBBBBBBBBBBBBBBBBBBBBBBBBBBBBBBBBBBBBBB",
"qt   O3333333333333333333333333333333333333333333333333333333333",
"wt                                                              ",
"ww                                                              ",
"wy####@oO#$$$$$$#@@#####O OOO@OOO@+O+OOoX###+OO+O+O+#$$$###.XO+O",
"wikkkki&qkllcchsewwwshllp%#5wwwwwwwww8**dkkkawwwwwahvNNMclu#19ww",
"9ijkkky$whllhfywwqwqeihkh2X=wwwwwwww8*%0kkkkgewwwihzNNNMvlw@7ww9",
"wwdjlly#tjhhuwwwwww0wwesld>O<www0051##7ykklkjateshlvNMMMvl,#0www",
"wwyhkkt#rhie9qwq0wwwwwqyhjp,@152<;$@+<qthkkkkjhhklcNNbMMzh*%9ww9",
"qweshh9O4iqwwwwwww9w9ww0yhhs-O@%$$@ *8wwshkkkkkkkzMNMNMMzs$,www9",
"wwwysy2O,wqwqwqwwwwwwwwwweeee@%277,+-0qwyshhjkkklzNNMMMvly#2wwww",
"qwwwww<O:qwwwqwwww9wwwwwwwww5#,wwww>#4wwwwwyeuadhlbMbzllkeO<9www",
"wwqwww<O:qwqwwwwwwwwwwwwwwww:O5wwww2#<wwwwwwwwweyakljhhjjd%$0qww",
"qwwwwq>.O>0qwwqwwwwwwwwwwww2O:wwwww0#:qwwqwwwwwwwwwwwweeey9$-9ww",
"wwqww8$&#.;7wqwwwwwww8wwww5$%wwwwwww%*9wwwwwwwwwwqwwwwwwwww2$2ww",
"wwwww1@eg:.@19wwwwwwwwww99**sjdewwww=&0qwwwwwwwwwwww9wwwwwww-%ww",
"wwwww-@dbk<X+,wwwwwwwwww9-%ejllhsewq,*0qwww8www8ww0wwww9wwww4%:8",
"9www9%$dkpw1X.,0wwwwwwww-$7ehllljpww<;0qwwwwwwww9wwwwwwwwwww5-$=",
"88ww5%=dhwww-XO<wwwwww8,$19eedjhieww,=9wwwwwwwwwwww9wwwwwww8$$5&",
"%=*%@X1jgewww,O.<wwww8=O*<--7eeewww2$@5wwwww220wwwwwwwwwww7#@5w7",
"=%@#=7spewwww0>X+2w82*X@>-%@-9www9:@O@:0ww4:@@=180wwwwwww9*O%2ww",
"wweddsewwwwwww0<O#=$+*$,w998=#*#%++*7<@*=%$%54$O+#*<2772<=+--#@%",
"eudjewwwwewwwww9,+X@,7*-ww9w7>**$=19w0<%%=<7www2:$#$%##+..**-2-#"
};
