/* XPM */
static char *player_down_11738833610[] = {
/* columns rows colors chars-per-pixel */
"64 64 216 2 ",
"   c #0F0801",
".  c #150B04",
"X  c #1D0F04",
"o  c #1C1109",
"O  c #1D131E",
"+  c #200F04",
"@  c #241205",
"#  c #2C1506",
"$  c #23140A",
"%  c #2A180B",
"&  c #2E190B",
"*  c #321807",
"=  c #321907",
"-  c #331A0A",
";  c #3B1E0A",
":  c #231415",
">  c #2B1B12",
",  c #22151D",
"<  c #281818",
"1  c #2C1A1C",
"2  c #321E11",
"3  c #3A1F17",
"4  c #341E1B",
"5  c #391F1A",
"6  c #3C210E",
"7  c #342216",
"8  c #3C2212",
"9  c #372418",
"0  c #3A231A",
"q  c #3D291A",
"w  c #1F1520",
"e  c #201622",
"r  c #231925",
"t  c #2B1D23",
"y  c #261D29",
"u  c #281F2B",
"i  c #331F20",
"p  c #2E2024",
"a  c #2B212D",
"s  c #342223",
"d  c #382629",
"f  c #2D2532",
"g  c #2F2835",
"h  c #332A36",
"j  c #342A35",
"k  c #382E36",
"l  c #332C3A",
"z  c #3E3135",
"x  c #36303D",
"c  c #3B323C",
"v  c #411F0A",
"b  c #44220B",
"n  c #4B250C",
"m  c #4E280E",
"M  c #50270D",
"N  c #542A0E",
"B  c #5C2D0F",
"V  c #5F300F",
"C  c #442512",
"Z  c #492615",
"A  c #4E2A12",
"S  c #482A15",
"D  c #412319",
"F  c #412A1C",
"G  c #542C14",
"H  c #5C2E12",
"J  c #512B1B",
"K  c #5C3214",
"L  c #5C3418",
"P  c #62300F",
"I  c #602F11",
"U  c #643211",
"Y  c #6D3512",
"T  c #6C3816",
"R  c #623519",
"E  c #66391A",
"W  c #6B3C1C",
"Q  c #703713",
"!  c #743A15",
"~  c #793D17",
"^  c #733E1C",
"/  c #7A3E18",
"(  c #452921",
")  c #462B25",
"_  c #522F21",
"`  c #5C3623",
"'  c #40353B",
"]  c #6F421D",
"[  c #74411E",
"{  c #7D411A",
"}  c #7C4521",
"|  c #7A4524",
" . c #3C3544",
".. c #3C3644",
"X. c #3E3949",
"o. c #403742",
"O. c #423A45",
"+. c #433B4A",
"@. c #4A4146",
"#. c #4B424C",
"$. c #52484D",
"%. c #464153",
"&. c #4B4555",
"*. c #4C4759",
"=. c #4E4A5C",
"-. c #564E55",
";. c #544D5C",
":. c #5C5155",
">. c #56525F",
",. c #5B525A",
"<. c #60575C",
"1. c #63595D",
"2. c #524E60",
"3. c #565263",
"4. c #5A5464",
"5. c #5D5966",
"6. c #5D576A",
"7. c #615A63",
"8. c #635D6B",
"9. c #705F63",
"0. c #645E71",
"q. c #696366",
"w. c #6D656C",
"e. c #726768",
"r. c #6B6775",
"t. c #6C6574",
"y. c #6D6679",
"u. c #6F687A",
"i. c #746D72",
"p. c #786F70",
"a. c #736C7D",
"s. c #6F717B",
"d. c #7A7275",
"f. c #79747B",
"g. c #7B737D",
"h. c #83451C",
"j. c #88471E",
"k. c #87481F",
"l. c #89491F",
"z. c #834823",
"x. c #854A23",
"c. c #8C4C22",
"v. c #914E23",
"b. c #8D5025",
"n. c #945125",
"m. c #995427",
"M. c #965428",
"N. c #9D5629",
"B. c #995928",
"V. c #9E592A",
"C. c #A25C2A",
"Z. c #9E602B",
"A. c #A6612C",
"S. c #AA652D",
"D. c #AE692E",
"F. c #B16C2F",
"G. c #A86730",
"H. c #AD6930",
"J. c #B46E31",
"K. c #B67032",
"L. c #847477",
"P. c #857D7F",
"I. c #8B877D",
"U. c #766F80",
"Y. c #7A7C84",
"T. c #837C81",
"R. c #8A7B83",
"E. c #8B8384",
"W. c #888287",
"Q. c #8E8A8C",
"!. c #928485",
"~. c #918986",
"^. c #938B8A",
"/. c #9B8A8B",
"(. c #98948D",
"). c #8A8991",
"_. c #8E9299",
"`. c #9A9392",
"'. c #999998",
"]. c #A79393",
"[. c #A69997",
"{. c #A8A39A",
"}. c #B6A29C",
"|. c #B9AA9A",
" X c #979BA2",
".X c #9AA0A4",
"XX c #9FA8AE",
"oX c #A3A6A5",
"OX c #A2AAAE",
"+X c #ABACAC",
"@X c #B7AAA3",
"#X c #B8B3A8",
"$X c #A4ADB3",
"%X c #B3AFB3",
"&X c #AAB4B7",
"*X c #B4BBB8",
"=X c #C2B29E",
"-X c #C5B8AA",
";X c #C4BEB9",
":X c #BCC2BA",
">X c #CBC1A9",
",X c #C7C7B7",
"<X c #D3CBB2",
"1X c #D8D6BB",
"2X c #C8CCC8",
"3X c #CFD1CC",
"4X c #D9D8C8",
"5X c #D7D7D6",
"6X c #E1DBD1",
"7X c #DDE0D5",
"8X c #E3E4C6",
"9X c #E3E3CD",
"0X c #E7E6D9",
"qX c #EFF0DD",
"wX c #EFEFEF",
"eX c #F3F3EA",
/* pixels */
"N.N.m.j.! Y Y Y Y Y Q Q ~ ~ ! ! Q Q Q Q Q Y N H U P P Y Y Q ! ~ { l.c.c.c.c.c.c.l.c.l.j.j.h./ ! Q Y Y Y Q Y Y Y Y Y Q Y Y A I ~ ",
"S.C.N.m.c.~ Q Y Y ~ h.v.v.v.v.v.c.v.z./ Q U Z H Q Q Y Y Y Y Y Y Y Q Y Q Y Q Y Y Y Q Q Q Y Q Q Y Q Q Y Y Y Y Y Y Y Y U M ; * Y v.",
"J.S.C.N.N.v.h.{ c.v.N.N.N.N.C.C.C.C.m.v.j.T ; M Y Y Y Y Q Y H O O H Y Y Y Y Y Y Y Y Y Y Y Y Q Y Y Y Y Y Y Y Y Y U B - + * R v.N.",
"K.H.C.N.N.N.N.m.m.N.C.m.C.C.S.F.D.C.N.m.v.^ ; M Y Y U V P G f 5.q.d J Q Y Y Y Y Y Y Y Y Y Y Y Y Y Q Y Y Y Y Y I v @ # H { M.N.N.",
"K.F.C.N.C.N.N.N.N.C.C.C.C.J.J.J.J.C.C.C.M.W ; G P n < : , ' w. XR.c t 1 1 D Y Y Y Y Y Q Q Q Y Y Y Y Y U U U M - $ - C W v.m.C.V.",
"K.J.C.N.N.m.N.N.N.C.C.F.J.K.K.F.D.C.C.m.v.L ; C < 2 h O.+.1.Q.$XR.o.o.o.' d 3 3 U Y U U V N M n n v ; # # # % Z W } W G G | B.C.",
"J.F.S.N.N.N.N.N.C.S.J.K.K.K.K.K.S.C.N.N.z.C $ 4 f ..8.a.R.P.^.:XR.o.7.t.1.$.f a 1 ; - * @ @ @ # * ; v G K E | c.m.m.n.} E A L b.",
"K.S.C.C.N.N.N.C.S.J.K.K.K.K.K.F.C.C.N.N.[ 2 < g 3.Y.$X XE.P.`.9XE.+.9.T.t.,.=.+.t < v v n M N B P ! / x.c.M.m.N.N.N.V.m.n.| A W ",
"J.A.N.N.N.N.N.N.S.J.J.J.J.K.K.J.C.N.C.m.W : f 3.U.OX3X2X XR.{.wX^.4.i.P.L.y.,.=.l r 5 U U Y Y U Q ! { h.l.v.v.l.x.v.n.m.m.x.C [ ",
"J.C.N.N.N.N.N.N.C.H.J.J.K.J.J.S.C.N.N.n.R : k a.T.OXwX3X&X+X-XeXQ.4.i.P.U.U.i.:.+.y 2 M U Y Y Y Y Q Y ! ~ ~ ~ ! ! ! h.v.h.C C B.",
"D.C.N.N.N.N.N.N.C.C.S.J.J.J.J.C.C.N.N.v.4 g 2.W.OX$XwXqX2X+X=X6XE.4.i.T.Y.a.i.:.*.l r < ; n H U P P V N B Y Q Y Y Q Q R 6 o 7 Z.",
"A.N.N.N.n.c.c.N.N.N.C.D.J.J.H.C.N.N.N.x.< l 6.W.&X3XeXqX;X[.@X*XE.1.d.P.L.a.y.:.=.X.u 4 C ; ; ; ; ; = * = n P Q Q U N - & $ o b.",
"C.N.N.j./ ! h.n.N.N.N.C.C.A.C.C.N.N.N.} < l 6.W.&X8XwX5X=X].`.$XW.1.d.P.P.a.a.:.;.+.f d z.^ E L N G K N b # ; N V m % % q 9 > ] ",
"N.N.j.! Q Y / n.N.N.N.N.C.N.N.N.n.n.c.R , a ;.T. X,XqX,X].~.W. XI.e.d.T.g.y.8.-.&. .u ) A.A.V.M.b.b.b.k.[ m - ; b & o 9 q q > 6 ",
"v.j.! Q Y Y ~ n.N.N.N.N.N.N.n.c.h.{ R C O r +.a.R. X;X|.~.P.P.W.P.Y.L.U.y.8.:.*.X.l r ) J.J.J.H.S.S.A.C.M.x.] G 6 $ 9 q F q q o ",
"h.! Y Q Y Y ! v.N.N.N.N.n.c.h.~ Y B ; % t a +.a.8.0.R.L.p.i.p.i.p.w.0.0.4.$.+. . .l a ) Z.J.J.J.K.K.F.S.A.B.n.[ A & q F F q q o ",
"! Y Y Y Y Y Q h.n.N.m.v.j./ ! Y N = $ O &.;.+.8.O , w , e e w w w w w w , e w w f f 4.+.i J.J.J.K.K.F.F.C.C.C.n.^ D 7 F F F 9 $ ",
"Y Y T Y Y Y Y ! h.v.j./ ! Q P N & X > , -.:.e f &.!.'.*X3X0X7X<X<X<X+X.X'./.R.&.r e :.:.i J.K.J.K.K.K.F.C.N.C.N.v.G > 0 q q > - ",
"Y Y Y Y Y Y Q Y ! / ! Q Y B n # X o : O a #.1.$.d.E.Q.(.%X3X4X'.'.(.^.).^.R.T.i.$.1.+.f i K.J.J.K.K.F.S.C.N.C.m.m.| Z 2 9 9 - G ",
"Y Y Y Y Y Y Y Y Y Y Y P M ; # @ % - 6 < r X.q.w.P.P.P.W.'.:X1XT.I.I.I.P.R.T.a.W.w.8.+.r i H.J.J.D.S.A.A.N.N.m.C.N.v.R > - 7 m Y ",
"Y Y Y Y Y Y Y Y Y P N b - - Z J L [ | p r l 4.a.P.~.`.{.:X7X0X|._.'.'.'.`.!.R.R.U.4...e 4 C.C.C.C.C.C.C.m.C.m.m.M.M.{ 6 % m U ! ",
"Y Y Y Y Y Y Y Y K n ; ; J ^ x.N.Z.A.S.` , f *.U.W.R.Y.(.oX%X+X(.Y.Y.Y.Y.g.L.R.R.U.&.a , _ m.m.N.N.N.m.m.m.n.v.j.{ h.{ H # B Y Y ",
"Y Y Y Y Y Y Y B n b G | v.m.C.S.K.K.K.J.` , h u.I.5.x w , O O O O O w w w h 4.T.y.l w J z.z.c.v.n.n.m.n.v.j.{ ! Y ! ! B * N Y Y ",
"Y Y Y Y Y Y B v A ^ c.N.N.N.C.H.K.K.K.H.H.` f =.u.g.8.x p a a r y y y y  .8.P.y.2.a D U Y ! ! ~ { h.j.h.~ ! Q Y Y P B n * N Y Y ",
"Y Y Y Y U B ; n [ M.N.N.V.V.C.H.J.K.J.d w w w w l d..X$X:X,XXXXXXXXXOXXXOX Xy.l r O O O 1 Y Y Y Q Q Q Q Q Y Y P B n ; * b P Q Q ",
"Y Y I H N = # R n.N.N.N.V.N.C.H.G.t 1 i.U.;...O w ..u.W..X&XOXQ.Q.Q.Q.Q.W.r. .w w r.a.8.*., < U Y Y Y Y Y U N n ; = * ; P Y Y Y ",
"Y U v - @ . 6 [ v.m.N.N.N.N.C.M.s X.=.oX[.f.w.&.O w ..;.a.).W.s.s.f.a.r.;. .w O &.^.#X'.i.*.h 1 P Y Y U B n - - b N N 6 B Y Y Y ",
"I ; X . . X - U / l.n.N.N.N.N.| r 6.R.4X,X).T.w.O y y g X.*.*.&.*.*.*.O.f y y O t.].4X;XP.a.4.r B Y P M ; * n B Y Y Y n v B Y Y ",
"- > > o $ C = b U Q { c.m.m.c._ x a.].5X5X*X).i.O q.$.f w a a a y y a u a #.>.O i.'.4X;XP.T.a.a 3 3 v * v N Y Y Y ! { W # # b B ",
"2 0 > o b U ; = N Y Q ! { v.` u ;.a./.;X6X5XOX5.O <X#Xq.c x k k k k k c 1.`._.w 6..X,X@XP.T.0.l e O ; N P Y Y Y ! h.n.c.; . . + ",
"q > $ n Y Q B # v U Y Y Q ! J y =.y.Y./.[.=X#X%.w ,XeX3XoX~.~.~.E.E.!.'.#X{.d.O %.#X#X/.L.i.*.h e O I U Y Q Q ! h.n.C.c.m v b * ",
"> $ N Y ! Q P b = N U Q Y Y Z e g =.y.L.R.E.d.%.w .X#X0XeX8X1X=X}.|.1X<X{.I.d.O &.i.R.r.=.*.o.f e O Y Y Y Y ! l.m.N.m.m.R b U U ",
"= P Y Q ! ! Q B * ; I Y Y Y Z w e y *.2.3.3.;..., g.~.[.=X4XeX1X~.].}.].E.P.d., o.;.2.=.+. .e e , O Y Y Q ! j.m.C.C.N.m.} ; I Q ",
"P Y ! h.v.v.~ Y n # b U Y Y Z d <.e u f f f u f q.P.P.E.^.{.3X4XE.~.!.E.P.P.L.4.f u f u y y e  .y O { { h.l.m.C.D.S.C.N.c.C n Y ",
"~ h.m.A.C.C.l.~ P ; * n U Q Z +.;X;...y O O h ;.P.P.P.P.P.E.[.<XP.P.P.P.I.T.a.6.f u e e y +.9.t.f O m.m.m.m.C.S.F.D.C.C.v.A ; Q ",
"n.m.S.F.F.S.m.h.! N * - N U Z #.0X;...y , t ..a.P.P.I.P.T.E.~.}.g.T.P.P.T.T.a.*.l u e , y X.9.P.h O N.C.N.N.C.F.F.S.V.m.v.A ; x.",
"N.V.S.K.K.F.C.v.h.Q m # # b Z c (.h k y D D h u.P.T.T.I.I.P.E./.U.P.T.T.g.a.0.*.h r 0 0 a k g ,.a , N.N.C.N.S.J.J.C.N.N.n.C $ x.",
"N.N.S.F.J.J.C.C.n.h.Q v X X 2 w u ;.g.c 4 4 a *.r.L.P.T.P.P.P.P.u.P.P.g.a.r.=.*.h w 4 0 c g.=.f , O C.C.C.C.F.J.J.C.N.N.x.8 X E ",
"n.m.A.F.J.J.C.C.N.m.c.T %   $ u ;.a.a...O O r h *.y.a.U.E.P.P.T.U.Y.T.g.U.r.%.g g r O , c a.u.3.u O H.J.J.J.J.J.S.V.N.N.| = = 8 ",
"{ n.N.A.S.S.C.N.N.N.m.} ; X : y 5.3X}.L...O e r h =.y.a.g.P.P.T.U.L.a.U.0.%.g g w O O ..T.}.T.;.u O J.J.J.J.K.F.A.N.N.M.E # b # ",
"Q { m.C.C.C.C.m.V.N.N.x.Z 8 4 h P.8X].(.d.O.a X.e l *.t.a.a.a.a.3.u.U.t.&.l f r X.a +.g.[.+XI.d.h O K.K.K.K.J.F.C.N.N.v.A - G X ",
"Y ! c.N.m.m.N.V.m.N.N.z.S A _ f q.{.#Xd.#.h h 8.,.u f  .;.6.0.u.=.6.6.+.g r u ,.8.h h +.f.,XP.q.f e K.K.K.J.J.C.N.N.N.x.- b P @ ",
"Y Y j.m.N.N.N.N.N.N.M.| b L ` a ,.e.{.i.k , ' T./.:.-.l f l  .+. .....a k $.:./.P.' , k i.{.w.,.u O K.K.K.J.H.C.N.N.M.R @ B Y v ",
"Y Y j.m.N.N.C.N.N.N.v.K S [ [ d X.:.d.i.$.a ' R.}./.I.-.f w r r w w w f ,.I.^.}.R.' a $.i.d.:.O.d ( K.K.K.F.C.N.m.m.x.C * P Y M ",
"Y Q j.N.m.m.v.v.c.l.[ b G x.N.c.t @.4.&.#.c O.~.>X}.~.g.%.w u f y y r %.g.~.}.>X!.O.c #.&.4.@.p B.K.K.K.J.S.N.m.x.T G = N Y Y N ",
"Y ! c.v.c.{ { ~ ! ! m = R n.N.m.m., , O , h 5./.8X&XQ.g.+.O w e w w O +.g.Q.*X8X(.5.h O O , , S.K.K.K.K.D.C.m./ m = # n Y Y Y B ",
"Y ! ~ / ! Q Q Q Y B # & R c.n.m.B.N.C.A.( y *.*X8X(.T.8...O $ o < 7 , ..8.R.^.8X*X;.r ( C.S.H.J.J.J.K.J.C.C.v.T # - n B Y Y Y B ",
"Y Q Q Y Q Y Y Q Y ; @ b Y / { k.l.v.n.B.F O a c z h f a s C - > q 7 = s a a h c k y w ( C.C.S.D.J.J.J.G.C.N.v.N @ b P Y Y Y Y N ",
"Y Y Y Y Y Y Y Y M @ * B Y Q Q Q ~ { { x.0 r O.Y.>.f e O ( x.W 2 0 7 $ < O e f ;.7.c r ( N.N.C.A.D.F.D.C.N.m.l.N @ b Y Y Y U N ; ",
"Y Y Y Y Y Y Y N = @ n U Y Y Y Y Y Q ! ! 0 k d.:Xg.%.y 5 } m.c.Z > 7 o % 1 y &._.@Xi.h ( N.N.m.V.C.S.C.C.C.n.{ N # ; Y Q U P ; ; ",
"Y T Y T Q Y P - @ ; P Y Q Y Y Q Y Y Y Q 5 l q.I.:.+.y _ c.v.n.} 8 > o - D y %.s.~.5.h i c.x.c.c.n.n.m.m.m.l.! B * * P Y Y n ; B ",
"Y Y Y Y Y Q n @ = N Y Y Y Y Q Y Y Y Y H d l O.c k f r 5 T ~ x.M.W & . 8 4 w f %.c z h d I ~ ~ { { { h.j.l.{ ! U ; @ N Q P - K ~ ",
"Y Y Y Y Y U = # m P Q T Y Y Y Y Y T U a X.s._.d.T.k w w 0 Y / m.b.G o < O w x &XP.d.q...1 Y Y Y Y Y Q ! ! ! Q Y n @ ; U m ; } h.",
"Y Y Y Y Q K @ ; P Y Y Y Y Y Y Q T Y , X.0.;.g ..P.a.h O 5 Y ! h.B.| % < w h T.8X@.g 5.-.1 Y Y Y Y Y Q Y Y Y Q Y P # # N ; A n.h.",
"Y Y Y Q P 6 X n Y Y Y Y Y Y Y T Y T , ;.*.Y.5X_.x y.;.g 5 Y Y / c.c.b : f ;.y.O.2X(.-.X..., Y Y Y Y Y Q Y Y Y Y P n # n # K n.h.",
"Y Y Y U m # # ; V Y Y Y Y Y Y Q Y T , l ,.[.4XOXe.4.X.y 5 Y Y Y { l.R , u ..+.w.4X*XW.-.g e Y Y Y Y Y Q Q Y Y Q Y B = % # P h.~ ",
"Y Y Y B @ @ ; @ b P Y Y Y Y Y Y Y Y , l 8.W.[.).8.+.h r 3 Y Q Y Y ~ U % < a l 8.[.'.W.8.x , Y Y Y T Y Y Y Y Y Y ! U n . # U Q Q ",
"Y Q U ; + @ = @ # n Y Y Y Y Y Y Y Y D h +.8.g.8.+.a r t G Y Y Y Y P ; # 8 1 y X.8.g.7.+.h 0 Y Y Y Y Y T Y Q Y Y Y Y B # # P Q Y ",
"Y Q N @ ; v @ @ @ # M P Y Y Y Y Y Y Y D u o.;.+.u 1 1 G Y Y Y P N ; @ @ # 3 1 a +.;...r q Y Y Y Y Y Y Y Y Y Y Y Y Y Y n @ B Y Y ",
"U P = + b B b + . @ # 6 N P P Y Y Y Y Y Z r a y e I U Y P V N ; X . # n # X - , a a r q Y Y Y Y Y T Y Y Y Y Y Y Y Y Y B # v P Y ",
"P n = @ @ = n ; X X - = * = n N B P V V P D e , B B n v ; = @ + # n V Y N ; @ # , O S Y Y Q Y Y Y Y Y Y Y Y Y Q Y Y Y B @ * * v ",
"N b B P M = @ # @ . 6 V N b * @ + @ # * ; - * # + + + @ @ & G R Q ! ~ { / K = @ o & n N B P U Y Y Y Y Y Y Y U Y Y Y P M + * + . ",
"x.! Y Y Y Y P M 6 @ * N P Y P N n ; * * * # # # ; n N N n ; [ n.n.n.n.b.[ S A ] K S 6 2 = ; n m B B B B B N M M M m ; + + ; n ; ",
"C.l.! Y Y Q Q Y Y N * # b B P P U U B M ; # $ # - b M n - $ - ^ b.b.| L 6 G x.V.A.B.b.b.W b $ $ X @ @ # $ # % # * - v M ; # # @ "
};
