/* XPM */
static char *player_left_11738833610[] = {
/* columns rows colors chars-per-pixel */
"64 64 212 2 ",
"   c #0F0801",
".  c #140B03",
"X  c #1D0E04",
"o  c #1D1108",
"O  c #1E131E",
"+  c #200F04",
"@  c #241205",
"#  c #2C1606",
"$  c #24150A",
"%  c #2B160A",
"&  c #2A180B",
"*  c #2E190A",
"=  c #301707",
"-  c #321907",
";  c #381B07",
":  c #341A09",
">  c #3B1E0A",
",  c #271614",
"<  c #2C1C12",
"1  c #23161C",
"2  c #2C1A1C",
"3  c #311D12",
"4  c #3B1E15",
"5  c #331D1B",
"6  c #3C210E",
"7  c #332216",
"8  c #3C2212",
"9  c #372418",
"0  c #3B2319",
"q  c #3E291B",
"w  c #1F1520",
"e  c #201722",
"r  c #241A25",
"t  c #2C1E26",
"y  c #261D29",
"u  c #281F2B",
"i  c #321E20",
"p  c #2B212C",
"a  c #342122",
"s  c #33262D",
"d  c #2D2532",
"f  c #332A35",
"g  c #372B35",
"h  c #392E36",
"j  c #352D3C",
"k  c #38313B",
"l  c #3B333C",
"z  c #411F0A",
"x  c #44220B",
"c  c #4B250C",
"v  c #4E280E",
"b  c #50270D",
"n  c #542A0E",
"m  c #5C2D0F",
"M  c #5F300F",
"N  c #442512",
"B  c #4B2713",
"V  c #4D2A12",
"C  c #482917",
"Z  c #462518",
"A  c #412A1C",
"S  c #532C14",
"D  c #5B2E11",
"F  c #522A18",
"G  c #573316",
"H  c #5C3214",
"J  c #5E3419",
"K  c #62300F",
"L  c #612F10",
"P  c #653211",
"I  c #6D3612",
"U  c #663718",
"Y  c #66391B",
"T  c #6B3B1B",
"R  c #703713",
"E  c #743A15",
"W  c #793D17",
"Q  c #733E1C",
"!  c #7A3E18",
"~  c #452A24",
"^  c #563425",
"/  c #50362F",
"(  c #42373B",
")  c #713F25",
"_  c #6F431D",
"`  c #74411E",
"'  c #7D411B",
"]  c #744125",
"[  c #774725",
"{  c #7C4521",
"}  c #3B3443",
"|  c #3D3748",
" . c #3E3849",
".. c #443B43",
"X. c #483C47",
"o. c #433C4C",
"O. c #433F50",
"+. c #4E4345",
"@. c #4C434B",
"#. c #53474C",
"$. c #57504F",
"%. c #4B4453",
"&. c #494557",
"*. c #4E4A5B",
"=. c #534A52",
"-. c #534C5B",
";. c #5C5253",
":. c #52505E",
">. c #5C545D",
",. c #62575B",
"<. c #655A5A",
"1. c #534F61",
"2. c #5A5364",
"3. c #5D5867",
"4. c #5D5769",
"5. c #635B62",
"6. c #685D66",
"7. c #635C6B",
"8. c #655F71",
"9. c #6B6165",
"0. c #67666C",
"q. c #6B626D",
"w. c #736867",
"e. c #766B6C",
"r. c #7B6D6B",
"t. c #77716C",
"y. c #7E716A",
"u. c #6C6573",
"i. c #6E6877",
"p. c #746C75",
"a. c #736C7C",
"s. c #7A6E78",
"d. c #7D7373",
"f. c #76707C",
"g. c #7D777B",
"h. c #7D757E",
"j. c #83451C",
"k. c #88471E",
"l. c #87481F",
"z. c #89491F",
"x. c #814923",
"c. c #844A24",
"v. c #8C4B22",
"b. c #914E23",
"n. c #8D5125",
"m. c #945125",
"M. c #995427",
"N. c #965328",
"B. c #9D5629",
"V. c #965A2A",
"C. c #9E5929",
"Z. c #A25C2A",
"A. c #9D602E",
"S. c #A6612C",
"D. c #AA652D",
"F. c #AE692F",
"G. c #B16C2F",
"H. c #AF6A30",
"J. c #B46E31",
"K. c #B67032",
"L. c #83756E",
"P. c #857974",
"I. c #857977",
"U. c #857D7F",
"Y. c #917F7C",
"T. c #89837D",
"R. c #91847E",
"E. c #797583",
"W. c #867D82",
"Q. c #877D87",
"!. c #8B8384",
"~. c #8E878C",
"^. c #918586",
"/. c #938B85",
"(. c #968789",
"). c #948B89",
"_. c #9A8B8B",
"`. c #9B908A",
"'. c #8A8B94",
"]. c #958D92",
"[. c #9D9592",
"{. c #999898",
"}. c #A3928E",
"|. c #A29593",
" X c #A89B98",
".X c #B19B98",
"XX c #AAA49A",
"oX c #B5A599",
"OX c #999EA2",
"+X c #AB9FA1",
"@X c #A8A7A5",
"#X c #BAA8A1",
"$X c #B8B4A7",
"%X c #ADB3B3",
"&X c #A9B2B5",
"*X c #C3B49F",
"=X c #C5B9A4",
"-X c #C7BBA7",
";X c #C7B6B4",
":X c #BDC2BB",
">X c #C7C6B6",
",X c #CDC8B2",
"<X c #D2C9B6",
"1X c #BBC3C3",
"2X c #CBCCCA",
"3X c #DADAC4",
"4X c #E3E3C5",
"5X c #E6E6CC",
"6X c #EBEBD7",
"7X c #E7E8E8",
"8X c #F4F4E8",
"9X c #FCFBF9",
/* pixels */
"B.B.M.k.R R I I I I I R W W R E I R R R R P D D P L L I I R R W j.z.v.v.k.v.k.v.k.v.k.k.k.j.W W R I I I I I I I I I R I P n L W ",
"D.Z.B.M.v.W R I R E k.b.b.b.b.b.v.v.v.! R P c D R I I I I I I R I I I R R R R R I R R R R R I I I I I I I I I I I I P b z = U b.",
"J.D.Z.B.M.b.c.' v.b.B.B.B.Z.Z.Z.Z.Z.M.b.v.U z n I I I I R I I I I R I R I I I I I I I I I I I I I I I I I I I R I n ; + = U b.Z.",
"K.H.Z.B.Z.B.M.N.M.B.B.B.B.Z.D.J.J.Z.Z.M.b.T > b I I P L N 1 1 2 1 1 1 1 Z I I I I I I I I I I I I I I I I I I L z + % D ! b.Z.M.",
"K.G.Z.B.Z.M.B.B.B.Z.Z.Z.Z.G.K.K.J.Z.Z.M.N.T > n L c > % <./.I.P.I.r.r.9.X.4 R I I I I I I R I I I I I P P L S - $ : x T m.B.C.B.",
"J.J.Z.B.M.B.B.B.B.Z.Z.H.K.K.J.J.J.Z.M.Z.n.J > c z 3 5 q.|.XXR._._.(.(._.r...5 4 P I I P L n b b c z > % # % % B T { T S F { C.Z.",
"K.G.D.Z.Z.M.M.B.Z.Z.J.K.K.K.K.J.D.Z.B.B.c.N $ N F d ;.@XXX9.5.Q.~.'.).}.Q.>.d p 5 > ; # # @ @ @ = ; z n H Y ] v.M.B.m.x.Y V J n.",
"K.D.Z.B.M.Z.Z.Z.D.K.K.K.K.K.K.J.Z.Z.B.B.] : % F u =.$X[.7.>.g.;X<X%X;X.XI.>.*.o.u < > x c c v m I R { c.b.M.M.B.B.B.B.V.N.{ V Y ",
"J.S.B.B.B.B.B.B.D.K.K.K.J.K.K.H.Z.Z.B.N.T % , r #.W..X(.8.I.<X9X9X5X4X-X~.i.;.-.o.y 4 P I P I I R E ' j.z.m.m.k.c.v.m.B.B.x.B _ ",
"J.Z.B.B.B.B.B.B.Z.H.J.K.K.J.J.D.Z.B.B.N.U $ < t L.oXQ.6.R.<X9X4X-X=X*X_.I.r.i.,.*.u < n L I I I I I R R E W E E E E j.b.{ N N V.",
"H.Z.B.B.B.B.B.B.Z.Z.Z.K.J.K.H.S.B.B.C.v.F , y @.I..Xw.6.).,X5X-X.X.X(.W.I.r.a.;.*.| p 2 6 c m P K K m n M P R I I I I P 6 o 7 A.",
"S.B.B.B.m.v.b.M.Z.B.Z.G.J.J.D.Z.Z.B.B.c.N , f u.U. Xw.7.^.=X=X.X(.(.Q.R.I.r.i.;.-.o.p 5 x 6 > 6 6 ; ; = ; b K R I I n : < $ X n.",
"Z.B.M.v.! E j.m.B.B.B.Z.S.D.Z.B.M.Z.B.' 3 u @.d.U.R.e.s.W.|.oX(.Y.W.W.I.d.p.a.;.*.o.d y ^ ) Y G n G D S x = > b M v & & 9 9 & _ ",
"B.B.j.E R I ! m.B.B.B.B.B.B.B.B.M.m.v.U 1 h 7.L.U.L.a.a.h.W.^.h.h.I.I.d.s.a.6.;.*.o.} y i Z.C.N.n.n.v.l.` n : > x * o 9 A A 7 6 ",
"b.k.E R I I W b.B.B.B.B.B.B.M.v.j.' U 8 1 j >.<.9.9.5.2.2.2.2.2.2.6.e.s.p.6.;.;.*.o.} r a J.J.H.D.D.S.Z.N.c._ S 6 $ 7 q A q 7 $ ",
"k.R R I I I E b.B.B.B.B.M.v.j.W I n 6 % 1 t l ( l l h g f f f f s o.3.u.7.;.;.*.*.o.j r a J.J.J.K.J.G.F.Z.V.N.` V * q A A q q o ",
"R R I I I I R j.m.M.M.b.j.! E I b = $ 7 1 w.6X9X9X5X5X,X*X$X&X&X.Xh  .-.;.$.*.*.| | j y i K.K.K.K.K.K.G.Z.Z.Z.m.W 4 7 q A A 7 $ ",
"R I I I I I I E k.v.k.j.E R K n * X , 1 $.g.'.1X5X`././.!.!.!.!.L.(.+.} *.%.O r e p } f i K.K.K.K.K.K.F.Z.M.Z.M.b.S < 9 A q < : ",
"I I I I I I I I E W E R I K c = o o $ 1 &.f.'.%X4X/.U.T.T.T.U.U.s.I.>.h d ..`.oXp.*.} u i K.K.K.K.G.G.D.Z.Z.Z.B.B.[ N 3 9 7 : S ",
"I I I I I I I I R I I m b ; # @ & : 8 1 <.XX:X7X8X>XoXOXOXOX{.W.h.L.q.q.y.y.I.I.w.9.X.t { D.D.H.F.F.S.Z.M.Z.M.B.B.m.Y < 3 8 V I ",
"I I I I R I I I I K n x : : B F J _ [ i +.y.!.].].T.t.w.0.0.q.=.q.r.p.W._.^.#.5.#.w.( ~ Z.Z.Z.Z.S.Z.Z.B.B.B.B.M.m.N.' 6 & v P R ",
"I I I I I I I I M c > 6 F Q v.M.A.S.D.a O w O O O O O O w O e f 3.e.p.h.W.u.O.q.O.6...Z m.N.B.B.B.B.B.B.B.M.b.k.' j.j.D = n I R ",
"I I I I I I P m c x G ] v.B.Z.D.J.K.K.a r d l l ..l k k k k j 2.U.w.q.7.7.4.1.O.1.7...Z v.k.v.v.m.m.M.m.v.k.j.R I R R M = b I I ",
"I I I I I R m z B ` v.B.B.C.Z.G.J.K.K.a l f.%X=X4X=X%X&X&XOXU.W.i.1.} y e f a.I.u.j Z R R R E E ' j.j.j.W E I I I K m c = m I I ",
"I I I I I m > x ] N.B.B.B.B.Z.D.K.K.J.9 k 4.E.^.=X%X].!.Q.W.U.a.1.} r } | p r r r F I I I I I I I I I I I R I K m c ; - c K R R ",
"I I L D n : # U m.B.B.B.B.B.Z.D.J.K.K.A.h | 7.E.W.E.E.E.a.E.i.1.j r &.O.d w O O O B I I I I I I I I I I I K n x ; ; - ; K I R I ",
"I L c = @   6 ` m.M.B.B.Z.B.Z.Z.F.H.K.J.V./ j @.o.o.o.o.o.o.o.} r } o.j f o.1.*.o.t B R I R I I I I I I m c ; ; x n m x m I I I ",
"L > o . . X : P ' k.m.M.M.Z.Z.Z.Z.S.S.F.K.V.^ / y y r r y r e r O d p d -.'.@X}.W.%.t B I I I I I I P b ; ; c m P R P c 6 K K I ",
": , < o $ B = x K R j.z.M.M.Z.M.B.B.Z.Z.D.G.C.^ f ..u e 1 O O O O w d 1.'.2X6X$X|.W.o.r B I I I I m z ; x m I I I I j.T # # x m ",
"7 0 < o x P > - n I I E j.v.b.M.B.B.B.B.B.Z.) y 2.W.-.} g j f f k w o.E.%X4X7X@X!._.>.p 1 n P m c ; ; c K I I P E j.m.c.6 . . X ",
"q < @ x I I m # x K I I R R ! k.n.m.M.Z.B.B.) u E.+XQ.I.!.~.Q.E.W.s -.W.). X@XE.E.p.2.j 1 > > : > c K I I I I W k.m.B.m.v z x = ",
"< $ n I I I I x # n I I I I R R E j.z.m.M.B.) s W.7X+XE.@X6X7X.X.Xh -.E.W.W.W.!.E.2.} y 2 D S D L I I I I I E k.M.M.B.m.U x K I ",
"- K I I E W R m = > K I I I I I I I R W j.b.T p L.3X[.{.@X#X+X!.!.f o.8.a.a.a.2.1.} p w 1 U I I I I I I I E k.B.Z.Z.B.m.j.> L I ",
"K R R k.z.v.W I c # x K I I I I I I I I I ` J p L.=X].|.|.^.^.T.U.7.} f h j f p d y j d 2 I I E E ! ' j.j.v.m.Z.H.Z.Z.B.v.N v I ",
"' ' m.S.D.Z.z.W K > = b I I I I I I R I I I F p y..X^.^.^.W.U.U.U.a.=.( j r w y #.;.6.@.2 ! k.v.b.M.M.M.m.M.Z.D.G.G.Z.B.m.B > I ",
"m.V.F.G.G.D.M.j.R m = = b I I R I I I I I I F p L./.W.U.U.W.W.W.h.a.5.-.| u r } [.~.W.=.2 k.m.B.Z.M.Z.B.Z.Z.Z.J.K.D.Z.B.m.B ; v.",
"M.Z.D.G.K.G.Z.M.k.I c # % x L R R I I R R I F t r.U.a.g.T.W.U.W.a.8.5.-.o.p r 4.,X`.s.X.r N.B.B.M.Z.Z.B.B.Z.Z.K.J.Z.B.B.v.N $ c.",
"Z.M.D.G.K.G.Z.M.m.j.I x X @ c L I I I I I P Z d u.I.f.E.U.U.U.I.a.,.-.&.| p r 7.`.T.9.( 5 B.B.B.M.Z.Z.Z.Z.Z.H.J.F.Z.B.B.c.8 X T ",
"b.M.S.G.J.J.S.B.B.M.v.U %   # v I I I I I Z O t *.h.f.W.U.U.W.a.a.,.*.| d y w r r >.4.} i M.B.A.Z.D.J.H.H.G.K.K.D.B.B.B.{ : * 6 ",
"k.b.Z.S.F.D.Z.B.B.B.M.j.: X @ % v I I I P Z f 4.r u.a.h.W.U.E.a.,.-.| d u j i.|..XX.| } i Z.S.J.J.K.K.K.K.K.K.G.S.B.B.N.T % x @ ",
"I ' b.Z.Z.Z.B.B.B.B.B.x.N 6 S > # c K R R N k e.O *.i.E.a.a.p.>.-.} d u f <._.!.<X!.+.w a D.J.K.K.K.K.K.K.J.J.F.Z.B.B.m.B : D X ",
"I R v.B.Z.B.B.M.Z.M.B.x.N S ) Y > # 6 m K N f :.O d  .-.4.4.5.=.} f d y r ..h.=XXXI.l a x.J.K.K.K.K.K.K.K.J.J.S.Z.B.M.x.: x P @ ",
"I I k.Z.B.B.M.Z.Z.M.B.` N P v.m.` C * : > 6 a h w @.d f h h k j y r y r w k i.#Xt.>.f ~ J.K.K.K.K.K.K.K.K.J.F.Z.B.B.N.U @ m P > ",
"I I z.M.B.B.Z.M.M.V.N.J N ` V.Z.C.n._ V 6 & $ w 1 W.<.#.X.j r } #.#.#.f p &.h.W.>.@.h [ K.K.K.K.K.K.K.J.J.J.Z.B.M.M.c.N = P I n ",
"I R k.Z.B.b.b.b.z.z.' 6 S z.B.Z.D.F.D.V.{ _ N < w ].=X#X~.-.d i.=XoX X,.f %.4.4.#.s ] H.K.K.K.K.K.K.K.K.J.D.B.M.x.I S ; n I R n ",
"R R v.v.v.' ' ' ' R c * J b.C.C.S.D.F.G.J.S.v.Y w OX3X:X'.-.u -.<X-X_.u.| w w w O [ Z.D.H.K.K.K.K.K.K.K.D.Z.M.' V - # x P R I m ",
"I R W ! W R R I I M # = U z.m.M.M.C.Z.D.H.H.S.{ w d.<XXXi. .O y =X_.U.h.-.u O.w x.B.B.Z.S.H.J.J.J.J.K.J.D.B.m.P # ; x K I R I K ",
"R R R R I I I I K x @ 6 I ' ' j.z.b.N.V.C.D.C.V.x.s k j d u u r T.E.s.7.} r f w v.B.C.B.C.S.S.H.J.J.J.F.Z.B.v.D @ z I I I I K n ",
"I I I I I I I I c @ # m I I I E Q ' k.l.v.b.b.B.M.1 y 3.u.-.} w l h h f } 2.-.w c.B.B.Z.B.B.Z.S.J.J.F.Z.Z.M.k.S # z I I I I n ; ",
"I I I I I I I m = @ b K I I I I I R I E W ! j.c.v.1 #.{.@Xu.%.w w j @.7.p.E.8.w Q b.M.M.M.M.B.B.Z.Z.Z.Z.M.m.! n # ; I I I m > ; ",
"I I I I I R K ; @ ; K I I I I I I I I U I R E E E 1 @.t.t.=.} O O j >.~.{.s.2.w U ' j.k.z.z.z.n.b.b.M.M.M.v.W K = = K I P v > H ",
"I I I I I I c @ = m I I I I R I I I I R I I P F F h =.#.h u y O Y 1 j 5.i.1.} w Z I E E E ' ' ` k.' ' v.l.j.R P z @ n I P : D W ",
"I I I I I P ; # c I I I I I I R U I R R P H ^ h j 7.2X;XQ.O.r O ) 1 w y u p y O e F I I I I I I I I E E W R R I c X > P b 6 x.' ",
"I T I I R D @ > K I I I I I R R R R I R 7 O $.4X&X} 4.[.|.p.O.O w O y -.s.s.&.j e F I I I I I I I I I I I I I I K = # S > B m.k.",
"I I I I P z X c P I I I I R R U R I I 5 =.R.|./.!.k &.i.h.3.d O w u r r j 8.(.&.r F I I I I I I I I I I I I I R P c # x % P b.j.",
"I I I P v # @ > M R I I I I I I I I R 2 p l ( h h r y d f d e e 1.Y.Y.5.} ..E.h r F I I T I I I I I I I I I I I I M - % # K j.W ",
"I I I m @ @ ; @ x K I I I I I I R R R V Z Z N Z Z Z Z Z Z 9 r o.@X$X|.E.*.j o.y 8 P I I R I I I I I I R I I I I I P x . = I I I ",
"I R K > X @ ; @ = b P I I I I I P R I I I I I I I I I I I B p u.@X'.5.@...d r 5 I I I I I T I I I I T I I I I I I I m # # K I I ",
"I I b @ > > @ @ X # c K I I I I I R I I I R I R I I I I I F s <.:.o.t 1 1 1 5 P I I I I I I I I I I I I I I R I I I I b @ m I R ",
"K I - @ c m x @ . @ # x b K I I I P I I I R P R I I I P P P v O 1 O , x # X ; n K I I I I I I I I I I I I R I I I I I m # z K I ",
"K v # @ @ = c ; . X ; ; = ; c b m m K K K K K K m n b c > - @ @ # c M P n ; @ # x M K I I I I I I I I I I R I I I I I m @ = # z ",
"n x m K b ; @ # @ . 6 M n x = @ @ @ # = ; : ; # @ X + + @ * S P I E ' ' ! H : @ o 6 v n K K K I I I I I R I P I I I L v + ; + . ",
"c.E I I I I K n 6 @ = n I P K n c > - # - # % = > c n n x 6 ` m.m.m.V.m.` N V ] J C 8 : - > c n n H m m n n n b n v > + + ; c ; ",
"Z.z.E I I I I I I n = # x m K K P P L n > # @ % - x v c - $ > T m.n.' H 6 S c.C.C.V.V.n.T 8 $ @ @ @ @ @ $ # # # % : x b > = # @ "
};
