/* XPM */
static char *player_right_11738833610[] = {
/* columns rows colors chars-per-pixel */
"64 64 211 2 ",
"   c #0F0801",
".  c #140B03",
"X  c #1D0E04",
"o  c #1C1007",
"O  c #1D120B",
"+  c #1E1110",
"@  c #1E131E",
"#  c #200F04",
"$  c #241205",
"%  c #2C1606",
"&  c #24150A",
"*  c #2B160A",
"=  c #2A180B",
"-  c #2E190A",
";  c #301707",
":  c #321907",
">  c #381B07",
",  c #341B09",
"<  c #3B1E0A",
"1  c #241513",
"2  c #281714",
"3  c #2C1B13",
"4  c #24161C",
"5  c #2B191C",
"6  c #321D12",
"7  c #391E17",
"8  c #321D1D",
"9  c #3D210E",
"0  c #332216",
"q  c #3C2112",
"w  c #372418",
"e  c #3A2519",
"r  c #3E291B",
"t  c #1F1520",
"y  c #201722",
"u  c #241A25",
"i  c #261D29",
"p  c #281F2B",
"a  c #321E20",
"s  c #2B212C",
"d  c #332328",
"f  c #2D2532",
"g  c #332A35",
"h  c #372B35",
"j  c #392D35",
"k  c #352D3C",
"l  c #38313B",
"z  c #3B333C",
"x  c #401F0A",
"c  c #44220B",
"v  c #4B250C",
"b  c #4E280E",
"n  c #50270D",
"m  c #542A0E",
"M  c #5C2D0F",
"N  c #5F300F",
"B  c #442512",
"V  c #462912",
"C  c #4D2A12",
"Z  c #452519",
"A  c #412A1C",
"S  c #4A2918",
"D  c #532C14",
"F  c #5B2E11",
"G  c #522A18",
"H  c #573316",
"J  c #5C3214",
"K  c #5E3418",
"L  c #62300F",
"P  c #612F10",
"I  c #643211",
"U  c #6D3612",
"Y  c #673718",
"T  c #66391A",
"R  c #6C3B1C",
"E  c #703713",
"W  c #743A15",
"Q  c #793D17",
"!  c #733E1C",
"~  c #7A3E18",
"^  c #462B24",
"/  c #573222",
"(  c #42373B",
")  c #6A3D24",
"_  c #6F431D",
"`  c #74411E",
"'  c #7D411B",
"]  c #6D4328",
"[  c #7C4521",
"{  c #784627",
"}  c #3B3443",
"|  c #3D3748",
" . c #3E3849",
".. c #443B43",
"X. c #463B46",
"o. c #433C4C",
"O. c #433F50",
"+. c #4E4345",
"@. c #4C434B",
"#. c #53474C",
"$. c #57504F",
"%. c #4B4453",
"&. c #494557",
"*. c #4E4A5B",
"=. c #534A52",
"-. c #534C5B",
";. c #5C5253",
":. c #52505E",
">. c #5C545D",
",. c #62575B",
"<. c #655B5A",
"1. c #534F61",
"2. c #5A5364",
"3. c #5D5867",
"4. c #5D5769",
"5. c #635B62",
"6. c #685D66",
"7. c #635C6B",
"8. c #655F71",
"9. c #6B6165",
"0. c #67666C",
"q. c #6B636D",
"w. c #736866",
"e. c #766B6C",
"r. c #7B6D6B",
"t. c #77716C",
"y. c #7E716A",
"u. c #6C6573",
"i. c #6E6877",
"p. c #746C75",
"a. c #736C7C",
"s. c #7A6E78",
"d. c #7D7373",
"f. c #76707C",
"g. c #7D777B",
"h. c #7D757E",
"j. c #83451C",
"k. c #88471E",
"l. c #87481F",
"z. c #89491F",
"x. c #844923",
"c. c #844925",
"v. c #8C4B22",
"b. c #914E23",
"n. c #8D5125",
"m. c #83512B",
"M. c #945125",
"N. c #995427",
"B. c #965328",
"V. c #9D5629",
"C. c #985A28",
"Z. c #9E5929",
"A. c #A25C2A",
"S. c #9E602B",
"D. c #A6612C",
"F. c #AA652D",
"G. c #AE692F",
"H. c #B16B2F",
"J. c #AF6A30",
"K. c #B46E31",
"L. c #B67032",
"P. c #83756E",
"I. c #857974",
"U. c #857977",
"Y. c #857D7F",
"T. c #917F7C",
"R. c #89837D",
"E. c #91847E",
"W. c #797583",
"Q. c #867D82",
"!. c #877D87",
"~. c #8B8384",
"^. c #8E878C",
"/. c #918586",
"(. c #938B85",
"). c #968789",
"_. c #948B89",
"`. c #9A8B8B",
"'. c #9B908A",
"]. c #8A8B94",
"[. c #958D92",
"{. c #9D9592",
"}. c #999898",
"|. c #A3928E",
" X c #A29593",
".X c #A89B98",
"XX c #B19B98",
"oX c #AAA49A",
"OX c #B5A699",
"+X c #999EA2",
"@X c #AB9FA1",
"#X c #A8A7A5",
"$X c #BAA8A1",
"%X c #B8B4A7",
"&X c #ADB3B3",
"*X c #A9B2B5",
"=X c #C3B49F",
"-X c #C5B9A4",
";X c #C7BCA8",
":X c #C7B6B4",
">X c #C7C5B5",
",X c #D0CBB3",
"<X c #D2C9B6",
"1X c #BBC3C3",
"2X c #C7C9C8",
"3X c #DADAC4",
"4X c #E4E5C8",
"5X c #EAEAD7",
"6X c #E7E8E8",
"7X c #F4F4E8",
"8X c #FBFBF8",
/* pixels */
"V.V.N.k.W U U U U U E W Q Q W W U E E E U U F F P I P U U E E Q ~ v.k.v.v.k.v.k.k.k.v.k.k.j.~ Q E U U U U U U U U U U U U n P ~ ",
"F.A.V.N.v.Q U U U Q j.b.b.b.b.b.v.v.v.~ E I v F E U U U U U E E E E U E E E E E E U E E U E U E E U U U U U U U U U U n < * Y b.",
"K.F.A.V.V.b.j.j.v.b.V.V.V.V.A.A.A.A.V.v.c.Y < m U U U U E U U U U U U U U U E U U U U U U U U U U U U U U U U U U m > X * I b.A.",
"L.J.A.V.V.V.N.N.N.V.V.V.V.A.F.K.K.A.V.V.b.! < n U U I P P U U E U U U U U U U U U U U U U U U U U U U U U U U I x # * F ~ b.V.A.",
"L.H.A.V.V.V.V.V.V.V.A.A.F.H.K.K.F.D.A.A.B.R < n P v x 4 t 4 4 4 4 5 5 S U U U U U U U U U U E U U U U I I I n , $ , V R B.V.A.V.",
"K.K.A.V.V.V.V.V.V.A.D.H.K.H.L.K.K.A.V.V.b.T < v c n 7 X.6.r.P.I.I.I._.<.Z U U U U U U I M M n v v x > * % % - B R [ R D G [ V.A.",
"L.H.F.A.V.V.V.V.A.F.H.L.L.L.L.L.F.A.V.V.c.B $ B e ^ X.P.`.`.).`.`.E..X.X8.5 2 x x < > ; % # # % ; > x C H T [ n.N.V.B.[ T C K n.",
"L.F.A.V.V.V.V.A.F.K.L.L.L.L.L.H.D.V.A.V.! - & ^ p f 2.Q.|.).].!.!.<.6.@X.X;.a + $ > x c v v n M U E ' v.v.B.N.V.V.V.Z.V.n.[ C T ",
"K.A.V.V.V.V.V.A.F.K.K.L.L.L.L.K.A.V.V.B.) * 4 p o.-.,.d.XX;X1X<X:Xg.>.6.{.%X=.i 1 x F I I U U U E W ' j.z.b.b.z.c.v.b.V.V.x.V ` ",
"K.A.A.V.V.V.V.V.D.G.K.K.L.K.K.F.A.V.V.B.K 1 i o.-.>.u._.;X5X8X8X8X<XU.q.~.OXT.=.u * x D I U U U U U U W Q Q Q W W W j.b.[ B B C.",
"J.A.V.V.V.V.V.V.Z.A.F.K.K.K.J.D.A.V.V.b.G 1 f *.;.u.d.U.`.OX-X-X3X8X<XT.6.!.OXr.s 2 9 , < v M I L L M m M U E U U U U Y V o 6 Z.",
"A.A.V.V.M.x.v.V.V.V.A.J.K.K.F.A.V.V.V.c.8 p | -.,.i.r.U.!.`.OXXX;X4X,X_.6.r.XXI.@.s Z Y V 9 < < < < > % > v N U U U m , = O o n.",
"A.V.N.v.~ W j.M.V.V.A.A.D.D.A.A.A.V.V.~ 4 f o.-.;.i.P.U.Q.Q.).).XX;X=XQ.u.w.XXQ.q.g / b.c.` T H m H M m 9 : < m N b = 3 w w 3 _ ",
"A.M.k.W U U ~ b.V.V.V.V.A.V.A.B.B.b.v.Z u f o.-.;.i.i.d.U.Q.Y.R.`.OX X!.s.e.T.Q.d.@.j ! D.D.C.M.n.n.n.x.' D , < c % O 0 A r 3 9 ",
"b.k.W E U U Q b.V.V.V.V.V.V.b.v.j.~ U @ i } o.-.;.6.i.s.d.U.U.U.U.!.!.U.W.s.P.Q.y.0.k ^ J.K.K.K.F.F.D.A.N.x._ H 9 & 0 r A r w & ",
"j.W U U E E W v.V.V.V.V.M.v.j.Q U D < @ i g O.-.;.;.6.i.p.e.6.2.2.2.2.2.2.2.6.6.,.>.k ^ J.K.K.K.L.H.H.G.A.C.n.` C - r A A r r O ",
"E E U U U U E j.M.V.N.b.k.~ W U m ; & @ s k  .*.*.;.;.0.i.3.o.g g g h j j j z z ( z p ^ K.K.L.L.L.L.K.L.F.A.V.N.Q 7 0 A A A w & ",
"E E U U U U E E k.v.k.~ W E L m ; o & 4 s k  . .*.*.;.;.-. .j XX*X*X%X%X,X4X5X8X8X5Xw.^ J.K.L.K.L.L.L.G.A.V.V.V.v.F 3 w r r 3 , ",
"U U U U U U U U W ~ W E U P v % o O & @ f } f t 4 u %.*.} +./.P.R.~.~.~.E.(.{.4X1X[.h.#.d K.K.K.L.H.H.F.A.V.V.N.B.[ Z 6 w w - D ",
"U U U U U U U U U U U P n < % $ = , q 4 s } *.t.%XE...s k >.I.s.Y.R.Y.R.R.R.(.4X*X].a.=.8 G.G.K.H.F.D.A.V.V.V.A.V.M.T 3 9 0 b U ",
"U U U U U U U U U I m c , , B D K _ { ) s ..9.w.U.U.P.r.q.q.y.h.R.}.+X+X}.OX>X7X6X>XoX6.8 Z.A.A.A.A.A.N.A.N.A.M.M.M.' 9 * b I E ",
"U U I U U U U U F v < < G ! v.V.Z.D.F.F.A ( 9.#.3.#.E.'.!.s.t.q.=.7.0.0.w.t.R.[.].~.t.+.8 B.V.V.Z.Z.N.A.N.N.b.z.' j.l.m % m U E ",
"U U U U U U U M v c F ] v.V.A.G.L.L.L.J.^ ( 9.%.q.%.p.W.h.p.w.3.k t t @ @ @ @ @ @ @ @ @ 5 v.v.v.M.M.M.M.M.k.Q W E E E N : m U U ",
"U U U U E U M x C ` v.V.V.Z.A.J.L.L.L.K.) ..3.1.%.1.4.7.8.6.e.f.3.l l l z z ( ..z z f u 5 W W ~ ' j.l.j.Q W U U E L M v : m U U ",
"U U U U U M < c ` B.V.V.V.V.A.J.L.L.K.L.K.] k a.g.i.g y i } *.W.g.~.+X*X*X*X-X4X-X&Xf.} 4 U U U U E W U U U U L M v > : v L U U ",
"U U I F b > % Y M.Z.V.V.V.A.A.A.K.L.L.K.K.K.{ i u u p | k u } *.a.g.~.~.W.[.&X=X/.W.3.} 5 U U U U U U U U L M c < > : > L E E U ",
"U I x , X . 9 ' M.N.V.V.A.N.A.A.J.K.K.K.L.K.m.@ @ @ y f %.%.t } 1.i.W.a.a.W.W.~.W.4.} d I U U U U U U I M v > > c m m 9 M U E U ",
"P < X . . o , L Q l.M.V.V.V.A.A.A.A.D.J.K.c.h o.-.1.o.f k  .} u }  . .@. .@. .@.o.k 8 D U U U U U U P n < : v M L E U v c L L U ",
", 2 3 O & v % c I E ' v.N.V.A.V.V.V.V.D.{ j O.Q.|.#X].2.f s g t u u i i i i i i ^ 5 & v I U U U I M x > c M L U U E ' ! % % < M ",
"0 e 3 O c I 9 : m U U W j.z.b.N.V.V.V.{ d X.U. X%X5X2X[.:.f @ @ @ @ @ @ t f ..f ^ S * * 9 m I M v > > n L U U U E j.B.x.9 . . $ ",
"r 3 O c U U M % c L U U E E ~ k.v.B.V.a s 5.).~.#X6X3X&XW.o.u h g k k j z -.~.1.i A c B 9 < < , > v L U U U U Q k.M.V.n.m x c ; ",
"= * m U E E U 9 % m U U U U E E Q ' k.8 l 2.a.Q.!.#X+X).W.>.g Y.W.!./.~.W.!.@XW.s S 9 m F M F F L U U U U E E k.N.V.V.M.Y c I I ",
", N U E W Q E M ; < L U U U U U U U U 5 i } 4.f.Y.Q.Y.Q.h.-.j XX.X6X5X#Xh.@X6X~.p D < v U U E U U E U U U W k.N.A.A.V.N.k.< P E ",
"L E E j.z.b.~ U v % c L U U U U U U U 5 t s | 1.1.a.a.W.8.o.h Q.!.XX$X#X}.{.3XP.p 7 , n U U E E W ~ ' ' k.k.N.A.H.A.A.N.v.B x U ",
"~ ' N.D.F.Z.k.W L > ; n I U U U U U U 5 f k u s f g g g f } 7.Y.Q././. X'.'.-Xr.p < ; m U Q c.v.M.M.N.N.N.N.A.F.K.H.A.A.b.v x W ",
"M.N.G.H.H.F.N.j.W m ; : m U U U U U U 4 %.0.;.=.p @ i g ..=.W.Q.Q.E.Q././.(.XXP.p 1 x P W v.M.N.V.V.V.A.V.A.A.K.H.F.A.N.b.S > v.",
"Z.Z.F.K.K.H.A.N.j.U n % % c I U U U U 5 =.Y._. X} y f  .-.5.a.U.Y.Y.~.Y.Q.Q.`.r.i - J E j.b.V.V.V.V.V.V.V.A.A.K.K.A.V.V.b.B * c.",
"V.V.F.K.L.H.A.V.M.k.U c X & v I U E U 5 o.s.'.>X2.i f o.=.3.u.a.Y.Y.Y.Y.h.f.Q.r.s 7 U ~ v.V.V.A.V.A.A.A.A.A.K.K.J.A.V.V.c.q o T ",
"b.N.D.H.L.K.A.V.N.B.z.U %   $ C I U U 5 z 6./.`.7.u p | &.=.,.a.Y.Y.Y.Y.W.a.Y.i.i 7 E v.V.V.A.A.A.H.K.F.K.K.K.K.F.Z.V.V.' , * B ",
"j.b.Z.D.H.F.A.V.V.V.V.x.< o $ - m U U 5 } 2.>.u y t f f | -.,.a.a.h.Y.Y.Y.h.h.&.s t G M.V.A.D.J.K.L.K.K.K.L.L.K.D.V.Z.B.T * c $ ",
"E ' N.A.A.A.V.V.C.V.V.x.B q C , ; v L 5 z | @.oX|.i.g p g } -.,.a.Q.Y.Y.h.a.u.u 4.g / V.A.J.K.K.L.L.L.L.L.L.L.F.A.V.V.b.C , D X ",
"E E z.V.V.V.V.N.B.V.V.c.C C [ R < % c 4 u +.E.,X/.`.,.g i g } -.>.p.a.f.a.i.*.t p.h / A.F.K.L.L.L.L.L.L.L.K.K.F.A.V.V.[ , c L % ",
"U E k.C.V.A.V.V.V.V.B.[ B K v.v._ V , 3 4 z d.oX>Xp...i u f f } -.5.3.4.-.o.f @ :.k / F.K.K.L.L.L.L.L.L.L.K.F.A.V.V.B.T $ M I x ",
"U U k.N.V.V.V.V.V.V.B.K B ! B.A.Z.n._ C 2 j >.d.$Xp.k y y i i p k l l k f g @.t k ^ c.K.L.L.L.L.L.L.L.L.K.H.A.V.N.N.c.B > I U n ",
"U E z.V.N.N.b.b.b.z.Q c D v.V.A.F.G.F.C.H g @.>.Q.h.O.p j #.#.#.} u h X.#.<.U.t a c.A.K.K.L.K.L.L.L.L.L.K.F.V.N.x.Y m > n U U M ",
"U ~ z.z.k.j.~ ~ ~ E v - J b.V.A.S.F.G.H.J.] d #.4.4.%.k ,.XXOX,Xa.s 1.^.$X;X[.t c.V.A.D.K.K.L.L.L.L.L.L.F.A.N.' b , % c I U U M ",
"U E ' ~ ~ E E E U M % ; Y z.b.M.C.A.A.F.G.G.{ @ @ y t } 6.`.-X<X-.i -.].>X3X+Xt n.V.A.A.A.J.K.L.L.L.L.K.A.A.b.Y % : v L U U U M ",
"U E E U U U U U I 9 $ c U ~ j.j.z.b.N.C.Z.S.S.c.@ O.f *.U.R.`.OXs @  .u.#X,Xd.t c.A.V.V.A.A.F.J.K.K.J.J.A.V.v.F % x I U U U U n ",
"E U U U U U U U n $ : M U U E E Q ~ ' c.v.v.b.c.@ g u o.8.W.s.Q.u i s s h l g ! B.V.V.V.V.V.A.A.F.K.J.A.A.N.j.m $ x U U U U m > ",
"U U U U U U U m : $ v L U U U E U E E Q Q ~ j.! t 1.1.} g l k z t | *.0.3.i 4 ~ k.b.N.V.V.V.V.Z.A.D.A.A.Z.M.' m % < I U U M < < ",
"U U U U U E L > $ < L U E U E U R U U E E E E Y t 8.W.i.5.O.k t t %.i.#XoX@.@ U W j.k.k.k.z.v.n.b.B.N.V.N.z.Q N : ; L U U v < M ",
"U Y U U E E v $ : m U U U U U U U U U U E U U P t 4.a. X).2.} a @ } =.t.t.+.@ U U U E W W ~ ' ` ~ ' j.k.l.j.E L x $ M U P , J ~ ",
"U U U U U U > $ b I U E U U U U U U R U U U Y Z t } -.e.6.k t b.@ i s k =.=.k G G I U U U U U U E E W W W W U U b $ < I C < [ j.",
"U U U U E m $ 9 L U U U U U U U U U E E U U G t y u p p u t 4 R @ t o.Q.:X2X7.g l / F Y U E U U U U U U U U E U M % % F < C M.k.",
"U U U U I 9 X c L U U U U U E U U E U E U W G t f *.s.s.-.p @ @ @ o.p. X X3.} *X3X$.4 8 U U U U U U U U U E U U U c $ c % J b.j.",
"U U U Y b % % 9 N E U U U U E R E R U U U U G u &.).8.} u u p @ @ f 4.h.u.&.z ~.(. XE.=.5 U U E U U U U E U U E U M > * % P j.~ ",
"U U U M % $ < $ c L U U U U U U U U U E U U D t } s.} } 5.E.E.:.u t s h f i i k k ( z s 5 E U U U U U U U U U U U I v . % L E E ",
"U U L < X # : $ % m U U U U U U U U U U U U I r u o.k *.h.}.%X$Xo.u 4 1 0 B Z Z V V S Z D E U U U U W R U U U U U U M % % I U U ",
"U U m $ < < $ $ X % n L U U U U U U U U U U E L 7 u f ..=.5.].#Xu.s O $ % c M I E U U U U U Y U U U U U U U U U U U U n $ M E U ",
"I I > # c M c $ . $ % 9 m L L U U U U U U U U U U a 5 5 5 s o.-.<.s 2 c % $ > m I U U U U U U U U U U U U U E U U U U M % x L U ",
"L v % $ $ : c > X X > : : > c m M M L P I I I I F m n x < 2 @ @ @ q L U m > $ % v M I U U E U U U U U U U U U U U E U M $ ; % x ",
"M c M L n > % % X . 9 M m c % % $ $ % ; : > : * # # # $ $ - D I U E Q ' ~ J , $ o 9 v m M L L U U U U U U U I U U I I n # > # . ",
"v.W U U U U L n 9 $ % M U I L m v < ; % ; ; * ; < v m M c < ` n.B.M.M.n.` B C ` K V 9 - , < c b m N M M F m n n m b < $ # > n : ",
"V.z.W U U U E U U m : % c M L L I I P m < % $ $ , v n x , & < ` v.M.[ H 9 H x.Z.Z.C.C.n._ 9 * & $ $ $ $ $ % % * ; , x n < ; % $ "
};
