/* XPM */
static char *player_up_11738833611[] = {
/* columns rows colors chars-per-pixel */
"64 64 210 2 ",
"   c #150B04",
".  c #1D0F04",
"X  c #150D0E",
"o  c #1D1108",
"O  c #1C1112",
"+  c #1E131E",
"@  c #200F04",
"#  c #241205",
"$  c #2C1506",
"%  c #24150A",
"&  c #2B1609",
"*  c #2B180A",
"=  c #2E190B",
"-  c #301707",
";  c #321907",
":  c #381B07",
">  c #341A09",
",  c #3B1E0A",
"<  c #251513",
"1  c #251812",
"2  c #2B1B12",
"3  c #22151E",
"4  c #2B191C",
"5  c #321D13",
"6  c #341E1B",
"7  c #391F18",
"8  c #3D210E",
"9  c #332216",
"0  c #3B2213",
"q  c #352318",
"w  c #3A231A",
"e  c #3E291B",
"r  c #1F1520",
"t  c #211723",
"y  c #231925",
"u  c #2A1D23",
"i  c #261D29",
"p  c #281F2C",
"a  c #331F20",
"s  c #2E2024",
"d  c #2B212D",
"f  c #32262D",
"g  c #3B2828",
"h  c #2D2532",
"j  c #2F2836",
"k  c #312733",
"l  c #332A35",
"z  c #342C3B",
"x  c #392F39",
"c  c #36303F",
"v  c #3B323C",
"b  c #401F0A",
"n  c #44220B",
"m  c #4B250C",
"M  c #4E280E",
"N  c #50270D",
"B  c #542A0E",
"V  c #5C2D0F",
"C  c #5F300F",
"Z  c #442512",
"A  c #492616",
"S  c #4D2A12",
"D  c #492817",
"F  c #442519",
"G  c #412A1C",
"H  c #542D14",
"J  c #5C2E12",
"K  c #5C2F18",
"L  c #593317",
"P  c #5C3214",
"I  c #5D3419",
"U  c #62300F",
"Y  c #612F10",
"T  c #643211",
"R  c #6D3512",
"E  c #6E3815",
"W  c #62361A",
"Q  c #66391A",
"!  c #6B3B1C",
"~  c #703713",
"^  c #743A15",
"/  c #793D17",
"(  c #733E1B",
")  c #7A3E18",
"_  c #452922",
"`  c #442823",
"'  c #4F2F23",
"]  c #583424",
"[  c #41383F",
"{  c #643C26",
"}  c #6F421D",
"|  c #74411E",
" . c #7D411A",
".. c #764225",
"X. c #7C4521",
"o. c #3A3443",
"O. c #3C3645",
"+. c #3E394A",
"@. c #443B43",
"#. c #433A46",
"$. c #433C4C",
"%. c #433F50",
"&. c #4C4347",
"*. c #4C444D",
"=. c #50474C",
"-. c #464153",
";. c #4A4354",
":. c #4A4659",
">. c #4D495C",
",. c #544B54",
"<. c #584D55",
"1. c #524C5C",
"2. c #5C5153",
"3. c #5C545A",
"4. c #63575D",
"5. c #655B5C",
"6. c #524E61",
"7. c #555162",
"8. c #5A5364",
"9. c #5D5967",
"0. c #5B5669",
"q. c #5E596B",
"w. c #655D65",
"e. c #625C6B",
"r. c #645F71",
"t. c #6D6466",
"y. c #66636D",
"u. c #6B646C",
"i. c #73696A",
"p. c #666173",
"a. c #6C6474",
"s. c #6F687A",
"d. c #736C74",
"f. c #786F70",
"g. c #726B7D",
"h. c #7B7375",
"j. c #77707E",
"k. c #7B747E",
"l. c #7F787F",
"z. c #83451C",
"x. c #88471E",
"c. c #87481F",
"v. c #89491F",
"b. c #844823",
"n. c #844A23",
"m. c #8C4C22",
"M. c #914E23",
"N. c #8D5025",
"B. c #945126",
"V. c #995427",
"C. c #965328",
"Z. c #9D5629",
"A. c #955A29",
"S. c #9E592A",
"D. c #A25C2A",
"F. c #A6612C",
"G. c #AB652D",
"H. c #AE692F",
"J. c #B16C2F",
"K. c #AE6930",
"L. c #B46E31",
"P. c #B67032",
"I. c #857879",
"U. c #857D7F",
"Y. c #776F80",
"T. c #777080",
"R. c #7C7481",
"E. c #857D82",
"W. c #877B84",
"Q. c #8B8283",
"!. c #84868B",
"~. c #8B8389",
"^. c #8E8A8C",
"/. c #928685",
"(. c #958989",
"). c #968989",
"_. c #9B938E",
"`. c #888995",
"'. c #999797",
"]. c #A29B8F",
"[. c #A18E91",
"{. c #A79695",
"}. c #AB9494",
"|. c #B39C9A",
" X c #9EA09F",
".X c #A7A399",
"XX c #B4A996",
"oX c #B9A89A",
"OX c #9EA4A9",
"+X c #A7A4A6",
"@X c #B9AAA6",
"#X c #B8B5A7",
"$X c #A5AEB3",
"%X c #AAAEB1",
"&X c #AAB3B5",
"*X c #B4BAB7",
"=X c #C5B9A8",
"-X c #C7BCB6",
";X c #BEC4BA",
":X c #CACABB",
">X c #D6D4BC",
",X c #CDCECB",
"<X c #D9D8C6",
"1X c #E2DCD3",
"2X c #DEE0C5",
"3X c #E3E3C6",
"4X c #E7E7D8",
"5X c #EFF0DD",
"6X c #EBEAE5",
"7X c #F4F5F0",
/* pixels */
"Z.Z.V.x.^ R R R R R ~ ~ / / ~ ^ R ^ R ~ ~ R J J U Y U R R ~ ^ / z.x.m.m.m.m.m.m.x.x.x.x.x.z./ ^ ~ ~ R R ~ R R R R R R R E S Y / ",
"G.D.Z.V.m./ R R ~ / z.M.M.M.M.M.m.m.b.) ~ R S J R R R R R R R R R R ~ R R R R R ~ ~ ~ ^ ~ ~ R ~ ~ ~ R R R R R R R R R N : - E M.",
"L.G.D.Z.Z.M.x.) m.M.Z.V.Z.Z.D.D.D.D.V.M.z.E , N R R R R ~ R R E R R R R R R R R R R R R R R R R R R R R R R R R R B : . - W M.Z.",
"P.K.D.Z.Z.Z.V.V.V.Z.Z.D.D.D.G.L.H.D.D.Z.M.! , N R R T Y U P 3 4 Y R R R R R R R R R R ~ R R R R R R R R R R R Y b @ $ K  .M.Z.Z.",
"P.J.D.D.Z.Z.Z.Z.Z.Z.D.D.G.J.L.L.K.D.D.Z.C.! b B Y m : $ $ f 1.3.g B R R R R R R R R R R R R R R R R R T T T H - # > Z ! B.V.D.S.",
"L.L.D.Z.Z.Z.Z.Z.D.D.D.L.L.L.P.J.L.D.D.Z.M.I , Z n 7 6 5 k 4.`.E.o.a 7 F A R R R R R R T Y V N N b b , * # & = Z ! X.! H H X.Z.D.",
"L.J.F.Z.Z.Z.Z.Z.D.G.L.L.P.P.P.J.G.D.Z.Z.b.Z % 6 D k x #.2.^.$XQ.#.z [ f a 7 5 b b , : - # # # # : : b S L Q X.m.V.V.C.X.Q S L N.",
"P.H.D.D.Z.Z.Z.D.G.L.P.P.P.P.P.L.D.D.Z.V...> < p k 7.g.l.W.(.*XQ.#.8.u.4.$.p y O # : b n m m N V T ^  .m.M.C.V.Z.Z.S.S.Z.N.X.S ! ",
"L.F.Z.Z.Z.Z.Z.Z.G.L.L.P.P.P.P.K.F.D.Z.C.{ < p 6.j.OX'.W.U.'.3XQ.#.8.Y.e.3.:.$.y < n J T T R R R ~ ^ / z.v.M.B.v.b.m.V.V.V.b.Z | ",
"L.D.Z.Z.Z.Z.Z.Z.D.G.L.L.P.P.L.G.Z.Z.Z.B.F d 6.s.$X,X;X XU.'.7X/.6.r.Y.u.2.>.:.l t < n B U R R R R R R ~ / / / ^ ^ ^ z.M.X.A Z A.",
"H.D.Z.Z.Z.Z.Z.Z.D.D.G.L.L.L.L.F.D.Z.Z.N.6 l s.W.$X6X,X$X+X@X7X/.8.a.j.g.u.<.>.O.i < , , , m H T T U V V V R R R R ~ ~ W 8 o 8 A.",
"D.D.Z.Z.C.m.m.V.Z.Z.D.K.L.L.G.D.Z.Z.Z.H k 1.W.OX$X6X4X;X+X=X4X/.8.a.I.W.a.2.>.;.l y G I A 8 , , , : > ; ; m U R ~ T B > 2 % o N.",
"D.Z.V.x. .^ z.V.Z.Z.D.D.F.F.D.Z.S.Z.V.g z 9.~.&X;X7X6X:X+X=X2XQ.w.i.U.l.a.2.<.>.+.p ` N.b...Q L H P J M n $ , B C M * 2 e q = } ",
"D.C.x./ ~ R / M.Z.Z.Z.Z.Z.Z.Z.Z.B.B.m.q l 9.~.&X2X7X4X#X}.].:XU.5.i.W.R.a.w.2.1.$.h ` S.F.F.S.C.N.N.N.b.( S > , n * o 9 e e 9 8 ",
"M.x.^ R R R / M.Z.Z.Z.Z.Z.Z.C.m.z. .W 4 j 7.E.OX<X6X-X}.(.^.$XQ.5.f.U.I.g.s.4.>.+.d ` F.H.L.L.K.H.F.F.D.A.c.} H 8 % 9 e e e 9 % ",
"z.^ R R R R ^ m.Z.Z.Z.Z.C.m.z.) R B 8 s l :.j.U.OX:X=X).U.^.$XQ.5.h.U.U.g.s.2.,.+.z ` A.K.P.L.P.P.P.J.H.F.V.A.| S = e G G e e o ",
"^ R R R R R ~ z.B.Z.V.M.x./ ^ R B - + *.3.&.U.U.g.[.(.U.U.(.%XQ.4.f.W.I.g.s.2.>.z 1.;.a L.P.P.P.P.P.P.J.G.D.Z.V./ 7 9 e G G q % ",
"R R R R R R R / x.M.x.) ^ ~ U B = . + <.3.$.j.U.U.Q.U.U.U./.|.Q.4.h.E.j.g.s.2.1.O.w.2.a G.L.L.L.P.P.P.J.D.V.Z.Z.m.K 2 w e e 2 , ",
"R R R R R R R R ^ / ^ ~ R V m - . O + @.=.+.j.Q.U.U.U.U.U./.}.U.5.f.I.W.a.4.1.1.z *.@.a G.L.L.L.P.J.J.F.D.V.D.V.V. .F 5 0 9 = H ",
"R R R R R R R R R R R J N , $ # * > 3 f x v y.j.E.Q.U.U.E.Q.).U.5.f.W.Y.a.2.>.$.z x k a D.G.J.J.J.H.F.D.D.V.V.D.Z.B.W = 9 9 S R ",
"R R R R R R R R R T B n > 5 F H I } u y d x =.r.u.l.W.W.U.U.W.W.i.d.d.w.w.1.%.o.l p y 6 Z.D.D.D.D.D.D.Z.Z.D.D.B.B.A. .8 * M U R ",
"R R R R R R R R U m , , H ( b.Z.S.G.] i t h O.-.*.e.d.R.R.l.l.Y.g.a.w.3.1.%.o.k d y 3 ' V.V.Z.Z.Z.S.Z.Z.V.B.M.x. .z.c.B > B ~ ~ ",
"R R R R R R R V m n H ..M.V.Z.G.P.P.L.] t r h o.o.%.q.p.a.a.r.Y.r.6.;.-.%.o.h d y + F z.b.x.m.m.B.B.V.M.M.x. .~ R R ~ C - N T ~ ",
"E R R R R R V b S | m.Z.Z.S.F.K.P.P.L.L.} r r h h o.O.%.>.>.>.>.$.O.o.O.h h h + + F ~ E E R / /  .z.v.z./ ~ ~ ~ R T V m ; V R ~ ",
"R R R R R V , n | V.Z.Z.Z.Z.F.G.L.P.P.L.{ d -.+ + h h j z O.#.#.+.z k k h d + + + F R R R R R R ~ ~ ~ R R R R T V m : ; n U ~ R ",
"R E R B N > $ W B.Z.Z.Z.Z.Z.F.G.L.P.' u + h >.q.l h h h k k l j j h k k h h d $.p r 3 6 R R R R R R ~ ~ R U V n : : ; : U R ~ ~ ",
"R T b - o   8  .B.V.Z.Z.Z.Z.D.D.g q y.y.;.o.z 0.8.;.O.o.o.o.o.o.o.o.o.o.o.%.%.j y.e.1.%.4 4 R R R R R T V n : : n B V n V R ~ R ",
"Y , .     . > U / v.B.Z.Z.Z.B.` c -.+X'.d.w.-.z 8.r.e.7.8.7.7.8.8.8.:.$.;.:.z %.^.@X'.p.$.h q T R R U N b > n V T R T M b C T R ",
"> < 2 o % M - n T ~ z.m.B.V...y 8.E.,X*X(.W.p.+ c ,.u.W.W.`.`.W.R.I.i.<.@.o.+ u.[.,X-XE.g.>.t K U V b : b V T R R ~  .! $ $ , V ",
"9 w 2 o n T , ; B R R ^  .b.] l s.[.1X1X%X~.d.r l x <.f.W.`.`.I.i.w.e.=.l l + i.{.<X:XI.I.s.p 7 b : : N T R R R ^ z.B.m.: .   # ",
"w 2 % n R E V $ b U R R ~ A p 6.g.[.:X4X1XOXq.r I.U.=.d i i i i i i p $.Y.f.+ e.OX:X#XU.E.p.z t + m Y R R ~ R ^ x.B.V.M.M b n - ",
"2 * B R E E T n - B R R R A p 6.g.E.[.|.=X#X-.r XX|.(.h.g.g.g.g.s.Y.k.W.W.h.t %.#X=X[.U.k.>.k t + R R R R R ^ x.V.Z.D.B.Q n T T ",
"> Y R R ^ / R V - , U R R F t z 1.s.U.Q.(.l.-.3 |.*X+X{.{.[.E.g.R.Y.~._.W.f.+ -.l./.d.7.1.+.j t + R R E R / z.Z.D.D.Z.Z. .8 V R ",
"T R ~ z.v.M./ R n $ n U R S + u h >.9.9.9.7.O.+  X:X=X{.W.(.[.T.W.j.E.{.=X/.r +.1.9.1.%.O.d y r +  . . .z.v.B.D.H.G.D.Z.N.n m R ",
"/ z.V.F.D.D.v./ T b $ M T A d ,.r h j j j j l 3.;X=X_.h.I.^.oXT.U.R.d.~.=X|.;.k j z h d d + c y + V.V.V.B.Z.D.G.J.J.D.Z.B.S , ~ ",
"B.V.J.J.J.G.V.z.R V > - B A O.@X-.c d + + y +.R.XX/.d.s.I./.oXT.U.I.d.d.Q.[.Y.k r + + i o.2.e.d + Z.Z.S.Z.D.D.J.P.F.Z.Z.m.A , m.",
"Z.S.G.P.P.J.D.V.z.R M $ $ 5 =.5Xk.q.j 3 t d -.p.d.y.d.T.h./.oXT.I.E.E.d.e.d.p.z y + + v Q.oXQ.l + Z.Z.Z.Z.D.F.P.L.D.Z.Z.B.Z % b.",
"Z.Z.F.J.P.L.D.V.B.v.R b . O @.:X^.j.x q w r z >.1.d.j.T.k./.{.g.E.E.I.k.e.-.:.l y 2 6 2.>XoXQ.l + D.D.D.D.D.J.P.L.D.Z.Z.b.8 o Q ",
"M.Z.F.J.P.L.D.Z.Z.V.m.Q $ X l U.$XT.z t r y z >.6.a.g.k.U.U.R.Y.R.Q.k.r.%.j j h y 3 4 &.oX}.U.l + G.J.L.L.J.J.P.G.S.Z.V.X.: = 8 ",
" .M.D.F.G.G.D.Z.Z.Z.V.b.8 O + i d y t + r r j >.>.a.s.R.E.E.E.Y.U.U.R.r.%.h h h y 3 3 3 s s d r + J.L.L.L.P.P.J.F.Z.Z.C.Q * n $ ",
"~  .B.D.D.D.S.Z.S.V.Z.b.Z 2 k f.#Xd.v i + + y z -.6.p.T.R.E.E.s.l.k.p.-.z h h t + + y *.!.u.t.f t P.P.P.P.P.P.G.S.Z.Z.M.S > H . ",
"~ ~ v.Z.Z.Z.Z.Z.Z.Z.Z.b.Z w d i..X#X3.z h d O.y o.:.8.r.Y.j.T.0.g.y.-.x h k y o.i k z 9.:XU.t.d + P.P.P.P.L.L.G.D.Z.V.n.> n T # ",
"R ~ v.Z.Z.Z.Z.Z.S.Z.V.| Z F d <.i..Xf.w.*.j 9.=.d l o.>.q.q.q.6.0.;.z h t p =.0.l &.w.f..Xt.3.h + L.P.P.P.L.G.D.Z.Z.C.W # V T n ",
"R R v.V.D.Z.Z.Z.Z.V.C.I S ] f #.2.h.f.u.@.x l.(.&.@.k l O.O.O.O.O.j i l @.&.).U.z &.u.d.h.2.+.g ` L.P.P.L.L.D.Z.V.V.b.Z : U ~ m ",
"~ R v.V.B.B.B.M.m.v.| n H n.n.u &.8.;.v d @.Q.XX(.Q.,.i r t t t r r i ,.U.(.XXQ.#.d z >.8.&.s A.P.P.P.P.L.G.Z.B.v.W B : B R R V ",
"~ ^ M.M.v.z. .) / ~ M ; W B.Z.B.3 + 3 + z 9.Q.=X|./.j.*.y d h h h y %.j.(.|.=X(.9.j + r 3 3 K.P.L.P.P.L.G.D.V. .M > $ m T R R V ",
"R ^ ) ) / ^ R R ~ V - - W c.B.V.B.S.S.` k 9.(.3X*X^.j.;.+ + t + r + ;.k.(.&X3X(.9.z ` V.D.G.L.L.L.L.P.L.G.Z.B.T $ > m U R R R V ",
"R R R R ~ R R R U 8 # n R /  .z.v.B.B.` i 3.%X3X_.W.y.o.3 0 5 1 q + o.y.Q._.3X&X1.i G Z.D.D.D.H.L.P.L.G.D.Z.m.J # b T R R R R m ",
"R R R R R ~ R R N # ; V T ~ ~ ~ ^ / z.` + d ;.2.[ v l g ..b.! 2 9 9 s l v @.3.=.p t ` V.Z.S.S.F.G.L.G.D.D.B.z.B # b R R R T V : ",
"R R T R R R R B ; # m T ~ ~ R R ~ ~ ~ 6 y o.y.=.d t + ' Z.V.m.H 1 9 + + r d ;.,.l t ` M.Z.V.Z.S.D.G.F.D.D.B./ V $ , T R R Y , : ",
"~ ~ E ~ R R U 8 # : V R ~ ~ ~ R R R H t l d.*Xk.$.i 4 { M.M.M.X.8 2 X + d -.`..Xw.l 4 { m.m.m.m.M.B.V.V.V.v.^ U : - U R T m , J ",
"~ T E R R R m # ; V R R ~ T ~ ~ R H u + [ f.].w.;.p A ^ / / m.B.} =   2 d ;.!..Xd.z t u I ~ /  . . .z.x.v.z.^ U , @ V R T : L / ",
"~ R R R ~ U : # N T R R R R R R R 3 p p p d k f d t F ~ R ~ / V.N.H o 2 t p p g f i p p 3 R R R R ~ ~ ^ ^ ^ ~ R N . , T N , b. .",
"R R R ~ ~ V # : U T ~ ~ R R R R R 3 p $.e./.oXI.d + F ~ R ~ ^ m.A.X.& 2 + p W.oXW.e.$.p 3 R R R R R R E ~ R R R V $ $ H , S C.x.",
"R R R E U 8 . m T R ~ ~ ~ T E E R t O.:.d.@X>X}.h.l F R R R R ^ m.m.Z < l I.}.>X@Xd.>.O.3 R E R R R R R R R R ~ T m $ n = P M.z.",
"R R R U M $ $ , U R T ~ R ~ E E ~ + $.e.^.;X6X|.E.k A R R R R R / m.W < k W.|.6X;X`.e.#.+ R R R R R R E E R R R R Y ; & - T  ./ ",
"R R R V # # : # n U R ~ R R R R R S k #.u.+X-X(.1.p A R R R R R ~ / T < p 1.(.-XOXu.@.d S E R E E R R E R R R R R T m   $ T ~ ~ ",
"R R U , . . : $ - B T R R R R R R R A u v <.4.,.d 4 J R R R R R T Y , & u d ,.4.2.x u D R E R R R R R R R ~ R R R R V $ # T ~ ~ ",
"R R N # , 8 # # . - m U U R R R R R R A 4 4 4 2 4 Y R ~ R R R U V , @ # % < 4 4 4 4 Z R R R R E R E E R R R R R R R R N # V R ~ ",
"T T : # n V n .   # $ 8 B U R R R R R R R R R R R R R T T U B > .   - n - @ : B R R R R R R R R R E R R R R R ~ R R R V $ b U R ",
"U m - # # : n : . . ; : ; : m B V V U U U U T U V B N n , > # . $ m L R B : # - m V T R R R R ~ R R R R R ~ R R ~ ~ R J # : $ b ",
"V n B U N : $ $ .   8 V B n - # # # $ $ : > > $ @ @ @ # # = H R E ~ /  .) K > # . 8 M B Y T T T R R R R R R T R R T T N @ - @   ",
"v.~ R E R T U N 8 # - B R T Y B m , ; $ - - & $ , m B V n , | B.B.B.C.m.| A S | I Z 8 = ; , m M B V V V V B N N N N : # @ : b : ",
"Z.v./ R R ~ ~ ~ R B - - n V U U T T Y B , $ # & > n M n > % , ! B.M.X.L 8 H n.S.F.A.A.N.! n % # o # # $ # & $ * = > b N , - $ $ "
};
