/* XPM */
static char *exit_open_11738632472[] = {
/* columns rows colors chars-per-pixel */
"64 64 247 2 ",
"   c #000001",
".  c #02010C",
"X  c #09080C",
"o  c #140B04",
"O  c #1D0F04",
"+  c #180C09",
"@  c #1D1209",
"#  c #030114",
"$  c #0B0514",
"%  c #0C0B13",
"&  c #060319",
"*  c #0D051A",
"=  c #160A17",
"-  c #140B1A",
";  c #1C0B1C",
":  c #181218",
">  c #200F04",
",  c #241205",
"<  c #2B1506",
"1  c #24140A",
"2  c #2B1709",
"3  c #2B180A",
"4  c #2E190B",
"5  c #321707",
"6  c #321907",
"7  c #331A0A",
"8  c #3B1E0A",
"9  c #220D1E",
"0  c #281617",
"q  c #2C141C",
"w  c #331C13",
"e  c #3B1E13",
"r  c #36191C",
"t  c #3D210E",
"y  c #3B2213",
"u  c #342218",
"i  c #3A241A",
"p  c #3E281B",
"a  c #160C23",
"s  c #1C0E23",
"d  c #1C1322",
"f  c #1C1629",
"g  c #230E22",
"h  c #290E27",
"j  c #340D21",
"k  c #241324",
"l  c #2B1324",
"z  c #24142B",
"x  c #2D152A",
"c  c #291A29",
"v  c #331524",
"b  c #371824",
"n  c #3B1C23",
"m  c #34152A",
"M  c #3A162A",
"N  c #331A2C",
"B  c #3C1B2B",
"V  c #271C34",
"C  c #391D33",
"Z  c #28232A",
"A  c #372527",
"S  c #3B242B",
"D  c #2D2437",
"F  c #382737",
"G  c #383539",
"H  c #411F0A",
"J  c #421C18",
"K  c #44220B",
"L  c #4B250C",
"P  c #4E280E",
"I  c #50270C",
"U  c #542A0E",
"Y  c #5B2D0F",
"T  c #5F300F",
"R  c #442413",
"E  c #482717",
"W  c #4E2A13",
"Q  c #422A1D",
"!  c #542B12",
"~  c #5C2E12",
"^  c #552D1A",
"/  c #5D3114",
"(  c #5B321B",
")  c #593419",
"_  c #62300F",
"`  c #612F10",
"'  c #643211",
"]  c #6D3512",
"[  c #6C3717",
"{  c #63351B",
"}  c #65391C",
"|  c #6B3A1C",
" . c #703713",
".. c #733A15",
"X. c #793D17",
"o. c #70351A",
"O. c #723D1B",
"+. c #7A3E18",
"@. c #471B27",
"#. c #441C2C",
"$. c #521D2A",
"%. c #4A1E31",
"&. c #462627",
"*. c #4B232B",
"=. c #562829",
"-. c #49312D",
";. c #573527",
":. c #5C3422",
">. c #472736",
",. c #4B2433",
"<. c #432B3C",
"1. c #532534",
"2. c #582937",
"3. c #463438",
"4. c #563938",
"5. c #67262A",
"6. c #782D2E",
"7. c #6C3C23",
"8. c #643928",
"9. c #733B27",
"0. c #632B33",
"q. c #672C37",
"w. c #6B3433",
"e. c #673935",
"r. c #763735",
"t. c #6F421D",
"y. c #74421E",
"u. c #7D421B",
"i. c #5D4237",
"p. c #6D432B",
"a. c #7B4422",
"s. c #794729",
"d. c #664538",
"f. c #7A4537",
"g. c #7D543B",
"h. c #3A2A44",
"j. c #3D3545",
"k. c #422E48",
"l. c #483347",
"z. c #543A47",
"x. c #4A3853",
"c. c #7A3B41",
"v. c #49464A",
"b. c #594546",
"n. c #554C53",
"m. c #504F54",
"M. c #654847",
"N. c #764A45",
"B. c #775549",
"V. c #685657",
"C. c #745750",
"Z. c #7B645A",
"A. c #5D5C63",
"S. c #675663",
"D. c #736A6B",
"F. c #823D33",
"G. c #893A34",
"H. c #923D31",
"J. c #83451D",
"K. c #88491F",
"L. c #844923",
"P. c #8C4B22",
"I. c #864B28",
"U. c #914E23",
"Y. c #944E2B",
"T. c #8D5128",
"R. c #945126",
"E. c #9A5427",
"W. c #945329",
"Q. c #9D5629",
"!. c #94592A",
"~. c #9E592A",
"^. c #894737",
"/. c #974836",
"(. c #944B3A",
"). c #89573A",
"_. c #975538",
"`. c #A7482F",
"'. c #A25C2B",
"]. c #A54B36",
"[. c #A7543A",
"{. c #B45537",
"}. c #B45B3D",
"|. c #9E6232",
" X c #A5612C",
".X c #AA652D",
"XX c #AD692E",
"oX c #B06B2F",
"OX c #AA6736",
"+X c #B36E31",
"@X c #B9623E",
"#X c #B57031",
"$X c #C4683E",
"%X c #874D43",
"&X c #914440",
"*X c #865645",
"=X c #985744",
"-X c #A55943",
";X c #B35E42",
":X c #99654A",
">X c #8C6854",
",X c #956755",
"<X c #AA6647",
"1X c #BC6542",
"2X c #B76846",
"3X c #BC714A",
"4X c #AC7155",
"5X c #B97755",
"6X c #88746D",
"7X c #A67E66",
"8X c #C46C43",
"9X c #C66B44",
"0X c #CC7244",
"qX c #C9754A",
"wX c #CA754A",
"eX c #D27747",
"rX c #D37B4B",
"tX c #C97C53",
"yX c #D77D51",
"uX c #96867A",
"iX c #BC8666",
"pX c #AC8B76",
"aX c #D5814E",
"sX c #CC8357",
"dX c #D48352",
"fX c #D88B59",
"gX c #CE926B",
"hX c #DB9262",
"jX c #D9996B",
"kX c #E29661",
"lX c #D4A473",
"zX c #DBA277",
"xX c #E8A469",
"cX c #E4A876",
"vX c #EFB578",
"bX c #AB998B",
"nX c #BBA593",
"mX c #C09B81",
"MX c #CBA487",
"NX c #D0AD8E",
"BX c #E7B486",
"VX c #E5B78F",
"CX c #CDB9A2",
"ZX c #EEC496",
"AX c #D8C6AF",
"SX c #E9CEA9",
"DX c #D7CFC0",
/* pixels */
"Q.Q.E.K...] ] ] ] ]  ...X.X... . . . . . .] ~ Y _ _ _ ] ]  ...X.J.J.K.K.P.K.K.U.K.K.U.K.J.J.X... . .] ] ] ] ] ] ] ] ] ] ' P ` X.",
".X'.Q.E.P.X.] ]  .X.J.U.U.R.U.U.P.P.J.+...' P ~ ] ] ] ] ] ] ] ]  . .] ]  . . . . . . . . . . .]  . .] ] ] ] ] ] ] ] ] U 8 6 ' E.",
"+X.X~.'.Q.U.J.J.K.U.Q.E.Q.Q.'.'.'.'.E.P.J.[ 8 P ] ] ] ] ] ] ] ] ] ] ] ] ] ] ] ] ] ] ] ] ] ] ] ] ] ] ] ] ] ] ] ] ] U 6 O 4 ' U.Q.",
"#XXX'.E.Q.E.E.E.Q.Q.'.E.'.'..XoX+X'.~.Q.E.| 7 U ] ] _ _ ` ] ] ] ] ] ] ] ] ] ] ] ] ] ] ] ] ] ] ] ] ] ] ] ] ] ] ' 8 O 6 ~ u.E.Q.~.",
"#X+X'.'.E.Q.Q.Q.Q.~.~.'..XoX#X#X#X'.~.'.E.| 8 U _ P 8 5 5 U ] ] ] ] ] ] ] ] ] ] ] ] ] ]  . .]  .] ] ] ] ' _ ! 6 , 7 K | T.E.~.'.",
"#X+X'.E.E.E.Q.Q.Q.'. XOXoX#X#X#XoX'.Q.Q.P.( t L K I / U 7 , 8 Y p &.e ]  .] ] ] ] ] ] | ` U I L H H 8 2 < , 4 E t.a.| ! ^ u.E.'.",
"+X+X'.'.`.Q.Q.Q.'..X#X#X#X#X'.p.8.:.P.~.L.R 1 R y.P.T.J.] K < O 1 &.A ^ L H H H 8 8 e ;.7 > > < 5 7 H W ( } u.P.E.E.E.a.} ! ( T.",
"#XXX'.'.~.Q.Q.'..X+X#X#X#XXXd.gXfX<X=.a.a.7 2 :.R.Q.Q.E.U.u.' P 8 6 5 J 5 5 5 q 0 8 H K L P U U ] ..u.P.P.R.E.Q.~.E.~.E.T.y.W t.",
"#X'.'.E.Q.Q.Q.'..X+X#X+X XOX&.>.}.(.r p.O.< 7 { P.T.} y.} { ( ~ W I ` Y P ! ` r : R T ' [ ] ] ]  ...X.J.K.U.P.K.L.P.R.Q.E.L.E y.",
"+X'.E.Q.Q.Q.Q.Q. XXX X).,X#Xa.S q b 9.T.{ 1 8 p.p.g.uX*XB.(.(.F.r.*.e W :.&.7.{ 6 6 K I ` ] | ] ] ] ....X.X.X.......J.P.u.R R !.",
"XX'.Q.'.Q.E.'.Q.'.'.s.*.OX#X#X!.a.T.~.T.^ G 2 S : :XxXlXfXrXeX}.3Xw.S 4X@X^.=.{ y w t 7 8 P ~ ' _ _ ~ U Y ] ] ] ] ] ] [ t @ t |.",
" X`.Q.'.U.K.K.E.Q.Q.E.!.+X+X.X'.Q.Q.I.;.A uXnXuXX >XvXxXxXfXaX3XiXe.7XrXeX[.^.w.A : q i y u w 8 7 7 6 6 7 8 y ! ] ] U 7 4 1 @ L.",
"'.Q.E.K.+...J.E.Q.Q.Q.W. X X'.'.'.a.uXAXDXVXfXjXm.M r.=X6XzXzXMX4.3.SXcXzX3XsX[.=.B.NX,X=.q r n W ! E W t 0 5.0 ) P 3 3 p p 3 } ",
"~.E.J... .] +.U.Q.'.Y.^.).'.Q.E.9.- V.SXvXxXhXBXSX0 ; m ; 2.1.#.g - b >.l bXgX=.%XNXhX8X@X{.`.r.E s.f.L.t.y c S.) 3 1 u p p u t ",
"R.J... .] ] X.U.Q.Q.Q.Q.E.W.s.B.nXAXM.C.MXBXBXVXB.M - M s 6.G.q.9 9 0.q.m >.F b MXMXtXaX8X@X/.1.c *XW.W.!.J.} i.u 3 u p p p u 1 ",
"J... .] ] ] o.P.Q.Q.Q.E.T.:.>XSXvXcX5XM.,.>XbXC.%.#.; M g 6.c.2.k k 2.q.v @.*.F.e.#.B.iXqX2XG.$.q -.&.8.!.E.T.) u 3 p Q p p p @ ",
"..] ] ] ] ]  .J.U.Q.E.R.| g w.4XBXvXxXzXM.v =.q.,.%.; M g 0.q.1.a z 2.2.x #.%./.].$.b @.8.r.6.r._.]./.$.L.Q.Q.r >.0 u p p p i 1 ",
"] ] ] ] ] ] ] ..K.K.u.;.v.z.2.0.>XlXiX%X1.l 0.0.,.M g M h $.0.#.& h 1.1.l #.%./.-X@.&.%.; b.sXrX8X[.].=.-.I.Q.s.:.3.A u p p 3 t ",
"] ] ] ] ] ] ]  ...8.A :XgXMX,XB.B >.q.2.%.j 2.2.,.h h C g m M ; & z ,.k.l %.%.(.=X#.&.$.g D.cXrX8X[.].G.$.-.a.Q.W.a.R u p u 3 ! ",
"] ] ] ] ] ] ] ] ] w M %X3XaXfXcXD.B 2.1.,.h 1.1.,.- h C z & & & & l >.<.d B 1.(.=XB n $.: r.pXtX1X}.{.`./.r.r L.Q.&.r 4 4 u P [ ",
"]  .~ E :.[ ' 0 R ~ 9 r.`.5XvXZXM.m 1.1.,.z ,.1.l.= x F z & & # & V F z & s %.].=XM v B 0 _.[.w.(.1X;X;XH.H.$.8.R.8.A R 3 P ' ] ",
"] ( E E 7 E ] ^ i.K 0 (.dXaXfXaXw.= 1.1.,.a l <.F % V j.z # # & # z h.z & * B [.%Xm m M q ]._.j M.^.;XG./.F.M -.s.J.s.! 4 Y ] ] ",
"] ; H.[.3Xf.y Y R V.sXkXkXfXfX<XM.; #.1.,.g - m * # f D f . # . . f D d # # & 1.q.v x m v [.(.9 q *X=X^.$.#.h q 4.] ] ) 6 I ]  .",
"] q m $.G.=.r K 0 z.2XdXkXBXBX6Xl g x %.#.g & # # % f Z - .   . . : f - . # # & l l M M b [.^.- ; 1.r.F.6.r.w.=.x :.U r 1 I  . .",
"] ' R ; 9 1 &.Q 0 #.5.-X,XpXbX>.s C - M ; 9 $ . . % % % X   .     X : X . . % # # * N N @.[.r.* D.CXzX8X9X@X/.5.- -.7 @ e ' ]  .",
"] ] ` ! L 7 1 ;.).qX<Xr.e.S = >.k #.* - - 9 % .   X   .       .   .   X   . % $ . & N x $.(.0.$ N.>XfXqX=XG.5.5.k 3.y 7 _ ]  .] ",
"] ' L 5 , X p <XqXfXhXgXgXpX4.F x M * # & 9 $   .                       X   X . . $ Z V @.^.2.Q e.b.<X-XH.].H.H.5.S 4.w e _  .] ",
"` 8 + o o : f.=X5XcXxXkXfXCXNXF <.M $ # X % .                                 . . # Z Z n 0.l =.M.n.$.1X1X8X{.].G.S ;.n B e _ ] ",
"7 3 0 @ 3 : 2.5X9XqXwXdXfXcXlXD C ,.* . .                                         X d f l >.% b @.4.6X=X(./.H.6.@.k d.( A -.t Y ",
"u i 3 @ K A g #.$.q./.-X=Xe.F N l F * . .                                         . : % % d - l q >.MXVXsX2X{.].@.z d.s.8 + o O ",
"p 0 1 K ] 8.0 9 @.=.q.,XZ.4.c C a F $ .                                             X X . . g * v.uXNXsX}.{.`.G.b 3.N.I.I 8 K 6 ",
"3 1 U ]  .t.: -.e.=XtXkXhX<XA F - l =                                               X . . . l % CXsXqX8X8X}.H.5.v <.f.R.} K _ ] ",
"7 T ] } :.e ;.3XwX9X0XfXfXjXiXS ; ; % .                                                 . $ l $ 6XsXtX1X;X{.].@.g C &.:.a.t Y  .",
"' ] ] I.i.% ;.}.9X=XtXsXhX:Xw.n * . .                                                   . X d g C.pXsX1X].F.5.1.a 4.;.e.P.R P ] ",
"X.J.Q.Q.&.0 s &.2X5X<X^.e.M.M.z.S # .                                                     . * s @.2.;X;X[.^.C D c B.W.!.U.W 8  .",
"R.E.XX#X!.;.a N m r.@.r *XfXjXfX=X9 .                                                     # A.pX,X%Xj j m N k.f M.).~.Q.T.W 8 K.",
"E.~..X#X#X.Xp d m = <X0XqXrXrXkXaX5XZ .                                                 d D.AXjX9X8X1X^.q N f i.B.4.4.T.P.K 1 L.",
"~.~..X+XW.T.T.8.d 4.2X0X0X0XwXrXhXBXmXV.. .                                           . 3.zXeXwX8X$X$X{./.l G g.d.iX&XQ 7.t O } ",
"U.Q.'.+X#XOXp.W.8.; e.@X8X8X8XfXgXsXtXN.% Z Z                                   X G G n.>.=X8X0X$X@X{./.w.V 8.T.3./.w.k -.u 4 K ",
"u.U.~. XXX.X~.~.W.l l =.].}.gXfX$X2X^.2.6XAXCXv.%                         X G n.6XBXxXjXpX2.6.1X$X}./.=.<.F ;..X&.z k l.S.b.K 1 ",
"..u.W.'.~.;.-.;.R.:.9 l =.,X5X<X*Xe.;.5XhXdXfXMXD : X             : G : X Z z.VXsXrXjXfXtX:X@.1.=.1.k.C h.V z.).E.p.M.Z.d.p U O ",
" .] P.W.d.).<X4XA I.Q k B #.*.@.*.s.3XqXrXdXtXg.l G m.v.v.v.A   % m.A.m.j.f 5.sXaXwXsXfXsXqX[.&.k %.k.V V 3.M.).~.~.E.s.7 R ' , ",
"] ] K.M.=X9X$X#X^.( I.A z >.4.= iXrXeXaX3X3Xw.=.i.NXhXhXhX<Xf.c 4.pXjXlXlXC.n (.wXqXqX0X9X9X1X(.; f D n.S.C.).7.9.'.E.} , U ] t ",
"]  .J.W b 5./.^.q 7.W.( D z x % B._.0X[.r.5.n d.jXrXrXeXqX(._.; ;XjX8XdXyX2X,X#.f.tX3X8X;Xf.r.>.z 3.B.:XOXXX'.9.N.E.K.K 5 ] ] P ",
"]  .P.W.Q z M h R K.O.t c 8.7.; r.0.*.9 #.v A 9XeXeX0X9X/.;X1X9.r.[.;XrXqXyX<X=Xq e.tX%X%.<.h.x.D b.|.#X+X XQ.E.L.| ! 7 U ] ] U ",
"]  .P.U.s.n 9 R O.] W 4 { R.Q.1 r.c.c.%.; & *X[.}.0X$X_.^.8X1X{.&.0.F.9X[.2XtX<XN ; h h.k.h.h.V F Z.).d.8.P.E.u.L 2 1 K ] ] ] Y ",
"] ..u.X.....] ]  .Y 5 4 ] P.R.{ S >.2.m s * S l r ^.^.w.}.9X$X$X8.@.$._.(._.^.#.d s C h.D h.h.j.B.!.:.*X4.( U.] 1 0 n E ] ] ] Y ",
"] ] ] ] ] ] ] ] ` t + 4 ' +.u.J.w.-.-.-.;.q 0.,.B l.k n }._.[.[.F.M h b ^.,.z.x.f f a V S.6X>X:XI.'.} &.l k.).! < R S d.] ] ] I ",
"] ] ] ] ] ] ] _ I o s.*.Y  . .....u.J.f.*X( N c k k.k ,.1.1.2.1.#.N s N k.F k.V V b.d.W._.:X~. X XXX Xt.3.D.C.^ , H ] ] ] ] I 7 ",
"] ] ] ] ] ] ] Y t O q Z :.] ] J b W [ ..).p.7.7.8.3.D x ,.>.h.>.=.n k z h z B S 3.e.L.Q.E.E.T.~.'. X|.!.!.).9.U < H '  .] Y 8 H ",
"] ] ] [ ]  ._ i.V.t ! ( 7.] _ 0 $.q ] ] ] { ' ..7.u.J.p.-.a ; 6.2X=Xb &.{ { ' E e r =.O.L.Y.P.P.P.E.E.E.E.P...Y 5 5 _  .] L 7 _ ",
"] ] ] ] ]  .I , t U ] ] ] ] ] ] ( ' o.]  .J >.|  . ...X...( 8.= @.#.c R ] ' w iXfX2XF.q ~ 9.y.u.u.u.O.4 w '  .' H > U  .~ 8 ~ X.",
"] ] ] ] ] ] 6 < L ] ] ] ' ] ] ] ] ] ] ] ] ~ :.| ]  .] J q ! J.s.3.A A E ' ` s N.[.`.6.d E ..[ ] ] ] ~ b 5.q | ] P O K ' I 8 a.J.",
"] [ ] ] ] U , t _ ] 8 *.e [ ] ] ] ] ] O.] ]  .] ] ] o.Q 9 ;. .K.Y.9.3 8 ' ] r N #.@.M f n.p.] ] ] ] ] i c 3.B. .T 5 < ! 8 W E.J.",
"] ] ] ] ] t O K _ ] e B F 8.] ]  .o.]  .~ e 8 / ] ] ] ] ' { ] { a.P.R 4 ` ] ] r k V V n.D.p.] ] o.o.] [ 8.;.O.] _ L , K < / U.J.",
"] ] ] ] K < < t _ ] ] } t.[ ] | ]  .] U d._.w.q ] ] ]  .] ] | ^ ^ P.{ 3 ^ / ] ] ( 4.3.;.t.] ] ] ] ] ] [ [ ] [ ] ] Y 6 2 5 ' u.X.",
"] ]  .Y < , 7 < K _ ] ] ] ] ] ] ] ] ] L &.(.w.a ' ] ] ] ] O.f.a.] O.' < ! ] ] ] ] ] ] ] ] ] ] ] ] ] [ ] ] ] ] ] ] ] K o 5 ] ]  .",
"] ] ] 8 O , 6 , < I ' ] ] ] ] ] ] ] ] _ r l k r ( ] ] ] ] ] [ ] ] ' 8 < L ' ] ] ] ] t.] ] ] ] ] ] ] ] ] ] ] ] ] ] ] Y < < _ ] ] ",
"' ] I , 8 8 , > , < L _ ] ] ] ] ] ] ] ] ] ~ ~ ] [ ] ] ] ] ] ] _ U 8 , , < K U ] ] ] ] ] ] ] ] ] ] ] ] [ ] ] ] ] ] ] ] I , Y  .] ",
"' ' 7 > K Y K O o , < H I _ ] ] ] ] ] ] ] ] ] ] ] ] ] ] _ _ U 8 O o < L < , 7 U _ ] ] ] ] ] ] ] ] ] ] ] ] ] ] ] ] ] ] U < H T ] ",
"_ I < , , 6 L 8 O O 7 6 6 8 K U Y Y T _ _ _ _ T T U P L t 6 , , 6 L ` ] U 8 , < K T ' ] ]  .] ] ] ] ] ] ] ] ] ] ] ]  .Y , 5 < H ",
"U K Y _ I 6 < < , o t Y U H 5 , , , < 5 7 7 7 < , O , O , 4 U ' ] ....u.../ 7 , O t P U T _ _ ] ] ] ] ] ] ] ] ] ] ] _ I > 5 > o ",
"K...]  .] ] _ U 8 , 5 U ] ] _ U L t 5 5 7 5 5 5 8 L P Y K t y.U.R.R.E.T.t.R W t.( P t t 7 t K P U Y T T ~ U I I I I 7 > > 8 I 5 ",
"Q.K. . .]  .] ] ] U 5 < K U _ ' _ _ T I t < , , 7 K P K 7 1 6 O.R.T.u.) t ) L.~. X!.T.L.t.t 3 , , , , , , < 4 < 4 7 K I 8 < < < "
};
