/* XPM */
static char *wall_11738632472[] = {
/* columns rows colors chars-per-pixel */
"64 64 54 1 ",
"  c #050504",
". c #080706",
"X c #090807",
"o c #090708",
"O c #0D0C0A",
"+ c #110F0D",
"@ c #12100F",
"# c #151311",
"$ c #191614",
"% c #1C1916",
"& c #1E1B19",
"* c #221E1B",
"= c #25211E",
"- c #29231F",
"; c #272320",
": c #2B2522",
"> c #2E2924",
", c #2D2B29",
"< c #312B26",
"1 c #352E29",
"2 c #36302B",
"3 c #3B332D",
"4 c #3E3631",
"5 c #3F3832",
"6 c #403732",
"7 c #443B35",
"8 c #483E37",
"9 c #473E38",
"0 c #493F38",
"q c #4B403A",
"w c #51453E",
"e c #524740",
"r c #554A42",
"t c #594D46",
"y c #5B4F48",
"u c #5C5047",
"i c #5E524A",
"p c #62554D",
"a c #65594F",
"s c #655750",
"d c #665951",
"f c #6B5D55",
"g c #6D5F58",
"h c #6E6057",
"j c #6F6259",
"k c #71635B",
"l c #76685F",
"z c #78695F",
"x c #776A60",
"c c #7B6D63",
"v c #7E7166",
"b c #7F7368",
"n c #807267",
"m c #807368",
/* pixels */
"kcmmcp@+70q0q0qqqq08qqqqq0qq0yjjs000w0=O*efgjjznncxkffdhhhjj6oij",
"xvmmnj=@7qqqqq0q00qwwerrrryysgkjpe00006$3rtdkkcmcmckuttifjjh2Xdl",
"xnmmmc6O280q00qwrpdfhjjhgjklxxccgt0000011qyfkkcmmmmnlhfjhkkh-*ln",
"lnmmmcy$%6qqq0wpfjjkkjjklxccnnmvkse0000110yfjglcmmvmczkkjjja@3nn",
"kcmmmvf3O%80w0tfjkkkllxvcmmmmmmmzjfirre>30qrisjkxcllkgjjkkhq$ann",
"kxbmmvkp1X6800tfkxvcvbvmmmmbmvmmckjggft;000qqwpkkkjkgkkkhkp=3zmm",
"kkcmncljp**6qqwflvmmvbmmmmmmmmmmnkjjjg4,qqqq00qripffggffhhq&kmmm",
"jjxccxkkh8O3q0wfklvvmmbmmmmmmvvcxkjjkf:3q0q0qqqqqwertrtrua=qbmmm",
"jjjkkkkjkf*#80wdjkkkvvvvbbvvxlkkjjkkjs;40qqqq0q0qqqqqqqqq2=hvmmm",
"jjjkkjkkkhq+:8wdkkkjklvvvcxkkjkkkjkjjf;2qqq9qqqqqqqqqqqq5@qvmmmm",
"kjjjfddjkkhw+<wdkkjjjjjjkkkjjjkhjjjjgd;*9qqqq0qqqqqqqqqq$$lmmmmm",
"kjjkpwwphkkh3$whkkjhairtfjkjkkjjjjjfre=@40qqqq0qqqqqqqq-+qvbmmmm",
"kjhht00qtfkkh6*uhi4=@OX.$6dhaahhgfpw06&@;7qqq0q0qqqqqq=O1alcmmvv",
"hhkhr0w00thkkd*-3$o@%-<<%O=3qwrtit006*;&#400qq00q5qq5:@>qwkllzzl",
"rrpftw0ww0uhkkw@X#<39qqq72$O*6qq0061$+##O$27097653=*%+*qqqahkhkk",
"00wrw000q00pkhp*@3qqqqqqqq72O@386<$+o+#$#o+=,:*&$$$=>#1qqqwfhhkk",
"0000w0w0qqqqujh3O3paafaawqqq1+ @$$>29yssr3=$@@#$-2qq6%<qqqqwhkka",
"00000000qqqqwujuO5hkkkkhtqqq8-.<wysggjjgfe954245qqqqq-=6qqqquaiq",
"000ww00eqqqqqqiiO2kkjkkhdwqqq1@tjjjkxxxjgfre9979qqqqwq$1qqqqqwqq",
"0w000000qqqqqqrq.2kklkkjhwwqq3$akjkcmmcxjgfpeeeewwuiff-%7qqqqqqq",
"0qqq0000qqqqqq5%$uznnzkkjpqq6$-ajgkcmmxkjjjjjgfgkkkjkjw%-7qqqqqq",
"0qq00w0wqqqqq2$$pvmnnzkkjhww- =wpfjxxxkjjjjjjjjjjjkjjkf1$6qqqqwq",
"qq00q000qqq2$$qkbnnnvkjkkka2O@O>00yfjjgggkkkjjkjkjkkkkji$=8qqqqq",
"0qe0000wq5%+>tjvmmnvlkkkkh3O6w-O*60esgkkkjkjjjjjjjkkkkkj<@6qqqqq",
"qqq0qqq7:+=qhjzvmmmmkkkkh3@4hft6*+-60wshjjjjjjjjjjcvckjja>$6qqqq",
"0q0q9q2=#2djkkvvmmmmlkjj1$wjhuqw02o*700ufhjjkjkjjlvbvlljka1$3qqq",
"00061;$O:qrdkklvvvbckka1&ikjpwqq0iw*#10weihjkjjjjvmmvvvlkkf6O=68",
"094&O$&.2qqrahklllzkapqXqkjawqqq0wsi*#80qeihjkkjlvmmvvbvzlha$ #<",
"*%Oo$,#+qqqqqrpafhfwwq==hjhwqqqq00wsi-*7qqqyhjjjxbbbmbmmbxjh6@O.",
"O  o&,O&qqqqqqqwuuwqqq*3jjawqqqqww0wfu*>qqqqijjhxvbbmmmmbxjj6O*@",
",47>OO =qqqqqqqqqqqqqq=<jkpwqqqq00w0rf8$,qqqeihhjlbbmbbbxkjj5+>2",
"7yjf7# $qqqqqqqqqqqqqq2=akpqqqqq0q000is6#2qqqefjjjcbmmbbxjjh4$1,",
"whkjjp-O:0qqqqqq9qqqqq7;ykpwqqq0w0000wdf>$9qqqrfjjlxvbvckkjf>;,:",
"thjkkka6+1qqqq0qqqq9qqq1rjpw0qqq00w00wuhw$3qqqqujjjkxvvlkjhi&=&;",
"ijjkkkkk0+30qqq0qqqqqq91rkfeqqqq00w000wfd<=9qqqqajjjjjhddir3#*3e",
"hkkjkkkkf<#4qqqq0qqqqqq2rkgpqq0qqq0000wfhq%59qqqrdjjdiurqq7&#3ri",
"jkjklcckkf@X:780qqqqqq9,ehjhtqqq00w0w0wfjd&2qqqqqqrrqqqq09,@2efh",
"jjjkznvlkf% O*389q8qq71#ygjjdtqqw00000wfjh>>qqq0qqqqqqq741$$9eif",
"jjjjlnclkqX-01:1699971O$etshkfpw00000wsffd=#2590qqq951&$@#O*99qr",
"ijjjkzlki%:aksw3>><<:*%#70rfjkffsityyutrrw##o#>3552=#O+$:3;:qqqq",
"epjkjjkg1Oakkkhduwq9quqO3qqphjhhhhfsrw0q01*3<%OO+OO@*<370q9100qq",
"qrgjjjjd&<klxkjkjjfhjjr#2qqwpffaput000007*200731>><58qqqqri1400q",
"qefgjjjr*txcmckjjjjjkji%>qqqqqqq00000w00>*wwq0qqqqqqqqqwsff<=0qq",
"qefgjkf7>dxbmnzjjjjkjjf3$6qqqqqq0w00qq07*:pwq0qqqqqqqqtdkkf1*00q",
"9efjjjd14gxcmmckjjhjkkja@=qqqqqq0ww00w02%wfp00qqqqqqrdlkjjd<:00q",
"9rhjjki:7gkcmmxkdpiajjjh2+6qqqqq0000007*2dhfw0qqqqqwkvnckks=>9qq",
"qyhhjjy&0jkkxxgpwqqwphkju$@3qqqq000007**akjkpw0qqquhcmmmxkt#200q",
"qrgjjjy$qhjjgsrqqqqqqufjh3X=qqqq0w0w7*%0jkkfsw00qthlmmmmckq@60qq",
"qqsjjjr#ejfdrqqq8qqq8qepja>O1qqq0962##6rhkkjjpwrphkvmnnnvj<#9qqq",
"qqtfjjr+efyeqqqqqqqqqqqwfju<@2441;$O+10efjjjjhddhjxbmvnnlh*&8qq8",
"qqqpjf9@3uqqq0q0qqqqqqqqtada-+@%$$+ *7qqpfkjjjjjjlvmnnvvlp$<qqqq",
"qqqrpr3O,qqqqqqqq8qqq9qqqwwrq@&3661O:90qwpffhjhjjlnmnvvvkw#3qqq8",
"0qqqqq2o:9qqqqq0qqqqqqqqqqqq5#<qqqq>#6qqqqwrwuiafkvvvzkkkq@1qqqq",
"qq0qqq1O:9q00qqqq8q8qqqqqqqq:O4qqqq3@10qqqq0qqqwrijkhhhjha%$7qqq",
"qqqqq9:oO:90q0q0qqqq7qqqqqq3O-qqqqq9$:0qqq0qqqqqqqqqqqqwwr7$-8qq",
"0q0qq7$&#o;5qqqqqqqqqqqqqq5$&qqqqqqq%*8qq0qq9qqqqqqqqqqqqqq3$3qq",
"qqqqq1@wf: @3qqqqqqqqqqq88**phawqqqq-&90qqqqqqq9qqqqqqq8qqqq-&qq",
"qqqqq-$avj1XO<qqqqqqqqqq8-%whkkhpw0q<*7qqqqq7qqqqq8q8qqqqqqq3%:7",
"7qqq7=%ajuq2X <9qqqqqqqq-$7wfhhhfiqq1;9qqqqqqqqqq9qqqqqqqqqq4=$=",
"6qqq3$=afqqq:X+<qqqqqq6<#38qwhhfuw0q1=9qqqqqqqqqqq8qqqqqqqq7$%4*",
"%==&@O1adwqqq<OX1qqqq6*O*3*-6wwwqq83#@5qqqqq339qqqqqqqqqqq6$@5q4",
"=$@#=6upwqqqq9>X+6q76*O#:-%#=8wqq8:+O@:9qq3:@@=2799qqqqqq7*O&3qq",
"qqqaapwqqqqqqq91O@=$+%$>qq88=$$%$@O=62#*=%$&44$O+#=<33631-O--$@$",
"wudhwqqqqwqqqqq8>+O@<6*-q8q86>**$=39q8<%%=16qqq3:%#$$$$@. **-3-$"
};
